P3
320 240
255
46 47 77 64 48 83 75 57 81 72 76 91 42 77 69 33 69 69 49 69 72 54 87 74 35 76 56 33 62 44 36 53 25 26 60 22 46 87 39 54 70 38 67 57 46 42 67 49 12 91 47 22 82 60 34 47 65 52 63 71 43 76 61 38 74 60 67 68 74 70 26 47 69 35 37 69 51 51 80 52 89 55 57 92 25 61 61 14 58 37 25 66 38 31 85 63 12 79 60 10 70 74 13 31 83 33 36 117 50 63 120 52 84 85 54 77 97 61 54 84 38 47 42 29 78 1 22 81 0 38 98 0 52 94 6 39 66 23 43 70 67 47 67 56 46 44 45 58 59 65 51 60 69 74 70 106 59 59 81 55 62 60 28 49 48 17 48 31 50 79 63 33 60 39 46 83 44 30 72 62 50 80 68 43 95 43 24 85 40 54 72 60 81 49 72 76 40 100 65 42 74 60 50 27 66 54 30 64 45 50 61 78 82 40 74 72 53 65 63 64 68 58 45 49 64 48 50 110 56 55 101 61 73 61 28 71 29 22 76 52 39 67 58 64 77 71 71 89 45 43 69 0 37 41 5 51 26 35 67 48 53 67 78 83 40 75 67 33 49 35 36 36 50 22 31 60 30 59 77 19 56 53 28 54 41 39 68 52 38 79 85 36 93 98 46 88 90 51 73 62 66 72 60 31 21 10 70 40 38 46 14 13 99 83 80 79 73 61 69 67 66 50 51 59 39 52 54 60 67 63 50 52 53 49 72 66 44 70 70 46 65 60 53 51 40 59 52 45 56 79 72 26 82 69 36 77 72 30 54 44 4 38 18 33 75 63 4 45 51 45 83 98 35 67 68 54 67 51 52 56 53 77 76 78 57 55 62 64 64 64 58 57 40 42 44 17 64 87 70 48 78 54 62 88 73 43 63 66 20 44 40 27 55 55 37 70 73 57 84 77 63 79 64 53 67 20 50 60 21 53 52 35 74 65 56 63 57 43 74 61 56 54 40 45 53 42 73 57 43 64 74 71 66 67 76 69 66 81 74 39 82 77 10 68 68 35 72 69 44 54 59 68 71 74 58 63 57 79 96 76 71 87 62 79 79 57 70 70 46 25 58 43 15 56 74 36 69 92 55 75 88 57 78 87 61 67 97 47 51 92 30 38 62 49 57 56 42 55 49 60 68 69 63 54 61 66 51 46 62 62 38 59 63 50 58 69 49 49 64 39 16 49 16 27 58 31 31 54 12 49 83 44 60 94 81 55 64 93 69 63 123 50 37 138 38 25 178 46 41 157 66 48 96 70 36 56 78 61 65 45 55 14 58 78 0 49 80 0 73 107 0 45 69 19 43 68 76 52 87 97 17 53 65 34 73 92 12 47 57 29 41 53 52 61 42 50 69 25 64 63 91 59 62 19 64 69 0 60 62 29 46 62 50 48 58 82 38 27 92 61 80 28 39 58 43 85 69 102 54 40 61 76 69 98 41 59 83 46 86 64 56 98 46 71 102 48 82 121 80 51 97 83 56 77 74 46 52 30 52 45 41 57 45 73 63 40 72 63 53 78 61 59 86 64 82 82 22 59 30 29 70 42 31 75 54 44 70 57 78 97 66 37 53 30 50 63 59 41 24 30 89 64 58 74 66 42 73 78 46 56 73 51 42 69 38 61 81 31 62 85 53 46 85 70 30 69 54 31 74 66 17 72 63 37 83 85 44 82 83 37 64 67 64 87 81 57 64 58 72 70 67 71 45 58 76 42 62 86 59 78 71 46 55 96 73 79 74 53 54 88 58 82 61 37 59 60 65 47 43 51 24 52 73 80 43 73 85 45 66 71 56 72 84 22 60 93 23 61 136 45 61 160 53 56 103 68 77 70 28 38 59 52 57 77 69 58 40 72 68 0 68 79 0 53 66 0 60 52 0 63 56 16 46 57 52 33 45 35 55 62 68 38 42 39 57 76 70 31 56 74 25 48 52 28 55 52 14 56 54 60 87 80 81 79 88 60 66 52 62 87 43 33 44 78 65 63 62 92 76 38 95 84 53 44 63 32 49 62 66 45 22 80 61 48 53 63 68 34 34 42 43 43 65 74 29 51 60 48 82 72 22 61 44 48 68 29 51 52 24 35 61 46 28 58 36 31 40 7 66 47 18 70 53 21 67 62 52 41 50 61 
52 53 83 58 42 77 65 47 71 68 72 87 51 86 78 50 86 86 47 67 70 19 52 39 25 66 46 45 74 56 86 103 75 36 70 32 47 88 40 16 32 0 46 36 25 33 58 40 11 90 46 49 109 87 49 62 80 58 69 77 15 48 33 27 63 49 48 49 55 98 54 75 93 59 61 77 59 59 71 43 80 44 46 81 26 62 62 20 64 43 28 69 41 25 79 57 9 76 57 39 99 103 31 49 101 50 53 134 40 53 110 23 55 56 36 59 79 44 37 67 53 62 57 49 98 21 63 122 8 36 96 0 35 77 0 16 43 0 33 60 57 49 69 58 58 56 57 57 58 64 48 57 66 58 54 90 58 58 80 60 67 65 48 69 68 38 69 52 42 71 55 45 72 51 25 62 23 30 72 62 35 65 53 36 88 36 42 103 58 61 79 67 78 46 69 48 12 72 74 51 83 51 41 18 79 67 43 80 61 66 42 59 63 33 67 65 49 61 59 44 48 38 58 62 77 74 76 136 69 68 114 66 78 66 25 68 26 7 61 37 40 68 59 32 45 39 45 63 19 43 69 0 52 56 20 79 54 63 65 46 51 55 66 71 17 52 44 56 72 58 40 40 54 43 52 81 35 64 82 25 62 59 46 72 59 35 64 48 32 73 79 15 72 77 22 64 66 55 77 66 66 72 60 66 56 45 83 53 51 57 25 24 64 48 45 77 71 59 65 63 62 57 58 66 39 52 54 36 43 39 73 75 76 41 64 58 54 80 80 53 72 67 55 53 42 63 56 49 39 62 55 25 81 68 29 70 65 46 70 60 18 52 32 35 77 65 25 66 72 31 69 84 32 64 65 41 54 38 56 60 57 50 49 51 52 50 57 45 45 45 53 52 35 53 55 28 54 77 60 66 96 72 60 86 71 54 74 77 24 48 44 28 56 56 32 65 68 45 72 65 51 67 52 50 64 17 53 63 24 50 49 32 66 57 48 51 45 31 82 69 64 66 52 57 65 54 85 83 69 90 66 63 58 77 86 79 55 70 63 52 95 90 17 75 75 36 73 70 50 60 65 53 56 59 81 86 80 60 77 57 60 76 51 60 60 38 55 55 31 36 69 54 11 52 70 36 69 92 41 61 74 63 84 93 64 70 100 75 79 120 55 63 87 63 71 70 40 53 47 50 58 59 59 50 57 59 44 39 60 60 36 42 46 33 56 67 47 52 67 42 32 65 32 27 58 31 44 67 25 38 72 33 36 70 57 59 68 97 66 60 120 52 39 140 52 39 192 28 23 139 78 60 108 84 50 70 81 64 68 60 70 29 49 69 0 61 92 0 45 79 0 35 59 9 33 58 66 28 63 73 41 77 89 38 77 96 34 69 79 39 51 63 46 55 36 40 59 15 55 54 82 62 65 22 57 62 0 73 75 42 38 54 42 55 65 89 50 39 104 48 67 15 34 53 38 61 45 78 67 53 74 63 56 85 51 69 93 35 75 53 43 85 33 69 100 46 63 102 61 34 80 66 40 61 58 44 50 28 53 46 42 79 67 95 75 52 84 59 49 74 64 62 89 40 58 58 45 82 53 32 73 45 34 78 57 41 67 54 49 68 37 53 69 46 53 66 62 76 59 65 98 73 67 92 84 60 50 55 23 57 74 52 40 67 36 39 59 9 55 78 46 24 63 48 26 65 50 35 78 70 24 79 70 35 81 83 41 79 80 47 74 77 37 60 54 38 45 39 57 55 52 71 45 58 107 73 93 86 59 78 94 69 78 80 57 63 70 49 50 66 36 60 58 34 56 64 69 51 59 67 40 42 63 70 30 60 72 34 55 60 61 77 89 41 79 112 36 74 149 24 40 139 39 42 89 24 33 26 15 25 46 55 60 80 84 73 55 109 105 20 63 74 0 63 76 0 61 53 0 64 57 17 55 66 61 48 60 50 39 46 52 56 60 57 38 57 51 22 47 65 34 57 61 43 70 67 30 72 70 47 74 67 43 41 50 43 49 35 42 67 23 49 60 94 66 64 63 82 66 28 98 87 56 64 83 52 59 72 76 41 18 76 55 42 47 56 61 27 46 54 55 42 64 73 29 51 60 9 43 33 28 67 50 35 55 16 65 66 38 58 84 69 53 83 61 65 74 41 60 41 12 66 49 17 105 100 90 153 162 173 
69 49 72 75 27 89 72 31 62 68 58 70 54 57 76 65 58 61 59 72 56 21 65 44 34 91 72 1 66 46 40 87 49 34 56 29 50 71 80 39 58 78 47 51 67 65 73 74 64 62 69 77 71 71 49 50 30 43 46 25 38 59 40 21 72 43 51 92 72 38 56 32 54 66 64 36 60 82 21 69 95 39 90 99 26 75 41 26 81 28 0 79 54 0 80 109 0 108 153 0 82 138 0 91 121 0 92 142 22 66 167 63 57 141 105 52 96 121 25 15 137 22 31 146 26 109 116 7 74 98 42 65 64 41 49 64 44 39 77 63 76 57 66 123 49 73 33 39 54 11 19 54 28 41 52 22 64 74 62 57 85 110 57 76 42 21 58 0 30 59 6 64 46 28 86 52 88 99 64 142 89 55 76 62 81 65 62 65 70 82 30 38 80 22 48 52 25 58 48 73 30 3 100 15 10 105 51 49 68 76 62 69 99 10 86 74 0 104 39 0 90 35 22 59 64 55 56 72 47 87 62 12 100 54 16 104 78 86 42 57 143 29 69 70 58 60 39 59 48 46 61 52 21 64 46 66 35 29 96 32 42 7 41 18 19 52 47 42 52 66 68 56 92 110 55 101 76 43 60 5 79 56 0 48 38 33 47 44 62 62 50 73 72 42 83 91 64 23 58 42 33 63 51 67 37 35 106 62 67 79 72 76 50 69 89 18 49 65 25 42 38 79 59 72 83 80 93 13 76 61 16 68 41 25 49 13 53 66 24 59 81 31 47 71 61 25 65 66 43 66 68 75 65 77 50 46 49 50 68 58 16 46 66 57 70 90 49 46 23 90 62 45 74 57 63 43 60 68 47 75 72 53 56 37 59 55 32 47 62 53 43 69 54 30 63 24 55 68 28 69 49 44 67 42 60 66 72 76 42 79 49 46 79 62 36 71 87 22 54 79 31 61 75 24 50 61 48 71 73 51 47 60 43 25 53 22 21 23 53 74 53 83 91 82 116 129 113 85 111 94 27 48 55 32 27 43 63 43 56 80 71 76 87 102 83 71 86 77 85 67 79 50 54 43 33 73 33 15 68 36 54 71 51 58 68 92 28 63 95 27 74 70 37 66 36 74 82 80 69 74 92 26 65 76 44 84 62 57 66 31 55 64 47 57 55 62 58 46 38 56 64 39 80 85 75 88 88 102 57 67 78 101 98 95 95 107 79 86 120 100 55 80 50 0 18 0 17 39 15 42 73 53 19 88 43 38 79 61 47 53 57 29 47 65 49 72 76 67 64 77 80 48 85 103 42 95 77 37 78 55 50 78 59 44 69 81 56 82 87 83 70 42 62 15 61 79 35 32 61 17 37 75 36 41 64 50 58 70 78 38 64 91 28 68 90 24 67 51 38 57 39 50 54 80 35 55 80 43 66 52 52 54 5 62 54 29 63 65 66 52 63 68 54 60 38 46 53 33 36 60 60 37 63 76 49 61 61 56 69 37 26 49 35 33 62 54 37 60 46 67 82 55 48 68 55 50 75 67 41 60 54 52 49 64 66 48 82 48 37 67 66 58 83 82 58 82 82 78 89 48 69 64 36 73 44 55 66 35 62 53 36 58 72 35 23 86 30 19 96 40 42 80 45 43 60 56 41 71 71 7 58 39 42 63 60 27 47 34 22 85 52 5 104 53 17 88 60 44 67 50 35 56 51 46 68 59 80 77 70 90 29 33 113 10 45 87 15 43 42 38 49 32 72 73 25 90 70 62 70 59 89 56 73 66 61 79 52 57 64 65 70 36 43 56 0 98 60 25 49 24 8 28 85 42 16 63 25 53 93 68 43 73 77 73 46 75 96 50 83 39 36 43 59 59 71 47 64 59 36 59 42 76 68 77 59 52 71 37 66 76 35 61 74 42 71 62 28 51 44 55 37 49 58 41 45 29 36 34 62 76 72 35 46 0 64 65 22 43 38 31 47 53 57 57 69 67 66 65 57 77 69 42 64 60 70 39 70 112 25 57 68 60 61 44 60 46 51 67 52 77 85 80 96 64 78 65 65 68 61 65 57 86 31 44 64 7 60 26 2 67 0 12 74 13 32 63 43 63 79 54 59 67 4 45 69 23 44 68 64 59 42 62 66 46 59 47 59 47 31 66 58 27 60 66 27 34 58 32 11 40 
62 42 65 80 32 94 70 29 60 63 53 65 58 61 80 41 34 37 64 77 61 23 67 46 41 98 79 15 80 60 21 68 30 35 57 30 28 49 58 30 49 69 40 44 60 41 49 50 69 67 74 85 79 79 57 58 38 37 40 19 37 58 39 29 80 51 58 99 79 73 91 67 44 56 54 28 52 74 0 47 73 27 78 87 39 88 54 34 89 36 1 87 62 0 92 121 0 109 154 0 110 166 0 93 123 0 85 135 20 64 165 55 49 133 106 53 97 122 26 16 131 16 25 150 30 113 110 1 68 80 24 47 56 33 41 68 48 43 83 69 82 51 60 117 43 67 27 35 50 7 44 79 53 52 63 33 59 69 57 31 59 84 52 71 37 39 76 0 43 72 19 83 65 47 70 36 72 84 49 127 83 49 70 33 52 36 71 74 79 85 33 41 88 30 56 79 52 85 49 74 31 2 99 14 0 91 37 32 51 59 53 60 90 18 94 82 0 101 36 0 106 51 12 49 54 70 71 87 54 94 69 0 88 42 0 88 62 92 48 63 134 20 60 73 61 63 45 65 54 42 57 48 19 62 44 76 45 39 78 14 24 24 58 35 27 60 55 63 73 87 64 52 88 92 37 83 82 49 66 0 68 45 25 84 74 55 69 66 63 63 51 53 52 22 46 54 27 22 57 41 43 73 61 83 53 51 87 43 48 51 44 48 41 60 80 38 69 85 64 81 77 59 39 52 60 57 70 7 70 55 29 81 54 48 72 36 47 60 18 46 68 18 34 58 48 25 65 66 39 62 64 61 51 63 70 66 69 50 68 58 26 56 76 35 48 68 45 42 19 68 40 23 77 60 66 52 69 77 46 74 71 66 69 50 49 45 22 57 72 63 42 68 53 52 85 46 52 65 25 60 40 35 62 37 55 43 49 53 48 85 55 53 86 69 38 73 89 45 77 102 26 56 70 48 74 85 32 55 57 68 64 77 64 46 74 53 52 54 53 74 53 56 64 55 70 83 67 46 72 55 49 70 77 50 45 61 103 83 96 72 63 68 73 88 69 38 53 44 61 43 55 52 56 45 41 81 41 35 88 56 69 86 66 64 74 98 33 68 100 32 79 75 32 61 31 54 62 60 62 67 85 18 57 68 30 70 48 41 50 15 44 53 36 75 73 80 72 60 52 62 70 45 57 62 52 75 75 89 31 41 52 73 70 67 32 44 16 33 67 47 36 61 31 26 47 16 37 59 35 39 70 50 23 92 47 48 89 71 46 52 56 52 70 88 38 61 65 59 56 69 66 34 71 85 24 77 71 31 72 53 48 76 78 63 88 60 35 61 75 71 58 43 63 16 68 86 42 40 69 25 35 73 34 41 64 50 39 51 59 48 74 101 23 63 85 21 64 48 42 61 43 46 50 76 45 65 90 46 69 55 80 82 33 63 55 30 63 65 66 31 42 47 49 55 33 65 72 52 33 57 57 59 85 98 20 32 32 45 58 26 24 47 33 38 67 59 50 73 59 50 65 38 41 61 48 43 68 60 45 64 58 67 64 79 45 27 61 66 55 85 46 38 63 92 68 92 47 43 54 51 72 67 49 86 57 64 75 44 85 76 59 28 42 5 24 87 31 0 73 17 63 101 66 34 51 47 46 76 76 20 71 52 54 75 72 57 77 64 1 64 31 0 97 46 7 78 50 33 56 39 35 56 51 19 41 32 90 87 80 111 50 54 170 67 102 87 15 43 52 48 59 24 64 65 0 63 43 59 67 56 65 32 49 75 70 88 50 55 62 65 70 36 44 57 0 64 26 0 76 51 35 38 95 52 40 87 49 33 73 48 23 53 57 61 34 63 78 32 65 82 79 86 55 55 67 65 82 77 29 52 35 57 49 58 49 42 61 32 61 71 47 73 86 33 62 53 33 56 49 63 45 57 75 58 62 46 53 51 51 65 61 48 59 3 44 45 2 61 56 49 52 58 62 48 60 58 47 46 38 52 44 17 59 55 65 29 60 102 54 86 97 59 60 43 53 39 44 77 62 87 59 54 70 57 71 58 63 66 59 55 47 76 45 58 78 23 76 42 19 84 4 27 89 28 23 54 34 31 47 22 56 64 1 37 61 15 56 80 76 66 49 69 42 22 35 42 54 42 2 37 29 58 91 97 97 104 128 163 142 171 
36 54 68 26 52 63 34 49 68 58 65 89 54 60 70 44 45 35 65 60 50 72 70 69 74 70 73 59 60 43 48 43 23 69 51 27 67 58 41 49 46 39 45 39 29 26 39 25 46 69 71 22 53 69 42 74 101 14 54 68 44 71 78 24 76 68 52 87 93 67 83 94 66 63 76 46 71 61 9 50 28 15 70 52 29 73 62 51 77 62 52 77 59 45 71 54 60 84 70 64 87 73 58 75 81 47 57 71 52 54 81 46 57 75 47 56 63 80 90 78 114 112 103 109 128 87 132 169 101 80 113 44 60 84 34 7 41 18 0 11 0 42 72 48 59 65 75 82 53 95 54 30 76 37 31 67 48 58 59 58 94 62 16 47 43 52 67 84 20 38 54 50 72 81 59 86 57 29 50 5 64 64 50 40 74 61 23 81 52 39 100 45 29 65 17 34 65 45 49 70 77 69 80 77 55 46 55 89 48 76 73 33 71 73 67 79 67 64 67 37 42 49 39 60 69 28 53 46 74 90 65 41 47 23 80 71 64 31 49 41 44 70 55 51 69 67 55 57 58 84 63 64 59 59 47 31 58 27 16 46 24 30 46 31 54 66 42 49 77 51 22 66 53 21 70 63 37 79 71 44 69 52 42 55 57 42 57 72 13 24 29 64 65 58 46 48 33 90 78 78 80 64 79 81 79 78 52 55 36 36 48 50 38 62 88 28 68 92 35 89 87 20 73 67 30 58 49 39 50 45 42 38 51 54 51 48 59 40 19 68 33 17 86 46 69 63 44 85 63 67 106 56 58 84 57 73 85 20 55 65 27 85 75 7 63 28 32 81 27 22 67 25 35 85 44 45 78 39 58 58 34 65 66 72 28 37 58 40 56 81 42 37 65 56 52 75 51 60 69 52 80 69 63 76 62 63 76 68 63 70 68 74 53 46 61 48 20 44 59 30 33 54 53 55 74 92 57 60 67 76 79 74 43 81 54 39 68 59 66 65 49 62 58 32 72 63 32 60 67 48 60 72 64 82 77 85 74 78 94 50 79 97 41 74 79 24 67 62 48 69 66 68 80 88 65 73 90 62 63 71 43 63 50 34 69 53 34 60 45 48 61 45 57 66 51 18 39 22 46 99 59 26 62 30 62 57 41 59 31 32 60 45 38 85 65 80 83 49 59 89 73 72 56 52 54 58 57 75 67 66 93 23 41 59 28 67 50 14 50 0 56 70 25 67 73 59 50 61 43 49 55 39 48 43 25 67 57 56 44 55 73 40 73 96 29 54 46 48 64 49 66 85 69 46 88 54 62 98 64 43 84 38 23 61 14 18 58 33 2 47 22 15 42 39 57 59 94 33 49 94 56 70 119 62 63 106 58 51 83 70 58 84 51 46 52 58 49 20 75 51 11 60 64 2 50 86 8 50 76 17 50 56 34 43 52 61 37 67 81 47 79 90 57 66 77 65 52 84 39 33 67 34 51 55 42 59 37 41 54 38 54 67 59 59 72 56 50 58 46 49 67 57 43 57 56 10 50 28 34 79 34 37 71 35 47 64 70 69 72 93 66 45 66 59 53 53 66 52 55 68 57 52 59 63 35 38 68 18 34 80 32 10 76 16 22 78 17 40 78 43 40 55 60 71 66 92 65 62 79 44 48 63 54 58 83 42 49 89 60 63 94 74 49 41 73 63 24 57 79 28 51 80 27 92 90 55 111 93 77 108 130 93 67 139 113 70 105 115 74 77 108 64 57 89 50 56 60 43 53 2 37 27 0 61 37 11 38 51 35 62 79 39 81 77 36 46 62 40 23 53 63 14 40 69 53 46 65 76 58 58 54 65 71 20 63 55 29 53 33 45 55 32 58 79 60 44 88 51 40 89 56 33 60 81 45 43 79 67 61 73 63 61 48 60 62 71 48 50 77 32 36 35 30 41 0 35 64 0 37 61 39 49 80 86 41 64 48 58 53 37 68 52 67 66 65 83 61 56 72 59 55 58 68 63 56 46 70 58 18 60 36 38 54 31 35 26 43 47 65 83 42 77 71 50 74 50 84 71 69 71 34 74 75 57 59 57 67 0 52 70 0 68 83 0 59 66 44 55 37 63 62 52 99 9 41 101 5 43 140 0 25 157 15 22 138 26 47 64 31 85 49 55 100 11 76 87 0 57 55 62 
42 60 74 29 55 66 43 58 77 46 53 77 56 62 72 67 68 58 62 57 47 76 74 73 35 31 34 42 43 26 50 45 25 70 52 28 78 69 52 81 78 71 69 63 53 41 54 40 29 52 54 4 35 51 28 60 87 34 74 88 54 81 88 28 80 72 43 78 84 32 48 59 62 59 72 56 81 71 31 72 50 25 80 62 9 53 42 35 61 46 63 88 70 82 108 91 90 114 100 57 80 66 60 77 83 26 36 50 33 35 62 37 48 66 65 74 81 69 79 67 85 83 74 47 66 25 9 46 0 44 77 8 26 50 0 41 75 52 32 56 44 37 67 43 50 56 66 75 46 88 75 51 97 41 35 71 65 75 76 42 78 46 52 83 79 41 56 73 37 55 71 38 60 69 48 75 46 61 82 37 65 65 51 22 56 43 18 76 47 9 70 15 50 86 38 39 70 50 46 67 74 35 46 43 54 45 54 77 36 64 79 39 77 61 55 67 74 71 74 67 72 79 54 75 84 55 80 73 30 46 21 68 74 50 62 53 46 56 74 66 62 88 73 36 54 52 65 67 68 65 44 45 32 32 20 35 62 31 15 45 23 47 63 48 54 66 42 50 78 52 38 82 69 22 71 64 17 59 51 27 52 35 38 51 53 59 74 89 52 63 68 52 53 46 57 59 44 54 42 42 68 52 67 55 53 52 55 58 39 52 64 66 43 67 93 28 68 92 25 79 77 16 69 63 27 55 46 45 56 51 50 46 59 62 59 56 66 47 26 83 48 32 73 33 56 74 55 96 57 61 100 35 37 63 42 58 70 18 53 63 24 82 72 38 94 59 39 88 34 38 83 41 23 73 32 23 56 17 52 52 28 53 54 60 51 60 81 46 62 87 58 53 81 71 67 90 57 66 75 21 49 38 54 67 53 32 45 37 72 79 77 87 66 59 41 28 0 66 81 52 38 59 58 71 90 108 54 57 64 62 65 60 31 69 42 45 74 65 65 64 48 54 50 24 68 59 28 61 68 49 69 81 73 80 75 83 74 78 94 27 56 74 33 66 71 39 82 77 64 85 82 89 101 109 52 60 77 48 49 57 25 45 32 21 56 40 47 73 58 41 54 38 72 81 66 39 60 43 47 100 60 30 66 34 86 81 65 73 45 46 95 80 73 55 35 50 58 24 34 59 43 42 39 35 37 69 68 86 52 51 78 37 55 73 28 67 50 42 78 26 59 73 28 34 40 26 27 38 20 27 33 17 51 46 28 98 88 87 42 53 71 50 83 106 23 48 40 41 57 42 59 78 62 48 90 56 41 77 43 46 87 41 33 71 24 25 65 40 37 82 57 16 43 40 60 62 97 33 49 94 59 73 122 56 57 100 47 40 72 69 57 83 40 35 41 61 52 23 86 62 22 42 46 0 47 83 5 43 69 10 68 74 52 44 53 62 48 78 92 18 50 61 42 51 62 70 57 89 56 50 84 58 75 79 55 72 50 52 65 49 33 46 38 55 68 52 35 43 31 46 64 54 48 62 61 51 91 69 47 92 47 31 65 29 28 45 51 26 29 50 59 38 59 72 66 66 71 57 60 83 72 67 66 70 42 38 68 18 26 72 24 4 70 10 24 80 19 41 79 44 51 66 71 77 72 98 55 52 69 56 60 75 49 53 78 43 50 90 47 50 81 71 46 38 84 74 35 91 113 62 131 160 107 172 170 135 178 160 144 135 157 120 70 142 116 45 80 90 55 58 89 52 45 77 34 40 44 58 68 17 49 39 0 72 48 22 30 43 27 40 57 17 58 54 13 34 50 28 31 61 71 17 43 72 39 32 51 67 49 49 46 57 63 33 76 68 35 59 39 36 46 23 44 65 46 41 85 48 44 93 60 49 76 97 37 35 71 62 56 68 58 56 43 57 59 68 58 60 87 38 42 41 60 71 15 49 78 12 64 88 66 40 71 77 47 70 54 69 64 48 56 40 55 55 54 72 50 45 61 58 54 57 65 60 53 54 78 66 41 83 59 24 40 17 4 0 12 14 32 50 20 55 49 127 151 127 111 98 96 75 38 78 25 7 9 50 60 0 89 107 0 81 96 0 56 63 41 43 25 51 35 25 72 13 45 105 27 65 162 18 43 175 33 40 156 39 60 77 35 89 53 71 116 27 178 189 99 204 202 209 
47 0 0 88 23 33 64 47 65 60 5 59 8 0 31 0 71 77 23 127 114 0 137 87 0 89 33 0 80 48 0 97 50 0 140 53 0 128 58 5 79 34 39 60 43 33 71 36 27 69 41 30 44 40 66 83 91 41 38 41 35 58 42 6 112 64 89 128 113 240 255 239 235 255 224 247 255 230 242 255 244 136 125 111 77 0 1 48 2 16 68 56 82 100 93 112 83 137 117 124 170 135 184 143 165 129 130 164 92 146 171 52 111 157 57 35 158 77 19 180 60 18 150 15 54 101 31 77 78 90 99 68 28 50 0 14 109 0 5 105 0 34 75 0 0 23 0 5 31 16 42 39 98 79 76 135 136 145 156 84 94 69 72 63 44 21 14 0 14 43 3 43 111 40 28 95 12 55 66 45 62 67 87 44 55 52 53 53 77 71 45 96 55 37 45 59 49 44 80 82 67 63 59 59 53 64 121 41 60 115 34 60 43 56 58 23 47 42 32 65 72 70 26 59 64 72 85 79 67 59 26 59 66 46 24 53 71 23 51 74 48 62 58 70 75 59 72 93 64 51 72 45 62 38 50 52 27 34 24 45 16 34 76 50 53 72 66 61 61 61 13 46 39 0 61 40 6 67 38 59 61 62 89 77 103 64 61 90 59 49 62 52 46 44 18 43 26 8 56 28 53 63 66 77 58 65 68 76 67 42 85 71 34 63 55 56 52 54 67 55 43 61 74 56 34 55 54 55 67 77 6 36 24 12 63 42 24 71 41 36 52 55 73 64 109 42 64 57 38 82 21 66 74 39 61 22 41 39 0 37 65 38 77 249 255 254 245 255 249 245 255 255 238 255 255 150 173 156 57 76 45 27 43 20 24 68 33 32 62 40 94 91 84 65 38 43 59 75 42 43 92 48 51 80 50 61 55 55 39 40 48 14 49 41 16 45 37 55 63 90 70 71 111 36 55 83 61 91 93 49 56 63 47 54 58 68 69 60 65 58 34 82 69 74 59 77 101 44 74 94 42 71 55 67 75 48 27 53 38 37 75 89 57 72 89 68 66 55 85 93 66 68 94 71 48 76 39 62 70 45 26 32 20 13 49 25 57 106 73 56 74 64 98 94 107 57 53 72 35 36 44 45 48 43 23 28 20 43 47 34 52 79 46 57 79 52 56 74 64 37 59 71 18 50 43 47 62 47 76 65 70 72 51 42 65 56 25 31 44 28 32 56 54 45 74 56 37 68 49 36 74 47 50 60 73 50 43 81 57 75 73 25 58 19 50 58 46 45 39 61 47 71 85 40 79 72 55 77 66 53 72 56 36 54 42 55 71 59 49 52 45 67 56 38 48 56 27 42 70 33 69 39 39 86 51 77 59 54 64 28 61 48 53 81 55 56 50 46 67 60 53 26 76 35 7 69 18 49 73 51 53 57 57 52 58 68 55 64 83 39 50 84 32 61 107 23 59 73 30 53 39 56 55 57 52 61 54 49 78 36 48 90 30 54 57 54 74 58 83 60 51 40 37 70 13 28 64 42 48 67 88 69 74 84 37 62 16 28 59 6 13 32 24 26 32 44 47 63 31 53 62 47 74 61 79 67 58 63 63 73 48 60 77 47 59 58 62 70 51 82 39 38 32 4 34 12 18 44 44 34 45 42 70 104 93 66 119 115 47 96 89 52 66 65 30 45 18 80 94 49 111 111 101 164 144 159 170 147 153 145 130 121 134 143 124 97 105 78 72 74 59 57 68 40 58 75 34 50 70 11 25 66 2 32 77 0 12 48 0 49 67 81 54 75 84 47 69 42 41 59 31 70 55 62 66 55 73 73 57 82 88 82 46 35 45 6 37 70 65 45 68 72 54 63 48 78 78 78 41 45 58 34 67 54 39 66 61 36 44 77 53 64 96 30 41 55 68 64 74 70 54 87 78 69 100 62 60 57 67 79 3 68 53 12 63 51 51 39 66 33 0 58 2 36 79 63 47 61 84 60 70 117 40 72 83 41 74 33 9 29 6 48 35 41 68 49 39 68 49 56 92 72 70 63 44 36 45 47 60 44 52 89 76 67 122 45 57 81 8 60 33 2 63 20 25 49 37 62 59 52 73 92 59 159 179 120 255 252 214 255 244 244 255 255 253 148 167 152 54 78 74 0 0 21 51 79 105 33 93 93 
93 23 35 84 19 29 38 21 39 92 37 91 70 51 93 21 92 98 0 101 88 0 100 50 0 93 37 0 77 45 0 115 68 0 118 31 0 130 60 0 67 22 52 73 56 33 71 36 17 59 31 49 63 59 15 32 40 66 63 66 26 49 33 6 112 64 35 74 59 57 82 56 50 85 39 41 57 24 39 60 41 58 47 33 129 39 53 101 55 69 88 76 102 89 82 101 44 98 78 73 119 84 96 55 77 71 72 106 9 63 88 5 64 110 60 38 161 96 38 199 87 45 177 35 74 121 18 64 65 38 47 16 41 63 0 0 95 0 21 121 0 33 74 0 68 91 13 25 51 36 61 58 117 51 48 107 28 37 48 53 63 38 59 50 31 72 65 35 50 79 39 7 75 4 29 96 13 48 59 38 77 82 102 54 65 62 40 40 64 71 45 96 45 27 35 81 71 66 57 59 44 70 66 66 39 50 107 44 63 118 24 50 33 72 74 39 49 44 34 51 58 56 39 72 77 37 50 44 92 84 51 60 67 47 41 70 88 40 68 91 43 57 53 82 87 71 131 152 123 243 255 237 255 246 255 255 246 253 241 255 233 50 92 66 30 49 43 0 0 0 44 77 70 25 99 78 31 92 63 51 53 54 42 30 56 43 40 69 61 51 64 99 93 91 32 57 40 36 84 56 41 51 54 59 40 47 48 56 47 45 88 74 48 77 69 49 45 47 67 55 43 48 61 43 41 62 61 60 72 82 0 10 0 0 37 16 7 54 24 74 90 93 119 110 155 61 83 76 7 51 0 8 16 0 101 62 81 111 66 109 101 74 113 34 41 39 42 58 46 22 33 51 52 76 76 49 72 55 47 66 35 62 78 55 27 71 36 29 59 37 52 49 42 85 58 63 50 66 33 23 72 28 61 90 60 39 33 33 50 51 59 36 71 63 30 59 51 59 67 94 64 65 105 53 72 100 46 76 78 79 86 93 33 40 44 80 81 72 79 72 48 93 80 85 57 75 99 31 61 81 36 65 49 59 67 40 65 91 76 42 80 94 47 62 79 62 60 49 36 44 17 51 77 54 38 66 29 75 83 58 52 58 46 29 65 41 20 69 36 27 45 35 59 55 68 49 45 64 67 68 76 50 53 48 67 72 64 48 52 39 51 78 45 52 74 47 54 72 62 39 61 73 46 78 71 57 72 57 68 57 62 83 62 53 61 52 21 31 44 28 26 50 48 4 33 15 30 61 42 29 67 40 61 71 84 68 61 99 27 45 43 38 71 32 39 47 35 74 68 90 23 47 61 39 78 71 22 44 33 62 81 65 64 82 70 48 64 52 63 66 59 46 35 17 70 78 49 130 158 121 255 246 246 255 241 255 255 252 255 175 208 195 55 83 57 24 18 14 39 32 25 29 79 38 44 106 55 31 55 33 59 63 63 50 56 66 54 63 82 42 53 87 53 82 128 20 56 70 56 79 65 63 62 64 24 33 26 52 81 39 18 60 0 60 63 60 55 39 64 81 72 61 44 77 20 35 71 49 39 58 79 34 39 49 45 70 24 33 64 11 40 59 51 50 56 68 37 53 21 49 58 43 72 59 77 67 58 63 62 72 47 63 80 50 58 57 61 53 34 65 51 50 44 7 37 15 43 69 69 44 55 52 47 81 70 20 73 69 22 71 64 58 72 71 67 82 55 102 116 71 139 139 129 158 138 153 155 132 138 117 102 93 76 85 66 66 74 47 73 75 60 67 78 50 44 61 20 38 58 0 18 59 0 34 79 0 52 88 26 66 84 98 45 66 75 38 60 33 31 49 21 70 55 62 78 67 85 83 67 92 68 62 26 40 50 11 6 39 34 38 61 65 48 57 42 76 76 76 73 77 90 57 90 77 49 76 71 46 54 87 41 52 84 39 50 64 73 69 79 67 51 84 68 59 90 58 56 53 52 64 0 74 59 18 67 55 55 51 78 45 28 93 37 22 65 49 37 51 74 32 42 89 26 58 69 45 78 37 58 78 55 79 66 72 65 46 36 60 41 48 52 32 30 65 46 38 67 69 82 36 44 81 56 47 102 43 55 79 22 74 47 21 82 39 12 36 24 40 37 30 29 48 15 48 68 9 90 68 30 75 41 41 62 62 60 35 54 39 51 75 71 82 86 109 133 161 187 175 235 235 
34 57 50 56 62 22 66 44 8 93 62 56 59 45 48 36 43 39 55 73 49 9 45 11 30 67 45 6 43 22 7 37 23 40 75 69 56 80 76 74 81 77 77 65 65 67 54 70 55 43 95 81 76 102 49 53 24 61 61 23 41 57 24 46 60 57 51 63 55 29 48 6 30 60 20 32 70 59 39 85 53 52 89 59 37 64 67 22 65 70 53 67 82 103 82 111 107 90 130 86 104 128 82 103 82 79 95 21 76 75 45 41 73 76 17 72 45 37 58 39 66 50 62 60 40 87 86 55 109 60 38 39 69 47 37 44 41 54 53 64 62 65 65 53 62 78 63 35 74 91 35 76 108 57 74 82 49 54 36 26 56 34 4 51 0 38 57 24 40 50 29 58 73 54 41 71 57 40 63 57 72 71 73 43 58 77 26 62 92 30 55 73 39 37 60 84 69 86 72 60 68 63 76 70 52 52 40 61 52 41 60 60 40 42 84 48 12 74 37 8 62 40 34 69 53 23 46 32 73 92 58 56 64 53 64 67 88 49 59 70 58 53 61 82 58 78 77 50 79 63 58 87 59 65 69 54 58 32 51 58 39 35 96 49 8 71 14 57 77 62 42 59 67 52 66 78 43 67 55 59 49 46 79 48 68 42 31 36 48 84 52 54 86 53 26 60 50 46 106 92 0 44 3 43 51 16 56 43 41 69 77 78 51 81 59 55 79 43 77 56 51 53 26 49 69 78 85 14 33 28 70 72 75 30 36 38 45 57 55 50 62 52 37 62 52 49 89 77 37 72 64 35 76 54 47 66 60 46 38 65 47 60 82 20 48 45 64 57 61 64 46 74 67 55 83 58 70 70 67 73 61 72 53 58 53 38 53 53 75 66 9 46 24 86 97 105 29 21 50 67 80 74 23 55 20 53 53 49 66 71 87 21 59 50 50 86 50 47 66 33 53 67 66 23 78 71 16 74 46 62 74 64 61 45 59 67 73 73 55 73 65 63 65 65 69 47 74 50 53 86 23 62 53 32 46 25 85 82 77 45 56 38 75 103 67 45 76 48 70 81 35 52 58 6 56 71 46 39 50 47 49 49 59 59 55 74 43 47 44 56 56 44 44 50 60 30 67 63 37 83 71 27 70 38 42 58 46 43 53 56 41 68 75 35 74 67 55 52 83 74 54 93 39 34 50 31 99 52 0 83 12 49 74 31 53 61 34 48 71 29 53 60 14 72 49 55 75 38 77 66 50 64 52 69 49 59 54 38 59 65 51 20 65 46 10 81 37 40 71 26 70 56 44 63 58 48 37 58 63 59 56 89 69 50 68 65 57 42 70 71 64 35 30 58 72 61 108 57 61 87 71 84 53 61 56 0 60 59 27 25 57 24 37 84 44 43 83 43 33 58 30 26 75 42 15 63 63 47 71 87 68 60 89 61 51 66 53 52 36 48 54 30 77 55 56 68 49 67 52 47 57 49 64 55 30 43 45 55 65 76 38 63 53 43 66 36 36 49 17 43 54 34 31 55 51 3 76 34 19 88 33 50 55 39 47 57 60 8 50 42 11 58 56 21 64 58 76 62 63 103 63 75 66 59 79 51 43 70 56 46 71 55 71 59 45 71 46 43 71 60 26 65 48 16 58 30 40 62 27 64 60 35 71 44 37 74 60 45 82 84 61 40 70 58 45 67 77 28 75 83 6 61 51 56 79 63 58 76 50 92 107 80 116 96 73 134 98 72 91 70 37 61 59 32 35 79 30 42 105 48 79 91 57 76 80 51 53 73 34 41 61 12 62 47 38 91 53 82 147 121 136 236 255 251 222 255 255 226 255 255 238 255 255 75 100 70 0 40 13 0 53 67 85 87 122 101 91 103 122 101 92 84 64 62 83 74 91 84 73 75 80 51 41 65 36 52 57 41 66 43 66 70 43 90 84 6 65 57 21 65 52 37 74 44 32 62 12 64 80 31 56 53 20 37 32 16 66 50 49 75 49 62 70 61 52 70 65 55 34 53 38 31 53 63 49 63 86 50 68 68 43 63 22 66 82 49 50 61 67 68 74 84 80 93 61 77 91 43 60 39 42 74 44 81 40 30 43 40 43 38 67 76 85 31 29 65 60 45 88 39 27 25 43 60 30 31 55 33 30 42 16 57 67 20 29 28 0 39 48 33 
45 68 61 62 68 28 100 78 42 144 113 107 138 124 127 112 119 115 73 91 67 58 94 60 72 109 87 93 130 109 108 138 124 105 140 134 108 132 128 134 141 137 150 138 138 127 114 130 111 99 151 95 90 116 90 94 65 114 114 76 142 158 125 134 148 145 133 145 137 94 113 71 87 117 77 101 139 128 102 148 116 104 141 111 88 115 118 63 106 111 113 127 142 143 122 151 156 139 179 116 134 158 93 114 93 60 76 2 83 82 52 55 87 90 84 139 112 138 159 140 162 146 158 166 146 193 119 88 142 95 73 74 81 59 49 81 78 91 67 78 76 85 85 73 62 78 63 45 84 101 47 88 120 39 56 64 63 68 50 72 102 80 103 150 96 137 156 123 136 146 125 77 92 73 42 72 58 16 39 33 30 29 31 39 54 73 35 71 101 62 87 105 74 72 95 81 66 83 64 52 60 54 67 61 59 59 47 63 54 43 50 50 30 16 58 22 16 78 41 25 79 57 54 89 73 34 57 43 52 71 37 49 57 46 55 58 79 55 65 76 53 48 56 60 36 56 59 32 61 62 57 86 43 49 53 60 64 38 54 61 42 22 83 36 27 90 33 34 54 39 38 55 63 38 52 64 49 73 61 77 67 64 60 29 49 60 49 54 26 62 30 52 84 51 39 73 63 26 86 72 13 62 21 46 54 19 69 56 54 43 51 52 48 78 56 31 55 19 73 52 47 59 32 55 67 76 83 52 71 66 58 60 63 67 73 75 23 35 33 54 66 56 50 75 65 25 65 53 47 82 74 6 47 25 47 66 60 53 45 72 51 64 86 40 68 65 53 46 50 65 47 75 54 42 70 63 75 75 46 52 40 74 55 60 42 27 42 57 79 70 41 78 56 72 83 91 72 64 93 45 58 52 41 73 38 54 54 50 56 61 77 21 59 50 47 83 47 59 78 45 53 67 66 32 87 80 0 50 22 56 68 58 65 49 63 85 91 91 63 81 73 44 46 46 85 63 90 18 21 54 56 95 86 44 58 37 68 65 60 57 68 50 57 85 49 49 80 52 58 69 23 67 73 21 48 63 38 41 52 49 45 45 55 36 32 51 56 60 57 68 68 56 57 63 73 9 46 42 13 59 47 21 64 32 55 71 59 60 70 73 7 34 41 0 31 24 74 71 102 128 108 147 71 66 82 53 121 74 0 52 0 15 40 0 55 63 36 0 11 0 0 7 0 15 0 0 21 0 23 24 8 22 55 72 52 78 73 57 63 69 55 17 62 43 23 94 50 68 99 54 64 50 38 63 58 48 52 73 78 38 35 68 60 41 59 54 46 31 58 59 52 75 70 98 82 71 118 53 57 83 50 63 32 67 62 6 54 53 21 49 81 48 25 72 32 39 79 39 44 69 41 40 89 56 9 57 57 33 57 73 48 40 69 49 39 54 69 68 52 45 51 27 79 57 58 66 47 65 59 54 64 51 66 57 30 43 45 43 53 64 40 65 55 51 74 44 56 69 37 57 68 48 35 59 55 30 103 61 52 121 66 41 46 30 52 62 65 0 25 17 9 56 54 6 49 43 42 28 29 84 44 56 64 57 77 85 77 104 4 0 19 24 40 28 39 65 40 79 107 96 117 156 139 40 82 54 26 48 13 61 57 32 96 69 62 84 70 55 86 88 65 13 43 31 30 52 62 43 90 98 36 91 81 63 86 70 63 81 55 54 69 42 93 73 50 109 73 47 93 72 39 86 84 57 32 76 27 46 109 52 63 75 41 63 67 38 68 88 49 26 46 0 88 73 64 75 37 66 75 49 64 44 72 59 19 67 59 27 66 77 46 68 67 42 67 37 23 74 47 3 57 71 53 55 90 84 74 86 118 97 88 92 72 70 67 58 75 67 56 58 78 49 39 83 54 70 53 37 62 20 43 47 8 55 49 13 72 64 44 88 75 51 88 58 33 63 13 30 46 0 45 42 9 53 48 32 90 74 73 95 69 82 57 48 39 68 63 53 23 42 27 41 63 73 41 55 78 57 75 75 65 85 44 84 100 67 93 104 110 68 74 84 62 75 43 45 59 11 72 51 54 75 45 82 52 42 55 43 46 41 36 45 54 41 39 75 55 40 83 58 46 44 38 55 25 44 68 46 55 67 41 94 104 57 166 165 135 201 210 195 
48 36 36 63 46 48 95 74 41 84 83 49 145 162 160 148 177 207 173 192 238 151 151 189 101 105 121 80 106 119 104 129 109 170 181 137 200 195 177 184 185 176 196 213 193 200 223 209 214 221 225 184 209 218 131 186 176 111 178 157 112 168 155 144 196 195 175 219 205 195 234 215 198 223 231 161 158 197 169 137 162 203 152 179 208 172 170 172 192 117 149 179 61 127 149 37 168 169 98 182 184 169 166 182 159 124 137 121 103 81 134 78 55 157 73 65 176 110 133 178 164 186 162 201 216 171 218 236 162 163 173 122 115 110 116 79 84 68 37 36 30 56 47 62 83 72 77 58 34 106 52 51 123 8 52 29 32 81 47 99 136 104 161 187 152 184 217 204 193 223 199 183 203 156 159 151 154 125 98 103 77 54 50 58 37 82 67 42 96 57 62 80 37 78 60 45 84 65 24 70 58 21 60 77 61 70 89 50 53 48 59 66 99 11 55 67 11 80 0 20 63 0 58 45 85 79 68 115 57 62 108 73 73 137 48 34 79 32 22 133 36 8 193 48 34 45 37 63 27 23 71 33 26 75 32 32 53 26 52 24 60 57 29 66 19 22 53 35 44 53 39 51 39 39 62 55 54 69 54 65 70 51 68 65 58 50 67 49 58 62 75 45 40 95 32 61 71 0 70 11 24 103 36 37 76 21 52 77 51 36 80 66 0 76 22 32 78 17 70 47 51 81 29 92 62 34 94 39 36 77 55 53 76 67 61 77 87 59 95 60 61 93 41 48 68 27 45 45 26 64 52 37 76 0 53 89 0 65 85 10 63 70 2 66 79 0 37 55 0 69 63 61 37 44 84 19 47 109 31 58 117 23 27 100 63 55 116 47 59 69 50 70 10 51 65 0 71 54 60 82 61 106 52 64 76 42 62 64 34 69 61 16 69 55 72 62 100 97 45 105 87 62 56 55 64 29 42 69 26 36 38 25 67 53 88 27 56 82 34 90 54 53 82 32 63 56 50 85 74 105 53 41 99 81 63 111 65 43 54 43 55 27 36 58 51 13 30 28 48 68 47 36 75 30 33 88 9 26 81 10 14 68 48 5 78 73 4 75 43 29 72 15 39 54 3 44 60 45 71 84 88 75 73 70 86 51 43 72 46 37 46 44 45 51 79 70 50 70 72 37 40 61 34 55 64 0 64 31 14 81 76 41 64 84 46 58 68 42 69 62 40 67 44 48 67 51 75 59 58 75 66 39 67 62 10 67 52 35 54 44 39 56 67 47 62 72 34 79 76 43 86 70 58 40 69 53 55 103 78 57 68 50 43 57 44 42 77 61 11 55 42 67 90 94 73 65 90 44 65 84 30 67 72 49 53 53 56 59 56 48 50 61 51 60 53 69 76 56 73 59 60 61 72 69 27 77 38 49 75 24 62 61 29 49 56 60 31 47 48 33 57 33 46 56 15 60 52 53 63 59 96 39 60 91 52 83 79 8 50 24 35 77 49 56 73 55 79 58 59 91 57 69 42 33 26 5 50 25 43 56 48 76 51 60 67 60 56 34 71 65 3 70 65 18 64 66 72 63 46 44 58 19 47 70 53 44 50 52 55 59 72 35 56 27 26 57 0 66 78 52 53 49 68 108 141 134 74 121 103 83 80 75 63 42 45 88 51 83 142 50 99 180 16 98 251 0 110 228 0 55 239 0 30 255 4 58 255 13 97 253 0 90 244 0 50 227 0 15 145 0 22 107 26 70 36 69 52 78 94 46 74 79 35 112 98 83 76 74 47 19 43 3 42 59 37 0 43 14 0 114 49 27 92 20 33 103 52 27 62 56 30 43 37 42 53 59 94 40 90 167 37 115 79 49 86 50 53 48 56 49 42 73 64 55 99 59 22 85 57 0 41 75 0 19 74 46 29 75 76 6 69 56 44 58 47 55 45 70 38 76 91 14 88 87 27 58 41 94 69 61 47 23 25 64 71 75 26 63 59 33 41 56 83 64 95 62 51 69 51 79 53 53 61 49 48 47 51 28 51 34 53 87 23 79 69 46 86 68 96 69 73 98 63 80 60 84 93 36 75 78 59 61 70 81 51 63 63 40 40 18 63 43 54 35 25 46 40 59 69 43 61 61 67 51 76 63 53 92 43 60 58 52 76 56 22 45 41 40 42 55 
57 45 45 75 58 60 101 80 47 140 139 105 183 200 198 179 208 238 139 158 204 96 96 134 76 80 96 110 136 149 161 186 166 205 216 172 221 216 198 236 237 228 223 240 220 219 242 228 201 208 212 142 167 176 104 159 149 108 175 154 163 219 206 185 237 236 206 250 236 187 226 207 155 180 188 166 163 202 202 170 195 218 167 194 203 167 165 155 175 100 147 177 59 189 211 99 206 207 136 178 180 165 106 122 99 70 83 67 74 52 105 94 71 173 139 131 242 176 199 244 215 237 213 240 255 210 194 212 138 170 180 129 120 115 121 56 61 45 55 54 48 59 50 65 76 65 70 77 53 125 60 59 131 59 103 80 95 144 110 165 202 170 201 227 192 200 233 220 193 223 199 172 192 145 135 127 130 103 76 81 55 32 28 48 27 72 48 23 77 66 71 89 19 60 42 28 67 48 16 62 50 29 68 85 64 73 92 72 75 70 62 69 102 16 60 72 16 85 0 27 70 0 47 34 74 78 67 114 47 52 98 63 63 127 46 32 77 20 10 121 32 4 189 23 9 20 39 65 29 0 41 3 5 54 11 25 46 19 62 34 70 64 36 73 46 49 80 42 51 60 27 39 27 51 74 67 44 59 44 59 64 45 52 49 42 27 44 26 45 49 62 60 55 110 28 57 67 25 95 36 0 66 0 57 96 41 47 72 46 36 80 66 3 80 26 21 67 6 77 54 58 168 116 179 255 239 255 252 249 255 253 251 255 239 233 249 67 39 75 2 3 35 45 52 72 76 94 94 58 96 84 40 79 2 40 76 0 67 87 12 77 84 16 57 70 0 39 57 0 14 8 6 67 74 114 28 56 118 30 57 116 47 51 124 49 41 102 45 57 67 52 72 12 78 92 19 57 40 46 81 60 105 22 34 46 64 84 86 35 70 62 44 97 83 58 48 86 64 12 72 79 54 48 49 58 23 63 90 47 66 68 55 70 56 91 40 69 95 13 69 33 41 70 20 30 23 17 57 46 77 73 61 119 76 58 106 92 70 81 56 68 40 66 88 81 21 38 36 48 68 47 0 16 0 34 89 10 27 82 11 24 78 58 25 98 93 0 63 31 42 85 28 47 62 11 49 65 50 61 74 78 62 60 57 88 53 45 73 47 38 49 47 48 39 67 58 47 67 69 65 68 89 38 59 68 20 93 60 0 63 58 54 77 97 36 48 58 46 73 66 27 54 31 54 73 57 75 59 58 69 60 33 70 65 13 44 29 12 51 41 36 44 55 35 63 73 35 99 96 63 82 66 54 49 78 62 35 83 58 49 60 42 56 70 57 18 53 37 21 65 52 46 69 73 64 56 81 58 79 98 43 80 85 34 38 38 66 69 66 36 38 49 63 72 65 75 82 62 66 52 53 52 63 60 8 58 19 52 78 27 48 47 15 62 69 73 37 53 54 45 69 45 56 66 25 63 55 56 70 66 103 36 57 88 36 67 63 29 71 45 30 72 44 68 85 67 62 41 42 89 55 67 51 42 35 38 83 58 54 67 59 64 39 48 48 41 37 14 51 45 15 82 77 3 49 51 61 52 35 32 46 7 46 69 52 75 81 83 71 75 88 51 72 43 27 58 0 43 55 29 53 49 68 31 64 57 46 93 75 76 73 68 88 67 70 92 55 87 129 37 86 167 3 85 255 0 124 243 0 70 242 0 33 247 0 38 252 0 68 255 0 96 232 0 38 241 0 29 162 0 39 135 54 98 39 72 55 65 81 33 60 65 21 68 54 39 69 67 40 36 60 20 41 58 36 14 82 53 0 100 35 20 85 13 6 76 25 34 69 63 56 69 63 75 86 92 114 60 110 157 27 105 55 25 62 43 46 41 59 52 45 67 58 49 109 69 32 65 37 0 38 72 0 0 51 23 27 73 74 12 75 62 44 58 47 63 53 78 37 75 90 21 95 94 40 71 54 119 94 86 196 172 174 249 255 255 229 255 255 247 255 255 199 180 211 85 74 92 29 57 31 1 9 0 46 45 49 74 97 80 64 98 34 120 110 87 35 17 45 68 72 97 64 81 61 67 76 19 59 62 43 28 37 48 30 42 42 43 43 21 78 58 69 72 62 83 40 59 69 51 69 69 60 44 69 53 43 82 43 60 58 40 64 44 83 106 102 171 173 186 
95 68 65 125 113 87 174 172 169 255 148 219 255 129 186 187 71 88 153 20 65 220 50 135 253 114 193 222 200 209 171 230 211 255 174 230 255 144 216 255 146 212 255 131 208 255 105 191 255 79 165 255 74 163 255 88 179 255 114 226 255 130 239 255 119 199 255 98 170 255 69 160 255 116 178 221 167 155 139 192 96 149 206 115 93 209 146 47 250 172 4 255 162 0 255 130 0 206 96 0 161 95 0 147 84 0 181 107 0 228 176 96 238 212 222 211 215 254 194 231 228 191 220 255 155 187 205 119 144 60 109 78 21 68 50 45 43 68 58 18 41 66 4 27 49 32 52 2 68 44 82 134 97 145 160 131 154 184 147 172 192 194 153 177 191 110 180 157 80 161 142 130 73 106 101 37 73 62 57 85 16 73 54 8 64 11 46 43 20 65 3 14 74 55 70 1 75 64 56 82 83 70 43 46 48 42 42 23 52 46 27 61 48 31 76 21 33 70 28 33 55 28 21 40 25 35 43 31 64 50 51 47 49 49 36 54 80 30 31 71 17 2 29 53 40 46 1 0 1 36 46 60 19 37 37 31 64 49 30 87 44 12 54 0 45 74 30 12 37 30 54 68 83 56 55 85 88 52 86 94 38 63 78 40 79 32 40 67 24 45 60 8 66 55 0 81 38 20 85 31 46 89 57 15 69 47 43 68 86 41 51 65 75 65 51 93 65 40 77 60 56 72 38 58 68 23 40 49 62 31 21 73 20 33 72 55 43 38 54 68 68 80 8 66 55 13 103 103 10 62 90 22 37 88 51 62 104 51 63 55 76 65 51 75 53 41 44 32 6 47 55 17 55 59 0 67 60 0 78 81 50 15 62 84 19 72 100 30 75 94 46 57 62 73 76 79 52 57 93 35 50 91 54 65 73 58 44 47 80 63 33 63 59 17 57 63 39 41 68 35 49 69 48 64 61 68 61 50 54 41 46 90 36 44 107 56 61 94 74 51 127 65 51 184 48 57 210 67 59 254 103 90 255 100 105 255 85 93 255 78 39 212 70 28 100 59 53 23 29 72 17 30 72 10 63 58 22 57 50 46 22 67 40 42 75 68 38 56 44 50 75 19 60 85 55 68 70 55 64 59 25 41 56 27 14 73 23 21 62 42 55 42 100 64 53 73 22 64 14 42 95 53 67 78 47 81 57 67 74 65 142 52 62 102 71 77 65 47 66 48 75 92 88 50 66 77 56 59 82 51 68 27 27 60 1 26 71 64 49 56 76 67 27 172 75 23 255 63 22 255 30 1 255 33 0 255 47 1 255 53 22 255 65 39 255 57 9 255 56 51 106 46 68 77 31 59 72 51 69 59 64 58 58 47 61 84 20 76 85 30 66 68 28 51 8 54 77 0 38 58 11 82 73 54 84 51 45 68 64 66 18 83 53 26 47 78 73 47 160 40 49 102 29 89 52 31 75 26 60 51 8 77 30 36 71 30 76 79 69 55 100 83 17 83 82 48 32 76 88 1 58 89 27 52 86 13 49 37 10 80 30 10 66 49 65 68 75 65 43 42 66 55 59 35 40 34 46 63 7 61 77 26 30 47 29 58 71 73 54 57 38 47 66 22 35 65 17 38 74 58 49 55 81 87 66 109 78 70 107 38 72 85 31 71 56 63 63 49 58 35 39 53 57 56 41 79 44 68 90 55 99 106 74 93 106 88 23 64 16 59 90 37 49 59 18 76 96 73 42 93 64 23 47 33 68 55 86 50 41 92 55 85 125 31 56 64 74 66 33 71 44 11 82 71 40 72 68 45 69 36 53 59 47 59 45 61 64 52 53 70 72 73 64 44 63 48 27 59 68 0 52 18 53 81 55 44 55 52 47 80 63 41 68 75 55 54 82 50 76 79 53 78 84 61 53 52 85 54 22 100 57 115 45 31 112 54 89 97 37 70 31 70 60 20 79 64 47 54 53 71 61 61 41 59 65 0 51 34 26 49 22 55 45 36 67 39 70 77 26 85 69 14 108 72 0 73 34 9 56 52 39 57 83 45 60 67 62 76 65 39 29 6 72 33 14 65 39 28 92 84 59 68 58 34 70 63 66 22 44 35 33 69 55 71 82 64 88 61 58 75 39 61 11 0 8 31 25 39 33 24 43 80 83 78 71 96 105 1 36 52 
52 25 22 77 65 39 82 80 77 218 79 150 255 114 171 255 145 162 255 129 174 242 72 157 181 42 121 119 97 106 107 166 147 255 149 205 255 131 203 255 132 198 255 119 196 255 128 214 255 123 209 255 102 191 255 94 185 255 100 212 255 115 224 255 122 202 255 122 194 255 115 206 255 121 183 204 150 138 150 203 107 161 218 127 149 255 202 79 255 204 24 255 182 0 255 134 0 222 112 0 187 121 0 138 75 0 158 84 0 92 40 2 144 118 190 179 183 252 192 229 251 214 243 255 151 183 208 122 147 126 175 144 87 134 116 70 68 93 84 44 67 88 26 49 69 52 72 21 87 63 38 90 53 52 67 38 52 82 45 42 62 64 115 139 153 136 206 183 125 206 187 202 145 178 146 82 118 38 33 61 31 88 69 0 50 0 75 72 49 95 33 44 53 34 49 0 73 62 0 9 10 32 5 8 28 22 22 51 80 74 72 106 93 76 121 66 37 74 32 17 39 12 16 35 20 29 37 25 68 54 55 53 55 55 7 25 51 41 42 82 31 16 43 66 53 59 37 34 37 34 44 58 41 59 59 13 46 31 28 85 42 2 44 0 47 76 32 26 51 44 29 43 58 63 62 92 68 32 66 85 29 54 86 48 87 43 51 78 67 88 103 33 91 80 0 74 31 0 60 6 16 59 27 22 76 54 43 68 86 64 74 88 55 45 31 79 51 26 68 51 47 79 45 65 90 45 62 61 74 43 12 64 11 28 67 50 44 39 55 34 34 46 18 76 65 0 79 79 25 77 105 56 71 122 25 36 78 59 71 63 59 48 34 85 63 51 75 63 37 35 43 5 66 70 5 68 61 0 64 67 36 44 91 113 6 59 87 23 68 87 44 55 60 37 40 43 57 62 98 36 51 92 47 58 66 78 64 67 76 59 29 68 64 22 54 60 36 10 37 4 39 59 38 50 47 54 68 57 61 60 65 109 58 66 129 44 49 82 32 9 85 41 27 160 26 35 188 80 72 255 82 69 255 88 93 255 90 98 255 132 93 255 118 76 148 89 83 53 14 57 2 38 80 18 55 50 14 74 67 63 33 78 51 25 58 51 48 66 54 35 60 4 28 53 23 62 64 49 52 47 13 54 69 40 36 95 45 35 76 56 70 57 115 77 66 86 18 60 10 14 67 25 56 67 36 86 62 72 84 75 152 40 50 90 65 71 59 58 77 59 117 134 130 106 122 133 95 98 121 26 43 2 22 55 0 7 52 45 46 53 73 82 42 187 65 13 255 46 5 255 45 16 255 35 0 255 46 0 255 43 12 255 51 25 255 61 13 255 73 68 123 27 49 58 25 53 66 48 66 56 57 51 51 69 83 106 5 61 70 32 68 70 30 53 10 68 91 0 39 59 12 63 54 35 80 47 41 48 44 46 31 96 66 39 60 91 55 29 142 30 39 92 15 75 38 22 66 17 83 74 31 102 55 61 80 39 85 66 56 42 69 52 0 77 76 42 37 81 93 31 88 119 32 57 91 27 63 51 26 96 46 10 66 49 59 62 69 54 32 31 60 49 53 58 63 57 52 69 13 62 78 27 23 40 22 52 65 67 46 49 30 49 68 24 32 62 14 24 60 44 36 42 68 68 47 90 66 58 95 43 77 90 37 77 62 58 58 44 67 44 48 46 50 49 44 82 47 55 77 42 74 81 49 61 74 56 53 94 46 70 101 48 98 108 67 86 106 83 36 87 58 47 71 57 58 45 76 54 45 96 37 67 107 41 66 74 68 60 27 70 43 10 65 54 23 42 38 15 75 42 59 74 62 74 55 71 74 70 71 88 67 68 59 41 60 45 55 87 96 18 70 36 51 79 53 41 52 49 26 59 42 46 73 80 51 50 78 57 83 86 79 104 110 210 202 201 255 249 217 255 235 255 255 241 255 190 225 233 87 120 81 70 60 20 92 77 60 60 59 77 78 78 58 49 55 0 46 29 21 87 60 93 55 46 77 37 68 75 0 52 36 0 92 56 0 86 47 28 75 71 43 61 87 31 46 53 70 84 73 43 33 10 56 17 0 74 48 37 51 43 18 79 69 45 68 61 64 37 59 50 28 64 50 33 44 26 70 43 40 77 41 63 96 82 93 45 39 53 57 48 67 41 44 39 76 101 110 147 182 198 
50 56 66 50 73 77 57 78 93 68 81 83 124 117 110 169 169 159 173 193 180 162 181 175 107 109 94 80 79 49 89 106 88 145 173 172 159 188 180 195 218 222 209 217 231 201 213 215 179 216 197 163 203 188 191 190 192 223 202 203 228 212 187 208 217 186 206 209 212 206 201 209 214 207 201 185 195 174 157 172 165 155 163 177 186 180 194 209 216 197 206 244 209 235 245 250 214 199 228 166 149 181 133 126 158 66 78 86 28 60 61 68 78 79 104 102 103 175 174 168 199 213 200 179 198 167 160 168 141 174 168 158 194 175 183 174 178 191 141 151 152 133 131 120 162 142 139 199 175 187 172 183 191 126 159 165 115 133 133 93 84 63 75 75 65 81 90 107 130 160 160 181 202 155 181 193 115 114 135 92 19 48 42 23 55 54 0 37 19 28 77 43 28 49 56 66 61 105 67 53 92 49 42 61 62 70 85 10 13 18 63 54 69 22 26 51 59 53 89 68 63 91 27 34 32 40 49 32 54 47 41 64 60 60 45 69 45 0 45 3 0 45 11 0 31 1 43 55 47 40 53 37 41 77 55 60 75 68 54 41 57 76 68 80 23 29 29 52 79 50 37 66 34 69 75 63 56 54 45 40 60 45 49 56 37 43 56 25 31 73 65 8 46 60 25 47 49 57 61 50 35 67 42 31 121 81 21 72 69 69 53 75 81 44 63 77 62 71 50 69 77 46 49 52 68 39 57 32 23 32 79 78 82 58 56 55 49 88 57 13 74 19 32 60 34 65 47 49 49 32 50 40 68 83 6 59 63 41 74 80 72 57 72 55 59 49 56 75 67 64 79 62 64 72 37 54 56 23 50 37 32 35 28 48 24 49 67 14 60 46 2 62 25 44 72 63 54 48 60 88 83 99 46 63 59 63 81 71 55 61 65 59 49 44 70 70 56 2 47 20 35 93 64 18 64 50 45 77 70 39 61 50 46 48 59 59 51 86 37 29 54 70 55 80 67 50 68 79 54 71 73 70 65 29 63 50 33 50 46 56 59 52 64 97 54 42 100 37 48 97 56 45 49 48 49 41 44 23 51 24 77 90 58 191 170 163 234 226 199 241 255 194 174 213 136 128 135 103 69 65 50 41 67 52 45 74 68 89 80 99 64 42 67 42 42 54 1 30 37 21 46 52 60 69 80 48 70 72 58 90 91 45 66 85 49 69 82 62 82 85 64 78 57 128 131 98 131 132 86 74 81 35 66 99 58 17 45 36 23 33 18 70 68 55 28 48 27 44 74 60 59 75 78 50 60 48 70 92 41 31 69 4 15 64 0 24 54 8 37 58 27 31 76 33 39 71 36 59 51 52 65 47 59 55 42 60 54 57 80 76 72 85 62 56 52 62 72 59 27 42 33 31 44 46 35 61 61 39 85 73 43 73 73 40 54 67 47 59 67 29 65 51 42 54 46 57 46 48 58 46 36 51 51 61 41 49 86 48 46 71 59 56 49 72 79 57 47 80 63 44 61 65 58 69 48 57 74 7 63 69 17 52 46 42 14 18 34 33 43 64 52 55 86 76 65 85 87 81 67 38 60 33 13 62 29 8 56 12 49 61 11 80 77 20 74 64 41 60 55 73 32 57 65 33 72 55 56 81 61 64 87 80 61 84 67 41 61 37 30 66 34 26 46 33 61 55 53 65 64 68 49 61 49 39 69 71 49 79 91 70 93 87 91 100 91 112 102 101 98 75 81 108 78 92 56 28 39 58 49 40 24 31 25 65 61 82 54 65 83 39 51 59 50 74 64 37 69 42 44 83 40 39 75 43 30 47 25 62 67 25 41 66 12 61 84 54 55 61 75 74 68 92 72 57 66 54 58 19 44 79 35 29 45 48 74 72 97 26 18 55 54 49 91 35 41 67 77 86 97 69 57 91 74 58 93 59 53 65 43 61 25 65 103 40 57 83 48 80 91 88 75 67 66 69 55 58 41 48 42 42 48 52 87 64 80 74 52 63 56 78 88 0 63 58 7 66 48 48 79 52 35 59 39 71 86 71 52 68 53 77 65 41 49 29 16 41 43 18 27 53 27 25 42 48 36 56 61 17 41 29 45 60 31 44 56 30 53 56 49 49 56 63 81 68 82 101 82 89 79 62 68 32 43 48 0 26 33 0 17 27 
17 23 33 50 73 77 77 98 113 151 164 166 198 191 184 181 181 171 109 129 116 90 109 103 96 98 83 174 173 143 168 185 167 166 194 193 180 209 201 186 209 213 202 210 224 194 206 208 166 203 184 171 211 196 204 203 205 205 184 185 191 175 150 162 171 140 189 192 195 183 178 186 172 165 159 168 178 157 163 178 171 196 204 218 237 231 245 232 239 220 207 245 210 195 205 210 179 164 193 129 112 144 90 83 115 87 99 107 88 120 121 165 175 176 198 196 197 205 204 198 200 214 201 201 220 189 212 220 193 199 193 183 168 149 157 139 143 156 175 185 186 206 204 193 229 209 206 211 187 199 158 169 177 107 140 146 93 111 111 120 111 90 138 138 128 159 168 185 135 165 165 98 119 72 73 85 7 52 73 30 40 69 63 16 48 47 39 82 64 0 24 0 43 64 71 53 48 92 69 55 94 68 61 80 9 17 32 21 24 29 41 32 47 52 56 81 76 70 106 68 63 91 51 58 56 47 56 39 48 41 35 47 43 43 21 45 21 19 64 22 9 61 27 46 77 47 46 58 50 62 75 59 52 88 66 40 55 48 62 49 65 42 34 46 43 49 49 59 86 57 51 80 48 56 62 50 49 47 38 45 65 50 69 76 57 63 76 45 49 91 83 4 42 56 17 39 41 45 49 38 40 72 47 25 115 75 36 87 84 50 34 56 65 28 47 48 33 42 57 76 84 58 61 64 86 57 75 73 64 73 36 35 39 67 65 64 5 44 13 15 76 21 46 74 48 55 37 39 89 72 90 44 72 87 41 94 98 42 75 81 50 35 50 41 45 35 27 46 38 56 71 54 46 54 19 48 50 17 56 43 38 47 40 60 29 54 72 31 77 63 19 79 42 50 78 69 67 61 73 64 59 75 42 59 55 44 62 52 61 67 71 52 42 37 60 60 46 31 76 49 12 70 41 36 82 68 6 38 31 38 60 49 60 62 73 62 54 89 83 75 100 54 39 64 73 56 74 78 53 70 53 50 45 30 64 51 29 46 42 42 45 38 35 68 25 34 92 29 37 86 45 56 60 59 52 44 47 15 43 16 30 43 11 65 44 37 49 41 14 68 94 21 48 87 10 85 92 60 81 77 62 60 86 71 33 62 56 54 45 64 55 33 58 59 59 71 43 72 79 43 68 74 46 55 66 42 64 66 55 87 88 66 87 106 70 90 103 45 65 68 72 86 65 89 92 59 86 87 41 74 81 35 29 62 21 22 50 41 50 60 45 55 53 40 53 73 52 45 75 61 43 59 62 51 61 49 41 63 12 33 71 6 42 91 22 44 74 28 53 74 43 38 83 40 37 69 34 62 54 55 71 53 65 72 59 77 53 56 79 59 55 68 46 40 36 53 63 50 46 61 52 57 70 72 41 67 67 21 67 55 34 64 64 28 42 55 34 46 54 36 72 58 50 62 54 65 54 56 62 50 40 47 47 57 49 57 94 56 54 79 69 66 59 64 71 49 41 74 57 79 96 100 90 101 80 107 124 57 127 133 81 77 71 67 49 53 69 29 39 60 34 37 68 64 53 73 65 59 45 26 48 21 32 81 48 27 75 31 61 73 23 89 86 29 89 79 56 83 78 96 53 78 86 25 64 47 35 60 40 60 83 76 46 69 52 44 64 40 41 77 45 30 50 37 69 63 61 66 65 69 56 68 56 58 88 90 64 94 106 52 75 69 77 86 77 88 78 77 87 64 70 90 60 74 52 24 35 41 32 23 9 16 10 57 53 74 34 45 63 48 60 68 63 87 77 32 64 37 56 95 52 56 92 60 45 62 40 65 70 28 51 76 22 39 62 32 65 71 85 50 44 68 72 57 66 50 54 15 41 76 32 38 54 57 43 41 66 71 63 100 59 54 96 48 54 80 48 57 68 71 59 93 62 46 81 39 33 45 58 76 40 55 93 30 122 148 113 100 111 108 58 50 49 58 44 47 48 55 49 70 76 80 67 44 60 63 41 52 32 54 64 22 85 80 20 79 61 38 69 42 19 43 23 36 51 36 44 60 45 63 51 27 64 44 31 52 54 29 24 50 24 37 54 60 41 61 66 28 52 40 45 60 31 36 48 22 65 68 61 47 54 61 78 65 79 48 29 36 49 32 38 49 60 65 94 133 140 184 206 216 
71 75 75 72 70 71 123 121 110 155 144 138 169 154 147 188 175 180 166 147 152 150 128 119 168 159 150 171 166 172 203 190 204 196 189 193 196 216 193 162 202 177 148 177 168 135 167 158 134 183 149 170 217 197 174 221 217 165 193 192 151 164 158 173 178 185 208 198 213 206 180 206 176 151 160 164 157 133 168 171 152 149 165 166 131 159 146 125 149 127 141 177 155 172 202 190 157 179 178 105 113 137 89 87 123 120 113 132 191 206 177 204 222 186 214 227 219 233 236 255 232 218 239 255 250 242 255 247 229 201 193 204 182 185 206 102 105 138 63 70 94 76 85 80 76 85 78 87 128 98 83 138 111 57 90 93 42 50 48 76 96 55 93 139 80 163 191 144 191 193 178 133 117 131 70 84 80 0 29 15 11 48 52 62 77 94 88 107 125 111 130 141 79 84 92 45 38 32 51 36 19 63 52 57 64 49 76 62 50 58 29 38 29 21 53 46 40 77 73 47 72 62 31 57 22 46 55 36 45 52 56 49 72 58 54 90 64 46 70 58 39 66 63 34 48 61 53 60 40 47 81 42 42 75 70 36 56 58 55 62 56 74 57 75 79 51 78 53 69 80 9 48 41 55 78 9 78 89 0 95 92 3 69 71 12 46 69 39 17 51 51 50 45 74 53 42 89 48 49 115 36 55 125 17 57 70 24 65 34 28 42 0 63 70 24 58 75 55 36 55 65 60 74 70 36 47 52 51 49 59 67 62 68 39 63 63 50 98 72 18 76 29 29 79 42 20 58 11 55 82 63 48 62 100 59 68 99 73 76 81 88 83 73 95 84 70 60 47 78 43 43 91 6 39 32 55 72 54 72 64 50 93 84 57 56 54 51 44 54 57 39 58 42 31 41 2 63 100 44 30 79 45 48 98 87 58 90 83 32 49 44 56 63 57 37 30 50 85 75 113 60 71 69 61 64 43 44 41 44 36 34 41 50 55 63 42 65 58 56 87 57 52 59 39 77 70 89 50 48 75 57 59 70 38 55 35 29 49 34 46 64 62 26 48 50 52 75 69 39 61 50 49 71 62 39 66 71 20 32 32 48 59 41 45 47 30 80 83 86 75 72 75 54 53 37 61 80 49 43 80 61 80 101 96 102 107 115 67 61 61 77 84 78 36 58 60 34 41 63 64 49 74 66 47 65 83 70 76 68 65 60 51 70 36 35 74 31 11 59 15 40 74 28 44 53 20 48 54 42 64 76 74 26 47 54 50 60 83 58 52 68 72 42 64 84 57 76 61 51 50 52 52 48 57 77 80 39 63 49 31 46 39 43 60 55 3 38 28 24 72 72 44 74 78 54 54 44 84 56 59 64 47 41 50 47 52 57 64 86 53 66 68 41 83 45 4 52 4 25 60 18 29 37 12 60 49 31 65 64 22 53 60 0 62 62 16 48 44 28 55 41 44 52 38 41 52 77 59 30 64 26 57 79 54 37 44 50 45 40 56 49 67 83 15 55 66 57 83 96 57 60 91 50 60 74 50 61 69 38 55 35 61 67 29 73 67 27 55 56 26 37 44 22 44 50 62 47 61 76 69 70 76 76 74 75 39 53 50 73 84 89 65 86 95 92 127 117 120 143 113 100 128 81 71 127 92 29 95 82 0 46 38 17 53 37 39 55 32 72 74 59 77 72 82 56 50 48 63 44 33 57 41 14 68 71 40 66 71 53 57 72 55 42 82 59 34 61 40 45 56 28 49 53 24 61 54 32 76 59 61 76 61 90 64 73 94 22 60 51 19 45 48 30 39 4 43 68 40 38 79 51 37 97 39 34 59 13 65 49 48 57 45 55 39 66 95 24 73 81 24 64 39 53 74 55 55 66 46 64 75 70 54 59 53 49 49 35 75 46 64 77 43 90 77 51 87 74 56 84 52 58 62 41 54 46 49 57 55 47 55 44 45 62 40 48 83 57 27 64 42 44 58 45 55 49 49 59 50 67 64 48 81 70 50 99 52 43 74 76 72 93 49 51 77 39 67 66 7 80 38 0 65 0 5 84 40 15 42 39 58 56 66 49 54 44 61 56 49 90 51 56 106 35 65 109 45 47 72 43 26 72 65 43 40 72 37 39 75 49 44 69 62 44 53 70 35 53 90 10 46 76 23 49 50 21 16 22 60 40 38 
45 49 49 54 52 53 60 58 47 106 95 89 159 144 137 214 201 206 255 237 242 255 244 235 251 242 233 226 221 227 214 201 215 190 183 187 151 171 148 150 190 165 171 200 191 162 194 185 139 188 154 138 185 165 140 187 183 165 193 192 158 171 165 150 155 162 178 168 183 204 178 204 186 161 170 152 145 121 155 158 139 157 173 174 146 174 161 117 141 119 84 120 98 112 142 130 175 197 196 179 187 211 174 172 208 148 141 160 151 166 137 177 195 159 172 185 177 163 166 187 136 122 143 147 130 122 172 161 143 200 192 203 194 197 218 151 154 187 102 109 133 48 57 52 32 41 34 6 47 17 0 51 24 23 56 59 59 67 65 74 94 53 109 155 96 172 200 153 183 185 170 163 147 161 104 118 114 19 65 51 39 76 80 55 70 87 39 58 76 61 80 91 37 42 50 48 41 35 60 45 28 61 50 55 57 42 69 43 31 39 28 37 28 20 52 45 37 74 70 41 66 56 28 54 19 37 46 27 32 39 43 51 74 60 58 94 68 44 68 56 40 67 64 44 58 71 40 47 27 44 78 39 49 82 77 34 54 56 63 70 64 60 43 61 71 43 70 63 79 90 37 76 69 60 83 14 65 76 0 67 64 0 75 77 18 93 116 86 231 255 255 255 250 255 255 246 255 246 247 255 77 96 166 0 29 42 4 45 14 60 74 29 72 79 33 97 114 94 59 78 88 46 60 56 36 47 52 13 11 21 58 53 59 38 62 62 48 96 70 31 89 42 5 55 18 35 73 26 45 72 53 40 54 92 64 73 104 69 72 77 86 81 71 128 117 103 102 89 120 57 57 105 45 78 71 36 53 35 62 54 40 96 87 60 70 68 65 53 63 66 61 80 64 39 49 10 43 80 24 38 87 53 0 50 39 42 74 67 41 58 53 38 45 39 72 65 85 53 43 81 40 51 49 72 75 54 58 55 58 57 55 62 46 51 59 27 50 43 19 50 20 48 55 35 59 52 71 49 47 74 74 76 87 51 68 48 53 73 58 51 69 67 30 52 54 13 36 30 28 50 39 26 48 39 44 71 76 62 74 74 59 70 52 67 69 52 64 67 70 60 57 60 59 58 42 61 80 49 55 92 73 92 113 108 124 129 137 114 108 108 113 120 114 53 75 77 56 63 85 58 43 68 61 42 60 82 69 75 123 120 115 134 153 119 144 183 140 103 151 107 30 64 18 36 45 12 0 3 0 73 85 83 73 94 101 62 72 95 67 61 77 55 25 47 70 43 62 74 64 63 47 47 43 41 61 64 37 61 47 73 88 81 37 54 49 38 73 63 5 53 53 22 52 56 51 51 41 61 33 36 75 58 52 24 21 26 58 65 87 43 56 58 30 72 34 37 85 37 33 68 26 56 64 39 67 56 38 35 34 0 41 48 0 62 62 16 66 62 46 58 44 47 62 48 51 20 45 27 47 81 43 49 71 46 33 40 46 58 53 69 20 38 54 36 76 87 38 64 77 61 64 95 70 80 94 63 74 82 48 65 45 49 55 17 38 32 0 50 51 21 59 66 44 66 72 84 58 72 87 61 62 68 63 61 62 43 57 54 47 58 63 48 69 78 49 84 74 77 100 70 89 117 70 61 117 82 36 102 89 29 94 86 35 71 55 49 65 42 72 74 59 36 31 41 44 38 36 62 43 32 77 61 34 66 69 38 66 71 53 38 53 36 25 65 42 51 78 57 61 72 44 47 51 22 62 55 33 58 41 43 67 52 81 60 69 90 50 88 79 37 63 66 55 64 29 44 69 41 11 52 24 21 81 23 34 59 13 89 73 72 63 51 61 60 87 116 12 61 69 20 60 35 26 47 28 30 41 21 47 58 53 57 62 56 111 111 97 95 66 84 98 64 111 45 19 55 26 8 36 63 69 73 46 59 51 79 87 85 71 79 68 49 66 44 40 75 49 25 62 40 51 65 52 39 33 33 72 63 80 56 40 73 69 49 98 59 50 81 53 49 70 39 41 67 29 57 56 11 84 42 0 72 5 1 80 36 30 57 54 66 64 74 77 82 72 65 60 53 97 58 63 111 40 70 112 48 50 98 69 52 50 43 21 38 70 35 0 32 6 46 71 64 29 38 55 43 61 98 35 71 101 49 75 76 116 111 117 176 156 154 
63 66 89 59 64 118 63 54 95 74 57 87 126 112 149 184 169 214 217 202 255 200 212 214 189 200 154 153 159 133 129 150 123 72 110 99 102 130 127 140 147 167 142 152 165 127 157 161 101 130 148 136 143 184 183 170 188 160 171 151 141 175 136 143 186 145 171 188 150 169 201 140 163 200 158 165 189 175 184 204 181 181 196 179 154 153 173 126 126 172 171 166 211 219 208 213 197 211 172 161 162 152 128 117 135 144 148 145 189 187 152 191 188 165 186 174 184 147 152 168 82 101 109 131 159 159 176 197 180 180 200 189 235 239 252 163 170 164 114 128 107 65 78 83 38 38 60 36 29 61 70 58 94 44 49 59 38 45 41 50 65 74 103 98 104 181 189 162 154 167 125 134 143 112 100 119 113 30 64 64 10 51 23 5 47 23 0 40 38 33 66 85 32 74 82 27 61 50 41 51 38 52 45 41 59 39 37 61 44 38 65 52 50 56 68 60 76 97 40 41 88 0 15 57 0 25 61 0 0 40 0 36 80 17 49 71 60 46 42 104 61 46 149 31 27 128 50 60 171 58 66 143 63 64 98 49 77 68 27 70 39 56 77 58 70 73 68 58 77 43 67 83 61 50 67 62 54 64 41 47 60 52 40 42 55 74 53 38 73 50 31 64 61 40 62 69 40 61 46 89 71 42 94 48 54 16 25 77 24 28 79 48 35 57 50 54 69 112 32 58 85 42 66 18 61 61 25 78 59 48 85 62 79 65 52 84 0 0 7 24 38 17 53 70 91 94 82 204 108 110 245 16 61 102 32 82 71 64 119 99 77 100 93 61 74 42 57 77 0 42 87 0 59 77 0 71 79 41 69 61 72 58 62 62 57 80 66 50 78 52 33 62 53 55 53 112 73 66 134 57 71 94 61 73 63 58 80 43 46 61 54 46 54 79 33 54 51 15 55 30 39 55 23 64 74 23 32 35 16 48 65 61 34 56 65 48 48 88 66 62 73 39 48 17 30 45 28 45 54 61 47 46 64 39 53 68 67 75 64 79 58 15 110 52 39 132 0 50 188 0 73 227 0 66 234 0 59 255 0 64 240 0 69 253 0 115 253 0 99 205 0 55 182 13 56 121 9 37 107 15 48 120 52 79 115 98 92 120 139 98 106 102 77 83 83 59 47 69 44 41 46 28 56 44 44 54 45 50 64 67 62 45 76 57 67 64 61 50 39 23 33 50 32 51 76 68 28 84 61 40 106 80 47 63 66 46 44 54 56 0 37 84 2 38 76 68 79 37 78 73 74 78 77 77 23 35 93 58 52 50 67 39 26 98 74 52 118 105 92 87 80 170 132 131 81 111 99 3 57 45 0 12 8 0 33 0 58 82 36 70 77 32 55 95 55 4 77 2 28 65 0 71 51 2 75 40 6 66 36 14 54 58 48 51 58 64 70 48 73 65 43 51 32 69 40 15 86 66 26 79 73 45 66 63 48 63 72 26 53 60 25 55 67 18 60 68 52 56 69 59 56 59 37 71 60 22 81 39 29 69 28 58 71 63 65 56 75 74 58 83 70 44 77 70 41 81 87 33 57 87 44 49 60 58 31 52 64 36 52 47 39 58 52 38 35 61 38 18 95 77 50 112 111 72 86 99 110 108 115 233 255 244 208 255 247 226 255 247 255 255 233 81 87 63 9 28 12 20 39 34 51 70 65 79 85 85 72 83 99 39 60 65 52 69 41 30 64 0 44 75 45 49 62 64 44 55 53 44 84 46 40 86 27 32 49 29 73 66 85 64 60 44 42 38 22 55 53 50 83 47 60 112 48 84 94 47 85 77 42 68 61 47 68 40 112 74 0 98 52 0 75 61 7 64 43 24 26 13 80 86 74 37 69 60 88 65 73 125 29 44 114 37 17 64 41 19 28 73 31 16 96 45 43 62 57 70 59 77 46 46 66 67 57 70 65 58 62 37 60 54 64 58 58 75 42 47 65 68 61 24 51 44 0 61 41 0 69 54 43 58 65 83 65 111 49 37 73 75 58 78 43 40 53 49 76 71 79 57 65 85 37 62 75 63 65 39 69 47 16 75 35 6 71 25 63 59 44 67 31 47 41 59 57 35 55 40 39 49 37 58 72 71 45 60 69 44 69 78 39 63 51 47 53 37 42 67 41 28 61 44 
26 29 52 28 33 87 37 28 69 82 65 95 81 67 104 61 46 91 71 56 109 54 66 68 77 88 42 73 79 53 49 70 43 22 60 49 26 54 51 51 58 78 67 77 90 62 92 96 44 73 91 41 48 89 43 30 48 40 51 31 44 78 39 30 73 32 53 70 32 26 58 0 31 68 26 43 67 53 34 54 31 36 51 34 38 37 57 47 47 93 48 43 88 58 47 52 38 52 13 55 56 46 81 70 88 75 79 76 114 112 77 233 230 207 255 250 255 249 254 255 240 255 255 93 121 121 0 21 4 56 76 65 100 104 117 78 85 79 70 84 63 37 50 55 53 53 75 63 56 88 68 56 92 57 62 72 53 60 56 71 86 95 47 42 48 46 54 27 96 109 67 71 80 49 60 79 73 37 71 71 4 45 17 6 48 24 26 73 71 14 47 66 22 64 72 33 67 56 43 53 40 57 50 46 57 37 35 72 55 49 49 36 34 56 68 60 50 71 14 32 79 0 43 85 0 41 77 0 37 77 0 34 78 15 36 58 47 54 50 112 56 41 144 50 46 147 48 58 169 43 51 128 57 58 92 51 79 70 26 69 38 39 60 41 60 63 58 37 56 22 53 69 47 62 79 74 83 93 70 80 93 85 88 90 103 112 91 76 153 130 111 255 255 235 253 255 231 255 245 255 255 240 255 66 72 34 0 33 0 24 75 44 45 67 60 56 71 114 42 68 95 30 54 6 68 68 32 67 48 37 66 43 60 64 51 83 48 53 60 52 66 45 48 65 86 37 25 147 39 41 176 40 85 126 22 72 61 36 91 71 52 75 68 53 66 34 51 71 0 51 96 0 61 79 0 66 74 36 85 77 88 56 60 60 47 70 56 41 69 43 42 71 62 71 69 128 56 49 117 56 70 93 59 71 61 61 83 46 65 80 73 63 71 96 12 33 30 0 19 0 2 18 0 0 9 0 85 88 69 135 152 148 148 170 179 113 113 153 56 52 63 0 6 0 0 6 0 0 1 8 0 0 15 0 2 17 0 3 0 19 0 0 42 0 0 106 0 24 255 54 153 255 5 117 255 10 105 178 0 0 178 0 7 178 0 40 178 0 24 153 0 3 255 168 211 255 218 246 255 223 255 255 231 255 167 150 144 70 89 48 38 34 9 63 63 39 83 105 80 83 88 70 75 63 63 50 41 46 40 43 38 38 69 50 62 59 56 72 61 45 45 62 44 51 76 68 20 76 53 0 62 36 61 77 80 71 69 79 95 36 76 103 21 57 57 49 60 10 51 46 71 75 74 92 38 50 86 51 45 60 77 49 3 75 51 20 86 73 79 74 67 108 70 69 68 98 86 61 115 103 54 95 91 21 80 40 41 65 19 21 28 0 34 74 34 4 77 2 32 69 1 72 52 3 63 28 0 85 55 33 42 46 36 56 63 69 68 46 71 75 53 61 28 65 36 13 84 64 21 74 68 55 76 73 69 84 93 38 65 72 25 55 67 20 62 70 49 53 66 79 76 79 34 68 57 24 83 41 34 74 33 51 64 56 66 57 76 56 40 65 51 25 58 65 36 76 84 30 54 89 46 51 77 75 48 41 53 25 51 46 38 48 42 28 25 51 28 6 83 65 8 70 69 30 44 57 63 61 68 36 70 47 16 87 55 36 80 57 61 63 38 58 64 40 45 64 48 47 66 61 38 57 52 62 68 68 58 69 85 54 75 80 52 69 41 49 83 18 37 68 38 46 59 61 49 60 58 24 64 26 31 77 18 51 68 48 62 55 74 61 57 41 53 49 33 68 66 63 80 44 57 92 28 64 95 48 86 81 46 72 82 68 89 29 101 63 0 100 54 0 46 32 53 110 89 108 110 97 157 163 151 126 158 149 83 60 68 116 20 35 218 141 121 255 250 228 228 255 231 204 255 233 227 246 241 122 111 129 53 53 73 39 29 42 61 54 58 57 80 74 74 68 68 65 32 37 50 53 46 28 55 48 20 85 65 8 78 63 32 47 54 75 57 103 57 45 81 55 38 58 40 37 50 34 61 56 78 56 64 98 50 75 79 67 69 67 97 75 41 100 60 25 90 44 89 85 70 98 62 78 59 77 75 33 53 38 26 36 24 30 44 43 42 57 66 38 63 72 55 79 67 59 65 49 105 130 104 155 188 171 
25 45 47 26 37 53 39 50 58 43 65 56 60 81 64 44 57 59 35 33 56 35 17 41 47 35 37 38 57 41 23 70 28 24 62 14 34 45 27 44 40 51 64 59 75 41 54 59 43 39 41 75 36 53 66 25 45 87 55 54 69 70 60 41 85 71 56 99 81 48 80 71 41 81 84 30 76 87 24 81 86 44 84 71 60 68 43 54 60 44 69 86 64 59 84 56 74 81 59 69 67 64 44 44 58 42 63 78 34 48 44 36 33 30 50 30 17 48 19 12 61 27 40 52 36 50 51 51 37 31 64 23 9 52 11 0 33 20 18 42 68 48 75 94 43 76 71 59 83 73 53 38 55 43 24 55 75 59 74 44 28 40 59 69 70 0 37 20 4 56 19 0 37 0 18 34 11 44 67 63 15 53 42 58 83 66 68 52 49 66 43 47 66 57 66 33 55 57 32 50 52 39 63 75 19 58 53 34 54 39 50 62 38 45 54 63 70 65 84 80 60 81 72 58 61 73 63 52 38 61 31 12 46 44 0 11 45 13 27 42 43 58 33 95 122 67 107 128 63 70 89 55 18 40 13 0 9 0 58 66 64 51 72 89 40 59 87 64 59 111 58 44 89 59 47 83 91 98 105 75 127 100 46 111 67 105 153 117 79 118 83 34 79 62 44 70 71 34 52 52 50 42 18 82 55 24 94 78 49 66 75 70 56 68 68 32 47 30 2 16 0 111 118 98 117 121 134 92 100 117 59 59 69 0 0 0 172 164 167 255 253 255 245 255 255 236 255 255 91 109 123 0 7 21 34 46 48 45 73 62 40 74 51 43 70 41 28 35 6 51 44 40 74 75 83 49 71 44 36 59 16 57 75 37 49 53 27 53 71 63 48 68 44 62 72 33 72 72 60 74 75 92 53 56 85 54 51 90 55 53 80 13 38 54 22 57 67 10 51 57 38 58 73 54 64 65 39 54 45 33 58 50 39 43 32 57 60 37 59 61 36 57 50 28 61 59 56 43 63 68 33 66 63 61 70 61 57 58 51 38 62 52 32 78 56 7 68 38 41 79 50 61 81 57 55 78 64 45 72 69 56 54 51 40 56 31 61 63 40 77 81 71 59 65 65 63 72 63 51 70 62 30 56 69 65 52 92 77 50 89 80 64 86 77 75 72 63 81 79 55 62 69 64 57 51 60 69 28 34 54 13 23 58 12 36 56 41 50 39 43 67 47 68 49 55 67 18 30 40 41 61 76 58 55 84 100 80 93 124 117 97 82 100 40 58 72 0 9 24 0 7 19 7 49 67 65 37 68 74 44 73 81 43 49 77 52 47 63 93 85 94 122 126 123 137 140 133 155 163 152 146 156 144 96 110 89 49 72 66 11 45 43 22 36 35 47 57 44 59 66 36 40 74 2 20 71 4 29 68 15 40 67 28 41 73 24 39 68 16 46 70 22 58 58 56 58 52 78 74 69 97 63 57 69 64 63 81 35 49 71 26 37 69 50 48 83 76 55 84 66 61 69 44 62 54 36 62 49 50 66 52 58 62 52 54 60 36 48 56 19 45 51 13 40 62 28 39 59 38 44 41 38 65 53 53 39 53 31 39 65 48 54 82 69 55 63 62 60 81 64 34 63 33 19 52 23 43 61 51 43 50 54 55 61 87 43 68 87 26 52 55 50 74 62 50 67 63 52 64 74 58 58 58 43 52 19 55 74 33 52 65 49 67 55 65 89 68 69 86 80 50 44 74 50 37 95 92 71 110 121 125 128 161 137 126 157 70 89 109 0 54 44 84 127 85 70 92 21 83 80 23 27 25 0 19 17 0 67 53 40 81 41 63 93 74 115 54 39 92 29 45 83 37 62 70 42 79 58 19 68 34 21 82 53 24 64 78 18 49 91 59 79 102 58 67 78 49 53 68 73 61 97 49 33 81 65 57 69 61 57 15 75 74 31 45 50 31 24 51 44 32 71 56 29 74 32 71 102 49 44 65 20 39 50 32 35 45 48 49 36 41 72 38 51 73 50 54 54 51 56 57 56 58 50 51 59 59 50 57 64 70 80 58 77 72 73 92 86 86 85 77 103 105 92 111 111 121 62 81 89 84 77 81 78 57 58 63 70 40 37 79 41 23 61 60 29 45 70 38 40 66 63 65 66 51 68 36 62 69 47 
30 50 52 43 54 70 50 61 69 39 61 52 40 61 44 40 53 55 52 50 73 76 58 82 61 49 51 41 60 44 22 69 27 33 71 23 56 67 49 49 45 56 69 64 80 37 50 55 82 78 80 84 45 62 82 41 61 76 44 43 69 70 60 35 79 65 43 86 68 52 84 75 21 61 64 24 70 81 0 47 52 15 55 42 43 51 26 53 59 43 44 61 39 28 53 25 41 48 26 58 56 53 54 54 68 55 76 91 65 79 75 65 62 59 80 60 47 101 72 65 84 50 63 106 90 104 61 61 47 38 71 30 51 94 53 23 57 44 62 86 112 37 64 83 38 71 66 76 100 90 88 73 90 97 78 109 59 43 58 43 27 39 32 42 43 20 65 48 27 79 42 34 75 27 46 62 39 33 56 52 34 72 61 22 47 30 61 45 42 62 39 43 50 41 50 44 66 68 41 59 61 37 61 73 29 68 63 38 58 43 43 55 31 26 35 44 73 68 87 76 56 77 96 82 85 72 62 51 34 57 27 24 58 56 45 56 90 52 66 81 31 46 21 32 59 4 25 46 0 55 74 40 50 72 45 69 91 67 41 49 47 40 61 78 31 50 78 46 41 93 78 64 109 70 58 94 71 78 85 30 82 55 46 111 67 46 94 58 81 120 85 70 115 98 26 52 53 60 78 78 28 20 0 54 27 0 74 58 29 25 34 29 40 52 52 28 43 26 50 64 29 49 56 36 100 104 117 81 89 106 72 72 82 64 64 64 29 21 24 46 44 54 50 61 75 50 75 84 34 52 66 57 67 81 47 59 61 48 76 65 33 67 44 27 54 25 49 56 27 47 40 36 62 63 71 53 75 48 58 81 38 64 82 44 42 46 20 62 80 72 59 79 55 68 78 39 68 68 56 40 41 58 48 51 80 51 48 87 48 46 73 31 56 72 8 43 53 16 57 63 36 56 71 33 43 44 43 58 49 41 66 58 51 55 44 56 59 36 48 50 25 63 56 34 76 74 71 51 71 76 53 86 83 51 60 51 60 61 54 51 75 65 20 66 44 27 88 58 29 67 38 46 66 42 45 68 54 38 65 62 69 67 64 39 55 30 93 95 72 57 61 51 74 80 80 60 69 60 39 58 50 56 82 95 65 52 92 80 53 92 81 65 87 56 54 51 37 55 53 47 54 61 54 47 41 72 81 40 70 90 49 32 67 21 42 62 47 72 61 65 76 56 77 62 68 80 43 55 65 16 36 51 36 33 62 88 68 81 69 62 42 55 73 13 54 68 0 42 57 14 54 66 54 55 73 71 42 73 79 35 64 72 57 63 91 39 34 50 69 61 70 65 69 66 113 116 109 130 138 127 117 127 115 107 121 100 49 72 66 19 53 51 9 23 22 29 39 26 59 66 36 48 82 10 44 95 28 8 47 0 25 52 13 35 67 18 58 87 35 59 83 35 70 70 68 57 51 77 63 58 86 90 84 96 213 212 230 242 255 255 243 254 255 252 250 255 180 159 188 58 53 61 20 38 30 55 81 68 72 88 74 58 62 52 31 37 13 26 34 0 46 52 14 70 92 58 40 60 39 54 51 48 61 49 49 44 58 36 54 80 63 28 56 43 50 58 57 39 60 43 43 72 42 44 77 48 61 79 69 48 55 59 58 64 90 30 55 74 18 44 47 39 63 51 55 72 68 64 76 86 80 80 80 60 69 36 24 43 2 34 47 31 59 47 57 67 46 47 78 72 42 55 85 61 16 74 71 36 75 86 52 55 88 56 45 76 45 64 84 14 68 58 30 73 31 66 88 17 73 70 13 77 75 22 59 57 20 68 54 41 79 39 61 64 45 86 52 37 90 19 35 73 24 49 57 19 56 35 17 66 32 18 79 50 31 71 85 39 70 112 53 73 96 58 67 78 52 56 71 64 52 88 61 45 93 67 59 71 59 55 13 65 64 21 56 61 42 28 55 48 43 82 67 31 76 34 45 76 23 48 69 24 37 48 30 44 54 57 73 60 65 26 0 5 34 11 15 42 39 44 74 73 75 120 121 129 81 72 79 45 51 61 23 42 37 55 74 68 95 94 86 85 87 74 70 70 80 42 61 69 54 47 51 83 62 63 72 79 49 33 75 37 32 70 69 42 58 83 37 39 65 60 62 63 76 93 61 115 122 100 
223 0 53 230 0 55 169 0 63 70 43 74 59 51 86 58 51 55 47 63 31 51 45 19 39 56 28 37 46 41 133 28 80 154 0 62 125 24 80 51 54 83 0 73 61 1 85 73 28 71 65 79 81 68 45 67 43 35 65 45 36 28 31 96 51 68 70 46 46 74 52 43 39 56 38 17 54 32 69 64 70 63 46 68 72 42 66 47 28 36 19 33 32 40 52 28 54 57 38 42 83 37 39 82 24 58 66 28 48 54 38 15 46 29 13 48 40 13 47 44 46 55 64 40 49 66 29 58 68 36 61 67 44 40 53 63 54 63 31 27 38 49 38 42 64 45 53 43 36 30 45 69 45 14 67 25 26 84 48 41 83 59 53 70 74 61 73 65 57 75 49 43 75 40 32 48 33 38 40 51 59 49 64 58 43 50 60 62 63 34 75 70 41 64 66 73 68 58 60 51 24 45 47 22 39 44 34 51 54 51 64 35 69 89 41 87 87 48 93 77 57 81 57 57 67 18 66 41 15 77 42 0 43 1 34 68 19 38 55 25 66 47 63 87 63 75 60 45 54 55 43 55 89 43 57 151 19 57 155 9 68 140 34 92 114 28 55 128 37 58 139 42 73 87 48 79 27 81 97 12 83 81 39 74 48 73 70 63 66 61 77 48 51 58 44 44 42 18 46 10 14 64 13 76 73 44 35 71 49 44 67 51 58 43 34 75 55 8 123 48 5 189 12 16 238 0 47 238 0 70 239 0 66 239 0 61 231 0 74 226 0 99 253 0 113 76 24 61 35 68 65 30 71 66 99 47 84 85 53 90 6 40 40 29 79 84 56 62 66 101 115 78 77 80 61 0 29 13 0 94 29 40 93 53 82 81 47 84 89 53 77 34 50 83 18 34 32 35 38 33 62 79 53 81 72 66 92 66 93 90 105 69 63 89 27 72 65 41 89 53 46 65 15 60 75 48 55 60 80 45 56 90 19 60 66 26 73 71 42 58 43 67 58 41 85 57 58 71 64 60 64 80 57 65 88 48 72 71 31 73 64 47 69 76 57 46 69 37 57 60 21 57 51 13 44 36 19 72 66 78 25 49 61 39 70 87 51 70 88 39 60 77 47 84 104 32 79 99 61 86 120 227 226 253 255 253 247 249 255 246 231 255 246 142 170 157 101 72 65 33 0 0 21 0 0 58 70 70 31 43 69 85 75 126 51 36 89 56 79 72 67 116 72 54 111 72 39 76 54 27 46 38 28 72 37 32 64 27 51 62 41 63 57 57 60 54 40 70 71 41 53 60 31 53 68 39 47 55 18 39 55 20 45 57 45 61 78 84 65 53 77 78 64 69 66 64 51 40 60 65 61 81 92 55 55 75 64 60 73 29 38 45 13 60 40 21 72 55 32 53 34 44 50 24 32 50 24 26 62 40 47 89 65 42 96 56 55 67 41 62 56 52 44 33 38 48 64 65 53 71 71 53 92 87 60 81 100 48 49 79 32 42 29 15 46 0 32 67 12 46 80 33 53 69 37 55 54 37 27 34 5 57 60 41 40 48 47 62 54 79 86 63 95 99 86 66 118 121 4 75 91 0 45 74 0 0 22 0 4 26 35 18 47 93 65 76 156 56 64 177 55 40 183 44 26 122 41 51 75 42 74 41 35 71 0 51 79 0 36 47 16 48 69 52 38 73 63 39 66 59 69 72 15 93 71 44 67 51 76 44 72 36 48 75 44 33 64 21 54 59 25 66 56 97 41 26 113 71 78 85 53 63 64 64 68 65 66 54 54 69 35 97 59 39 96 43 52 59 45 80 54 33 61 35 61 78 60 42 62 47 44 71 48 29 54 8 39 54 27 39 47 38 54 47 43 56 61 51 55 58 79 39 69 83 18 63 72 42 60 88 48 40 67 77 51 68 73 32 60 61 42 73 64 56 68 54 63 44 54 87 46 38 77 32 35 64 55 21 57 61 34 52 40 71 71 49 68 48 61 89 55 93 39 32 72 41 53 77 44 71 74 38 68 48 54 82 71 26 56 56 11 43 33 20 54 15 28 57 17 30 62 25 57 76 60 41 46 54 56 52 55 58 56 47 49 37 47 70 69 71 44 50 50 54 55 63 54 54 76 42 38 61 53 52 54 45 68 38 39 64 38 82 85 80 133 127 139 255 252 246 
230 0 60 216 0 41 165 0 59 68 41 72 47 39 74 42 35 39 53 69 37 66 60 34 40 57 29 52 61 56 98 0 45 142 0 50 136 35 91 59 62 91 0 108 96 0 80 68 2 45 39 38 40 27 50 72 48 49 79 59 72 64 67 83 38 55 74 50 50 80 58 49 52 69 51 8 45 23 39 34 40 45 28 50 78 48 72 93 74 82 34 48 47 45 57 33 43 46 27 22 63 17 36 79 21 54 62 24 69 75 59 39 70 53 41 76 68 35 69 66 55 64 73 45 54 71 34 63 73 26 51 57 55 51 64 76 67 76 57 53 64 59 48 52 61 42 50 68 61 55 51 75 51 32 85 43 24 82 46 10 52 28 28 45 49 34 46 38 43 61 35 61 93 58 45 61 46 48 50 61 34 24 39 16 1 8 13 15 16 15 56 51 48 71 73 120 115 105 110 101 74 25 27 2 28 33 23 30 33 30 101 72 106 115 67 113 81 42 87 78 58 82 48 48 58 24 72 47 27 89 54 22 67 25 26 60 11 37 54 24 44 25 41 53 29 41 91 76 85 76 64 76 99 53 67 157 25 63 137 0 50 121 15 73 110 24 51 125 34 55 124 27 58 105 66 97 21 75 91 22 93 91 50 85 59 72 69 62 52 47 63 42 45 52 42 42 40 22 50 14 33 83 32 45 42 13 33 69 47 37 60 44 76 61 52 85 65 18 114 39 0 173 0 0 233 0 42 243 0 75 249 0 76 245 0 67 226 0 69 227 0 100 239 0 99 94 42 79 45 78 75 26 67 62 85 33 70 63 31 68 19 53 53 4 54 59 42 48 52 56 70 33 57 60 41 35 84 68 0 95 30 32 85 45 66 65 31 64 69 33 92 49 65 91 26 42 72 75 78 33 62 79 47 75 66 77 103 77 113 110 125 126 120 146 59 104 97 32 80 44 29 48 0 58 73 46 73 78 98 51 62 96 36 77 83 37 84 82 60 76 61 85 76 59 103 75 76 68 61 57 63 79 56 48 71 31 57 56 16 62 53 36 55 62 43 44 67 35 57 60 21 62 56 18 62 54 37 64 58 70 45 69 81 60 91 108 63 82 100 73 94 111 37 74 94 0 47 67 21 46 80 54 53 80 78 71 65 72 82 69 57 94 72 51 79 66 93 64 57 115 71 50 80 59 26 65 77 77 52 64 90 52 42 93 51 36 89 34 57 50 36 85 41 26 83 44 39 76 54 52 71 63 22 66 31 30 62 25 42 53 32 63 57 57 68 62 48 64 65 35 51 58 29 48 63 34 56 64 27 55 71 36 55 67 55 35 52 58 59 47 71 59 45 50 56 54 41 47 67 72 37 57 68 47 47 67 58 54 67 46 55 62 32 79 59 24 75 58 40 61 42 55 61 35 21 39 13 22 58 36 27 69 45 33 87 47 76 88 62 63 57 53 80 69 74 48 64 65 55 73 73 37 76 71 34 55 74 51 52 82 37 47 34 39 70 17 26 61 6 20 54 7 36 52 20 54 53 36 54 61 32 73 76 57 48 56 55 63 55 80 86 63 95 87 74 54 79 82 0 66 82 0 48 77 0 37 63 28 36 58 67 21 50 96 34 45 125 39 47 160 54 39 182 52 34 130 49 59 83 39 71 38 39 75 0 57 85 0 53 64 33 34 55 38 39 74 64 29 56 49 62 65 8 89 67 40 61 45 70 54 82 46 37 64 33 38 69 26 70 75 41 61 51 92 64 49 136 48 55 62 42 52 53 54 58 55 56 44 44 89 55 117 45 25 82 52 61 68 43 78 52 27 55 29 60 77 59 35 55 40 28 55 32 41 66 20 48 63 36 41 49 40 56 49 45 46 51 41 36 39 60 28 58 72 4 49 58 41 59 87 72 64 91 88 62 79 97 56 84 69 50 81 61 53 65 57 66 47 40 73 32 21 60 15 21 50 41 30 66 70 50 68 56 78 78 56 75 55 68 65 31 69 62 55 95 44 56 80 51 78 81 38 68 48 45 73 62 26 56 56 29 61 51 24 58 19 38 67 27 32 64 27 33 52 36 50 55 63 44 40 43 64 62 53 74 62 72 61 60 62 55 61 61 55 56 64 56 56 78 58 54 77 50 49 51 51 74 44 16 41 15 68 71 66 91 85 97 161 150 144 
48 39 56 41 43 54 70 56 78 78 66 92 52 67 74 33 61 60 5 50 25 17 58 40 38 61 45 39 63 63 22 51 61 36 40 37 46 38 24 50 41 56 44 59 92 48 55 87 72 87 72 117 141 57 250 255 200 235 255 230 215 255 244 181 218 197 106 82 84 81 25 50 25 24 26 0 98 74 0 112 98 43 53 67 113 51 52 96 20 8 98 51 29 106 43 50 142 9 54 160 0 39 66 18 26 43 71 68 16 59 53 29 72 56 49 72 65 39 45 47 28 60 53 35 64 48 34 59 33 22 70 34 14 58 35 20 56 56 0 40 48 56 58 84 58 40 68 72 47 64 89 48 66 74 41 70 73 51 75 68 47 48 62 74 48 33 58 30 74 70 73 57 39 63 57 53 66 42 68 51 21 75 55 46 73 50 68 53 44 71 56 41 43 50 30 51 56 37 34 71 52 0 111 83 3 97 93 22 93 101 34 71 78 73 49 63 112 29 59 63 18 35 103 16 36 100 19 11 90 34 23 76 61 46 24 58 55 0 69 67 12 41 59 60 30 50 65 45 60 62 58 68 38 68 72 27 76 60 79 75 52 66 77 30 26 89 46 17 63 41 21 62 68 43 60 58 98 50 58 86 48 59 53 69 72 49 52 59 40 47 45 69 59 56 78 37 41 82 69 64 54 80 57 23 67 22 33 71 32 25 42 14 41 37 21 47 54 25 32 58 32 56 67 49 75 58 62 75 57 59 72 72 72 49 61 49 30 67 63 27 57 61 41 58 62 45 72 67 29 70 68 38 74 62 47 68 73 53 61 75 57 57 55 36 46 34 20 60 45 15 50 42 64 76 86 61 66 74 52 77 69 60 77 73 46 61 70 75 67 76 72 46 59 80 62 60 73 68 60 71 70 62 41 65 53 40 97 76 47 114 82 76 135 93 75 110 90 43 71 58 49 69 56 42 47 31 71 63 46 82 59 65 82 42 82 94 77 99 68 80 92 76 93 89 81 85 84 88 72 94 55 49 47 34 54 31 29 74 31 48 84 26 69 92 52 66 98 65 9 56 18 33 59 44 46 51 43 59 66 62 53 77 89 24 58 73 54 84 88 51 63 61 108 131 115 97 133 117 64 96 99 73 83 70 19 6 0 66 52 39 76 78 81 62 67 77 74 82 99 34 49 56 59 55 57 73 61 71 51 58 52 33 50 46 41 65 51 54 64 41 59 67 30 66 72 50 84 76 87 85 68 90 53 52 54 4 10 0 11 10 2 46 33 39 116 116 116 114 144 124 67 110 78 48 66 42 12 5 0 26 27 20 45 71 56 42 70 61 55 74 82 58 65 87 36 45 62 36 47 61 25 59 46 29 61 51 46 54 53 65 68 65 43 51 42 39 49 36 41 66 38 38 48 36 65 53 63 58 52 64 40 52 60 43 75 74 49 83 80 52 81 88 39 62 56 44 61 43 55 71 38 57 57 33 78 78 66 34 31 28 54 59 43 63 58 50 33 47 43 65 75 80 59 67 66 100 113 97 209 242 209 232 255 247 253 255 255 201 179 204 64 58 80 24 34 58 91 98 96 85 77 62 77 81 52 23 51 24 0 47 18 53 76 60 51 73 46 68 89 70 33 51 53 55 53 76 63 61 94 48 57 78 37 45 60 50 58 72 39 44 62 20 35 44 62 80 68 50 62 38 61 65 28 53 61 24 23 43 6 37 58 29 21 63 35 36 51 42 43 49 35 84 75 80 80 83 90 73 78 96 118 125 147 125 119 117 125 122 99 66 83 63 0 31 1 0 26 11 33 57 43 55 69 56 33 46 48 50 56 86 43 44 74 64 59 88 51 73 75 46 74 48 26 45 1 41 42 12 47 59 33 39 52 36 68 71 66 88 77 81 64 47 69 49 45 81 43 49 77 42 48 62 31 56 64 63 76 72 68 45 51 54 57 50 2 112 63 0 121 50 0 126 73 56 105 74 70 82 82 67 73 77 80 62 60 104 20 42 157 8 50 140 19 50 82 43 50 61 67 55 9 75 43 8 74 48 57 47 46 66 40 55 64 47 65 74 41 44 72 47 41 146 0 21 189 0 31 125 18 56 103 69 82 160 143 147 255 252 255 253 249 255 207 255 255 82 255 255 0 159 149 0 65 78 43 166 172 211 251 255 
77 68 85 86 88 99 81 67 89 78 66 92 73 88 95 73 101 100 125 170 145 143 184 166 116 139 123 98 122 122 67 96 106 62 66 63 80 72 58 68 59 74 62 77 110 88 95 127 95 110 95 111 135 51 110 127 60 100 134 95 44 106 73 24 61 40 58 34 36 88 32 57 79 78 80 20 144 120 43 167 153 132 142 156 146 84 85 124 48 36 73 26 4 82 19 26 164 31 76 215 50 94 167 119 127 102 130 127 74 117 111 41 84 68 34 57 50 40 46 48 18 50 43 33 62 46 54 79 53 74 122 86 98 142 119 102 138 138 81 123 131 77 79 105 67 49 77 63 38 55 69 28 46 90 57 86 66 44 68 74 53 54 43 55 29 17 42 14 60 56 59 62 44 68 62 58 71 33 59 42 20 74 54 39 66 43 64 49 40 70 55 40 54 61 41 51 56 37 39 76 57 0 86 58 0 78 74 13 84 92 36 73 80 78 54 68 118 35 65 70 25 42 98 11 31 110 29 21 84 28 17 84 69 54 47 81 78 0 87 85 82 111 129 105 75 95 109 89 104 67 63 73 12 42 46 11 60 44 72 68 45 73 84 37 27 90 47 47 93 71 38 79 85 33 50 48 86 38 46 60 22 33 43 59 62 62 65 72 56 63 61 64 54 51 99 58 62 75 62 57 42 68 45 7 51 6 26 64 25 32 49 21 56 52 36 67 74 45 26 52 26 50 61 43 54 37 41 69 51 53 63 63 63 59 71 59 37 74 70 34 64 68 45 62 66 24 51 46 31 72 70 36 72 60 30 51 56 61 69 83 50 50 48 62 72 60 48 88 73 37 72 64 54 66 76 64 69 77 36 61 53 35 52 48 33 48 57 55 47 56 94 68 81 84 66 64 61 56 48 34 33 25 34 58 46 15 72 51 29 96 64 32 91 49 48 83 63 43 71 58 34 54 41 44 49 33 47 39 22 88 65 71 90 50 90 83 66 88 49 61 73 63 80 76 73 77 76 89 73 95 77 71 69 37 57 34 33 78 35 38 74 16 44 67 27 42 74 41 16 63 25 44 70 55 70 75 67 83 90 86 44 68 80 36 70 85 24 54 58 31 43 41 56 79 63 28 64 48 62 94 97 48 58 45 79 66 44 80 66 53 58 60 63 68 73 83 78 86 103 55 70 77 81 77 79 70 58 68 38 45 39 52 69 65 35 59 45 64 74 51 55 63 26 68 74 52 76 68 79 83 66 88 70 69 71 47 53 41 54 53 45 56 43 49 69 69 69 54 84 64 22 65 33 60 78 54 42 35 29 60 61 54 37 63 48 42 70 61 49 68 76 53 60 82 45 54 71 28 39 53 27 61 48 19 51 41 42 50 49 59 62 59 49 57 48 52 62 49 47 72 44 54 64 52 74 62 72 60 54 66 51 63 71 37 69 68 43 77 74 38 67 74 47 70 64 35 52 34 52 68 35 61 61 37 55 55 43 72 69 66 54 59 43 60 55 47 37 51 47 41 51 56 47 55 54 54 67 51 29 62 29 18 53 33 38 40 43 67 45 70 71 65 87 63 73 97 64 71 69 69 61 46 70 74 45 35 63 36 22 73 44 40 63 47 41 63 36 58 79 60 47 65 67 60 58 81 42 40 73 34 43 64 44 52 67 42 50 64 62 67 85 49 64 73 40 58 46 57 69 45 45 49 12 52 60 23 45 65 28 28 49 20 38 80 52 39 54 45 56 62 48 76 67 72 60 63 70 62 67 85 54 61 83 60 54 52 67 64 41 73 90 70 45 82 52 32 71 56 15 39 25 24 38 25 41 54 56 39 45 75 58 59 89 52 47 76 46 68 70 50 78 52 41 60 16 57 58 28 50 62 36 50 63 47 57 60 55 64 53 57 64 47 69 54 50 86 55 61 89 66 72 86 38 63 71 53 66 62 63 40 46 52 55 48 17 127 78 0 151 80 9 138 85 67 116 85 70 82 82 95 101 105 91 73 71 129 45 67 157 8 50 134 13 44 85 46 53 60 66 54 12 78 46 0 66 40 59 49 48 62 36 51 73 56 74 64 31 34 65 40 34 155 0 30 203 0 45 133 26 64 73 39 52 69 52 56 60 57 70 52 48 84 9 73 99 0 105 80 0 124 114 0 99 112 0 118 124 102 142 156 
62 72 109 143 146 167 194 200 212 220 255 254 214 255 255 191 255 219 180 221 177 141 185 150 90 140 115 91 120 102 110 113 90 174 163 147 218 196 194 229 198 225 255 232 255 233 215 225 205 187 187 144 149 143 71 93 94 44 66 75 55 65 78 90 84 84 156 143 121 178 203 183 205 229 219 205 219 208 161 174 158 128 142 129 116 151 145 145 192 198 195 213 227 237 226 255 230 219 250 217 203 216 184 182 169 157 150 126 131 106 98 105 69 67 119 111 78 173 174 146 202 217 210 229 244 249 211 232 241 171 204 207 145 186 184 124 151 148 102 111 102 71 67 51 37 42 32 27 38 20 34 27 5 62 59 40 36 63 58 18 65 71 21 74 78 20 64 51 50 87 66 20 65 48 37 63 48 60 47 42 68 42 39 67 68 48 36 62 47 52 66 63 46 46 58 61 55 81 51 67 78 48 78 58 37 71 48 54 58 55 64 54 66 55 47 50 48 62 49 24 57 44 6 35 26 42 61 43 50 62 38 43 65 40 32 61 53 29 48 42 39 45 45 54 46 73 56 31 75 57 30 61 62 45 63 52 48 61 57 70 75 35 62 29 22 61 6 30 68 23 39 61 54 65 74 69 65 67 52 73 65 48 62 59 66 59 50 69 74 53 82 53 41 69 17 67 70 15 89 66 26 85 53 38 69 50 40 56 59 35 60 52 29 63 24 70 68 18 59 35 19 77 51 66 96 36 76 112 27 70 143 19 69 91 13 40 94 30 69 126 25 81 145 23 86 117 28 82 75 46 64 44 85 65 28 107 89 43 111 100 27 94 72 9 59 8 57 75 27 49 53 17 53 74 43 63 78 37 74 55 34 94 71 69 87 39 65 64 43 64 1 61 49 3 52 47 20 59 40 34 73 30 55 62 30 50 77 54 0 78 48 17 54 35 35 40 30 63 53 50 73 32 52 60 43 47 36 68 59 36 68 61 68 89 62 61 91 35 44 70 35 26 66 51 23 70 66 58 85 82 72 60 50 76 58 58 50 56 60 39 53 40 52 68 45 44 58 37 59 75 61 52 77 59 60 104 81 58 86 50 56 62 40 67 63 48 52 43 36 58 47 52 64 64 76 48 61 65 92 80 88 91 64 87 73 53 77 61 49 83 51 71 84 55 86 82 74 88 87 66 87 84 17 62 45 39 78 59 43 67 53 74 71 66 82 65 59 59 44 25 68 64 51 51 60 55 59 73 69 64 88 64 53 77 53 62 71 66 68 73 65 56 61 51 43 49 51 52 55 74 32 35 58 50 54 70 48 68 70 42 57 72 40 73 76 39 77 65 40 60 39 47 61 39 50 61 40 31 36 17 72 52 41 81 27 39 106 34 46 101 36 52 160 0 60 207 0 74 237 0 64 254 0 74 237 0 51 231 0 54 239 0 59 177 0 53 115 33 61 51 59 57 20 61 30 41 61 38 65 58 38 69 59 46 50 60 47 59 58 50 61 43 53 50 58 72 36 46 60 19 65 66 19 83 73 41 55 52 53 58 40 45 38 6 79 42 9 81 65 40 52 92 52 35 71 45 32 55 38 56 53 56 65 50 67 45 63 79 13 71 61 32 67 73 47 61 84 35 61 72 54 78 58 41 62 45 8 34 35 24 17 46 59 37 64 70 75 69 104 128 108 66 91 84 17 44 51 0 1 5 34 36 19 56 79 37 55 90 22 95 100 55 72 56 45 74 58 73 58 69 77 49 71 83 42 71 88 22 44 79 77 54 97 62 42 83 49 54 74 62 63 54 45 43 17 74 69 49 73 57 56 59 71 73 7 74 45 18 67 33 38 67 51 0 7 0 33 55 48 44 59 52 121 109 117 146 110 132 80 59 80 24 35 41 19 40 47 48 67 75 50 74 70 41 85 71 0 62 36 12 65 51 42 77 69 67 87 72 106 112 90 104 80 64 126 98 83 101 73 84 93 67 92 110 88 87 72 73 63 58 63 70 46 58 84 12 40 89 11 59 83 27 64 35 44 40 25 76 55 60 48 46 53 37 65 56 37 73 41 52 61 20 51 58 36 31 63 40 20 71 42 36 63 44 63 80 58 62 67 49 42 50 48 61 63 64 100 87 95 254 231 235 255 247 255 255 245 255 255 243 255 113 115 128 3 15 17 0 3 0 
45 55 92 37 40 61 67 73 85 105 142 139 138 199 182 177 241 205 198 239 195 195 239 204 185 235 210 185 214 196 179 182 159 161 150 134 168 146 144 197 166 193 219 194 220 218 200 210 210 192 192 190 195 189 175 197 198 171 193 202 152 162 175 110 104 104 101 88 66 96 121 101 154 178 168 206 220 209 222 235 219 197 211 198 139 174 168 101 148 154 100 118 132 136 125 155 182 171 202 251 237 250 255 255 242 247 240 216 242 217 209 203 167 165 151 143 110 137 138 110 145 160 153 160 175 180 194 215 224 162 195 198 154 195 193 178 205 202 179 188 179 191 187 171 126 131 121 85 96 78 55 48 26 41 38 19 21 48 43 15 62 68 20 73 77 9 53 40 31 68 47 24 69 52 46 72 57 78 65 60 63 37 34 55 56 36 38 64 49 42 56 53 68 68 80 90 84 110 84 100 111 53 83 63 39 73 50 2 6 3 33 23 35 15 7 10 49 63 50 59 92 79 45 74 65 53 72 54 29 41 17 37 59 34 22 51 43 33 52 46 29 35 35 40 32 59 65 40 84 69 42 73 67 50 68 72 68 81 60 73 78 26 53 20 25 64 9 27 65 20 23 45 38 55 64 59 52 54 39 66 58 41 72 69 76 70 61 80 84 63 92 71 59 87 41 91 94 0 69 46 27 86 54 35 66 47 47 63 66 51 76 68 40 74 35 56 54 4 79 55 39 66 40 55 84 24 64 118 33 76 133 9 59 121 43 70 94 30 69 117 16 72 141 19 82 110 21 75 92 63 81 34 75 55 0 73 55 23 91 80 4 71 49 35 85 34 48 66 18 67 71 35 47 68 37 55 70 29 70 51 30 92 69 67 128 80 106 128 107 128 78 138 126 47 96 91 40 79 60 32 71 28 39 46 14 32 59 36 6 89 59 29 66 47 66 71 61 66 56 53 74 33 53 54 37 41 16 48 39 27 59 52 42 63 36 44 74 18 56 82 47 31 71 56 38 85 81 60 87 84 61 49 39 60 42 42 48 54 58 38 52 39 52 68 45 51 65 44 50 66 52 62 87 69 47 91 68 69 97 61 57 63 41 72 68 53 74 65 58 72 61 66 62 62 74 54 67 71 71 59 67 86 59 82 87 67 91 68 56 90 31 51 64 30 61 57 42 56 55 57 78 75 38 83 66 58 97 78 46 70 56 73 70 65 75 58 52 64 49 30 80 76 63 59 68 63 74 88 84 51 75 51 45 69 45 44 53 48 46 51 43 58 63 53 69 75 77 84 87 106 78 81 104 63 67 83 22 42 44 12 27 42 9 42 45 8 46 34 52 72 51 71 85 63 70 81 60 75 80 61 60 40 29 76 22 34 95 23 35 96 31 47 159 0 59 193 0 60 232 0 59 244 0 64 237 0 51 237 0 60 230 0 50 176 0 52 109 27 55 47 55 53 25 66 35 49 69 46 61 54 34 60 50 37 59 69 56 56 55 47 77 59 69 54 62 76 49 59 73 40 86 87 18 82 72 47 61 58 49 54 36 48 41 9 92 55 22 71 55 30 33 73 33 36 72 46 31 54 37 58 55 58 74 59 76 49 67 83 24 82 72 25 60 66 34 48 71 34 60 71 31 55 35 54 75 58 34 60 61 59 52 81 78 56 83 52 57 51 45 69 49 28 53 46 28 55 62 57 63 67 57 59 42 50 73 31 23 58 0 51 56 11 89 73 62 78 62 77 77 88 96 40 62 74 38 67 84 44 66 101 62 39 82 78 58 99 51 56 76 66 67 58 65 63 37 66 61 41 64 48 47 45 57 59 21 88 59 25 74 40 44 73 57 47 62 55 29 51 44 31 46 39 61 49 57 78 42 64 76 55 76 46 57 63 34 55 62 45 64 72 35 59 55 36 80 66 23 88 62 27 80 66 48 83 75 36 56 41 37 43 21 65 41 25 87 59 44 97 69 80 113 87 112 90 68 67 73 74 64 59 64 71 42 54 80 37 65 114 26 74 98 35 72 43 59 55 40 61 40 45 45 43 50 30 58 49 32 68 36 33 42 1 55 62 40 27 59 36 16 67 38 49 76 57 48 65 43 63 68 50 53 61 59 47 49 50 53 40 48 68 45 49 66 43 51 54 32 57 53 30 70 57 59 72 74 86 88 144 150 134 
74 38 36 49 53 52 82 97 106 133 137 150 182 173 180 159 184 156 102 157 129 85 126 132 118 128 141 167 154 149 185 175 154 185 175 172 154 170 171 182 188 198 188 184 184 161 163 150 111 121 122 87 96 117 107 117 138 107 96 126 121 105 130 107 96 98 124 124 124 186 185 203 201 212 226 215 240 212 194 242 180 143 185 113 118 151 110 106 140 119 136 189 149 174 224 175 159 186 155 142 139 120 121 105 94 142 138 140 171 186 193 176 178 189 163 153 168 151 136 163 157 156 186 162 181 201 165 200 208 122 150 147 71 76 68 150 149 117 151 161 123 137 157 133 73 106 99 0 6 15 0 0 10 46 49 46 48 54 54 65 82 60 35 78 47 8 33 25 43 51 42 63 55 30 82 69 51 70 58 58 47 62 77 52 49 54 45 33 25 75 56 46 33 44 41 0 73 36 0 113 74 0 99 62 35 91 90 27 67 71 25 63 60 29 63 53 105 40 68 142 36 72 114 7 45 105 23 49 48 9 28 46 34 42 36 49 45 51 61 46 73 39 49 90 60 72 45 57 57 23 53 39 46 72 59 6 16 21 63 48 55 38 57 52 25 61 61 68 84 95 47 81 79 77 105 79 88 80 63 73 65 74 63 68 78 30 61 44 30 84 60 57 74 56 96 78 88 74 75 68 54 90 64 18 70 46 19 81 48 36 56 19 55 47 30 52 48 51 42 58 59 59 67 55 70 64 38 96 40 41 89 20 37 90 50 46 97 31 31 149 21 47 197 0 55 215 0 59 209 0 78 171 5 83 160 14 73 139 28 59 76 28 38 29 75 61 0 75 51 5 89 75 42 70 69 82 64 90 78 67 85 91 76 85 103 115 91 107 162 109 167 139 116 109 101 77 71 97 74 27 34 38 40 51 65 53 45 74 102 23 76 79 54 74 30 64 62 47 53 53 50 63 45 60 41 30 101 51 30 68 55 25 44 79 35 56 96 56 31 71 48 43 78 60 38 76 29 10 69 25 35 84 68 58 33 43 117 23 46 148 14 29 206 12 34 255 0 72 254 0 61 255 0 69 239 0 68 255 0 106 192 0 47 232 0 94 255 0 120 115 130 163 148 168 183 89 97 88 54 62 35 41 31 8 87 69 45 94 70 44 94 81 59 48 71 57 43 61 49 45 70 52 52 83 63 67 66 60 60 65 55 64 71 75 100 54 79 59 66 86 35 85 88 28 71 65 35 73 46 64 54 41 136 32 45 104 33 39 117 29 42 234 0 43 240 0 47 244 0 66 245 0 70 248 0 78 254 0 86 238 0 67 246 0 66 91 34 57 39 32 26 61 56 48 37 34 13 63 47 36 63 61 34 57 56 26 51 53 18 18 51 38 29 33 56 33 41 74 44 68 82 60 54 68 59 56 73 62 44 68 98 27 55 46 51 41 11 77 51 15 73 45 39 87 53 81 63 63 123 31 64 105 33 69 115 31 55 89 37 37 106 52 62 83 30 62 77 48 78 31 79 80 0 91 65 0 114 83 0 91 70 23 78 50 23 81 35 33 65 30 52 69 41 56 38 48 44 34 57 43 54 62 13 66 62 14 105 88 49 66 70 27 47 50 23 65 37 46 74 11 31 64 0 56 64 37 97 17 56 87 48 81 46 85 80 52 74 65 48 69 64 46 46 70 74 29 58 42 40 27 34 74 34 54 92 45 67 93 68 116 130 129 156 146 159 138 146 160 87 120 123 44 53 80 65 56 97 84 74 97 73 77 90 25 26 42 0 10 12 54 47 43 81 71 60 95 99 88 63 75 85 47 45 52 66 53 59 56 65 50 39 56 51 53 64 72 39 48 43 43 48 30 59 65 51 33 62 32 48 75 54 54 51 64 47 52 62 71 65 79 49 54 62 49 62 58 32 55 51 36 51 56 45 54 49 48 57 42 24 53 44 43 75 66 59 82 84 63 79 80 68 77 86 32 55 48 20 59 42 36 53 23 61 54 30 61 47 35 63 51 51 55 56 39 39 48 33 22 27 21 15 25 36 28 47 58 55 84 92 68 95 100 63 77 89 46 57 55 0 23 16 33 44 26 52 57 38 67 65 38 78 64 49 60 49 53 34 30 51 44 42 52 42 50 64 36 58 70 30 45 52 41 50 41 32 40 31 36 38 38 
88 52 50 50 54 53 61 76 85 105 109 122 172 163 170 175 200 172 153 208 180 130 171 177 146 156 169 180 167 162 193 183 162 169 159 156 136 152 153 157 163 173 187 183 183 209 211 198 195 205 206 177 186 207 158 168 189 175 164 194 203 187 212 255 244 246 255 255 255 253 252 255 211 222 236 186 211 183 152 200 138 155 197 125 159 192 151 122 156 135 140 193 153 177 227 178 145 172 141 151 148 129 125 109 98 122 118 120 180 195 202 188 190 201 178 168 183 163 148 175 146 145 175 168 187 207 178 213 221 191 219 216 183 188 180 174 173 141 134 144 106 92 112 88 66 99 92 40 66 75 37 43 53 38 41 38 40 46 46 41 58 36 33 76 45 34 59 51 39 47 38 76 68 43 63 50 32 73 61 61 46 61 76 40 37 42 60 48 40 64 45 35 53 64 61 0 98 61 0 99 60 0 84 47 8 64 63 27 67 71 14 52 49 31 65 55 95 30 58 127 21 57 131 24 62 108 26 52 81 42 61 59 47 55 41 54 50 37 47 32 54 20 30 68 38 50 51 63 63 27 57 43 43 69 56 34 44 49 67 52 59 64 83 78 39 75 75 48 64 75 23 57 55 45 73 47 94 86 69 102 94 103 106 111 121 58 89 72 21 75 51 54 71 53 62 44 54 79 80 73 50 86 60 18 70 46 28 90 57 43 63 26 77 69 52 73 69 72 48 64 65 58 66 54 50 44 18 104 48 49 109 40 57 73 33 29 106 40 40 122 0 20 210 0 68 243 0 87 194 0 63 179 13 91 140 0 53 107 0 27 85 37 47 0 24 10 9 109 85 75 159 145 123 151 150 130 112 138 70 59 77 84 69 78 167 179 155 222 255 224 255 249 226 255 255 231 104 130 107 0 6 10 41 52 66 91 83 112 146 67 120 64 39 59 0 10 8 129 135 135 192 205 187 255 250 239 255 242 221 255 254 224 156 191 147 73 113 73 27 67 44 36 71 53 59 97 50 31 90 46 12 61 45 69 44 54 138 44 67 157 23 38 194 0 22 245 0 58 236 0 43 227 0 34 255 0 97 224 0 72 241 0 96 255 0 126 245 0 98 52 67 100 79 99 114 57 65 56 73 81 54 85 75 52 71 53 29 93 69 43 66 53 31 42 65 51 58 76 64 36 61 43 46 77 57 76 75 69 72 77 67 72 79 83 104 58 83 51 58 78 35 85 88 40 83 77 29 67 40 67 57 44 118 14 27 89 18 24 133 45 58 246 0 55 255 0 69 255 0 90 246 0 71 245 0 75 238 0 70 229 0 58 245 0 65 88 31 54 43 36 30 53 48 40 49 46 25 76 60 49 55 53 26 51 50 20 42 44 9 30 63 50 56 60 83 36 44 77 40 64 78 41 35 49 44 41 58 69 51 75 95 24 52 66 71 61 12 78 52 17 75 47 37 85 51 75 57 57 137 45 78 106 34 70 116 32 56 76 24 24 89 35 45 88 35 67 74 45 75 19 67 68 0 76 50 0 102 71 0 85 64 34 89 61 19 77 31 30 62 27 46 63 35 51 33 43 55 45 68 46 57 65 24 77 73 9 100 83 42 59 63 42 62 65 16 58 30 50 78 15 35 68 1 55 63 36 104 24 63 82 43 76 38 77 72 36 58 49 43 64 59 46 46 70 81 36 65 68 66 53 45 85 45 44 82 35 49 75 50 34 48 47 47 37 50 45 53 67 42 75 78 68 77 104 78 69 110 74 64 87 49 53 66 46 47 63 52 64 66 67 60 56 72 62 51 54 58 47 45 57 67 93 91 98 176 163 169 250 255 244 243 255 255 232 243 251 132 141 136 66 71 53 19 25 11 67 96 66 56 83 62 58 55 68 51 56 66 57 51 65 40 45 53 54 67 63 41 64 60 33 48 53 60 69 64 53 62 47 32 61 52 30 62 53 46 69 71 43 59 60 62 71 80 57 80 73 31 70 53 32 49 19 45 38 14 37 23 11 64 52 52 62 63 46 44 53 38 50 55 49 45 55 66 32 51 62 45 74 82 39 66 71 34 48 60 65 76 74 21 46 39 52 63 45 60 65 46 55 53 26 62 48 33 47 36 40 42 38 59 52 50 60 38 46 60 22 44 56 25 40 47 49 58 49 78 86 77 137 139 139 
36 28 55 64 60 99 73 70 111 58 68 79 121 122 112 104 110 112 203 212 233 225 229 252 209 201 213 229 235 219 211 212 184 205 207 194 144 158 147 117 134 130 92 101 84 122 140 102 186 200 161 186 228 204 206 255 241 204 249 232 184 216 193 161 182 165 146 154 168 146 159 179 184 178 200 186 169 199 176 150 185 179 164 191 167 180 185 148 184 172 142 171 162 120 149 143 169 180 159 178 196 168 145 164 131 137 135 122 139 123 112 149 143 131 163 168 158 130 166 170 100 133 128 85 104 96 90 99 106 129 154 162 184 205 204 233 248 241 252 241 225 233 205 205 197 164 169 157 130 135 116 99 105 95 98 105 118 134 112 109 125 113 131 124 128 81 76 95 50 49 77 47 48 65 51 56 63 72 64 76 54 46 49 30 45 26 31 56 36 25 66 35 33 80 50 35 80 55 31 61 47 21 45 45 62 52 65 57 32 58 77 55 79 44 64 66 36 71 61 11 58 36 29 72 56 38 80 80 0 57 29 25 89 53 3 36 3 52 62 37 74 58 57 51 21 35 71 51 48 44 36 39 49 57 56 41 59 59 49 46 49 60 49 53 66 66 66 49 66 70 47 60 65 43 45 58 58 58 72 40 56 59 33 61 48 63 95 72 59 76 56 93 109 87 86 112 77 68 95 64 98 112 91 88 93 83 64 77 69 50 73 67 58 77 72 71 82 80 96 76 73 77 50 29 54 41 10 33 52 2 54 65 21 63 63 53 51 58 65 28 64 64 5 67 60 35 85 98 51 50 104 63 42 105 37 22 63 40 38 47 48 62 49 38 65 46 51 65 54 29 51 26 29 56 27 32 77 22 35 90 19 59 78 44 61 42 50 64 53 73 65 66 72 67 93 58 78 102 64 46 61 36 58 70 42 43 66 23 49 70 25 60 98 61 45 84 93 29 66 109 47 63 150 44 41 168 49 39 174 56 51 123 51 43 55 74 65 46 80 72 39 53 84 0 32 83 0 20 79 0 42 95 0 50 92 20 79 82 79 93 81 91 73 25 59 79 42 63 52 55 62 30 69 80 58 105 101 39 87 77 39 77 65 46 89 48 45 78 63 63 86 105 56 60 119 82 56 149 83 64 105 60 75 48 62 77 36 42 61 27 68 74 60 89 109 98 69 114 72 60 116 41 57 81 35 40 57 53 66 77 91 32 63 70 67 74 68 77 65 11 77 60 22 86 72 83 52 68 71 38 71 56 51 61 46 51 59 47 71 71 93 76 80 121 81 98 120 62 85 81 78 69 86 62 57 63 66 66 56 50 72 48 56 77 60 58 62 51 68 54 57 60 49 43 47 44 39 33 35 36 9 14 34 32 42 63 26 37 34 61 76 49 70 88 76 46 95 88 55 83 96 42 44 57 54 41 46 63 61 62 55 69 84 60 80 95 51 52 58 39 48 39 38 61 55 28 65 62 46 68 69 58 71 63 55 65 42 63 67 30 45 46 18 12 45 12 45 72 51 60 81 78 56 91 99 62 87 103 9 23 61 14 24 64 43 33 54 47 52 46 64 98 59 50 77 38 50 66 41 38 61 27 36 52 27 20 61 41 38 55 50 70 60 73 71 51 64 69 63 51 55 58 39 37 73 41 35 68 53 58 73 88 59 76 84 92 105 109 192 207 214 238 255 255 247 252 255 255 248 255 152 142 157 15 18 23 52 58 46 81 85 75 84 75 92 72 69 82 34 32 42 62 53 60 71 52 42 83 63 74 72 55 77 54 48 60 55 67 69 47 81 81 36 67 65 41 74 69 22 54 31 0 35 9 24 61 31 67 69 52 82 60 59 91 83 68 68 71 42 71 75 64 88 74 85 89 78 96 68 81 85 52 70 68 61 76 69 36 52 53 58 67 78 47 58 64 41 49 47 48 64 65 28 47 32 53 63 42 62 58 42 56 56 44 59 77 67 25 58 61 48 72 72 47 45 68 82 63 79 67 50 72 77 78 94 47 80 75 50 58 33 68 55 35 36 24 0 43 48 32 27 56 50 17 64 42 55 63 34 63 61 52 46 58 56 43 75 66 24 69 44 36 62 45 68 59 66 64 57 77 68 55 71 60 55 63 35 51 54 36 53 48 29 44 15 45 56 26 36 51 32 20 65 46 21 78 45 28 54 29 
58 50 77 67 63 102 96 93 134 140 150 161 201 202 192 226 232 234 238 247 255 231 235 255 197 189 201 159 165 149 121 122 94 90 92 79 66 80 69 56 73 69 73 82 65 81 99 61 109 123 84 135 177 153 152 214 187 182 227 210 207 239 216 192 213 196 201 209 223 192 205 225 187 181 203 212 195 225 247 221 255 223 208 235 176 189 194 131 167 155 149 178 169 164 193 187 173 184 163 126 144 116 107 126 93 146 144 131 198 182 171 189 183 171 149 154 144 79 115 119 58 91 86 73 92 84 92 101 108 85 110 118 123 144 143 170 185 178 199 188 172 170 142 142 134 101 106 79 52 57 74 57 63 63 66 73 53 69 47 40 56 44 42 35 39 48 43 62 45 44 72 51 52 69 53 58 65 70 62 74 60 52 55 44 59 40 33 58 38 14 55 24 38 85 55 3 48 23 24 54 40 30 54 54 75 65 78 88 63 89 51 29 53 17 37 39 0 32 22 32 79 57 37 80 64 45 87 87 17 82 54 15 79 43 28 61 28 31 41 16 50 34 33 53 23 37 52 32 29 66 58 61 51 59 58 52 70 70 64 61 64 63 52 56 50 50 50 34 51 55 31 44 49 42 44 57 66 66 80 45 61 64 54 82 69 45 77 54 72 89 69 98 114 92 123 149 114 112 139 108 103 117 96 63 68 58 41 54 46 35 58 52 48 67 62 65 76 74 49 29 26 71 44 23 58 45 14 62 81 31 69 80 36 64 64 54 57 64 71 25 61 61 18 80 73 12 62 75 39 38 92 62 41 104 56 41 82 57 55 64 51 65 52 53 80 61 49 63 52 64 86 61 38 65 36 29 74 19 38 93 22 40 59 25 76 57 65 60 49 69 49 50 56 52 78 43 58 82 44 56 71 46 70 82 54 46 69 26 59 80 35 45 83 46 33 72 81 54 91 134 51 67 154 53 50 177 66 56 191 48 43 115 70 62 74 56 47 28 55 47 14 52 83 0 42 93 0 53 112 0 42 95 0 23 65 0 52 55 52 66 54 64 97 49 83 95 58 79 78 81 88 50 89 100 27 74 70 30 78 68 27 65 53 41 84 43 60 93 78 47 70 89 67 71 130 70 44 137 77 58 99 70 85 58 59 74 33 91 110 76 95 101 87 84 104 93 70 115 73 34 90 15 56 80 34 57 74 70 42 53 67 44 75 82 58 65 59 83 71 17 99 82 44 86 72 83 54 70 73 51 84 69 57 67 52 61 69 57 91 91 113 76 80 121 77 94 116 66 89 85 61 52 69 78 73 79 74 74 64 45 67 43 57 78 61 24 28 17 58 44 47 60 49 43 40 37 32 58 60 61 38 43 63 46 56 77 61 72 69 73 88 61 48 66 54 15 64 57 24 52 65 43 45 58 93 80 85 73 71 72 54 68 83 44 64 79 41 42 48 56 65 56 26 49 43 30 67 64 57 79 80 55 68 60 67 77 54 62 66 29 59 60 32 36 69 36 38 65 44 43 64 61 23 58 66 46 71 87 38 52 90 46 56 96 77 67 88 58 63 57 51 85 46 43 70 31 49 65 40 53 76 42 62 78 53 43 84 64 50 67 62 59 49 62 62 42 55 50 44 32 53 56 37 36 72 40 35 68 53 51 66 81 42 59 67 44 57 61 45 60 67 38 60 72 47 52 86 67 55 79 62 52 67 73 76 81 49 55 43 61 65 55 72 63 80 90 87 100 138 136 146 174 165 172 194 175 165 158 138 149 103 86 108 29 23 35 19 31 33 36 70 70 50 81 79 36 69 64 37 69 46 28 76 50 41 78 48 74 76 59 98 76 75 66 58 43 78 81 52 70 74 63 54 40 51 82 71 89 52 65 69 34 52 50 38 53 46 39 55 56 46 55 66 58 69 75 50 58 56 37 53 54 39 58 43 49 59 38 69 65 49 65 65 53 42 60 50 19 52 55 18 42 42 57 55 78 79 60 76 93 76 98 79 80 96 26 59 54 38 46 21 56 43 23 63 51 27 48 53 37 31 60 54 18 65 43 50 58 29 60 58 49 51 63 61 45 77 68 54 99 74 69 95 78 71 62 69 73 66 86 57 44 60 51 46 54 38 54 57 21 38 33 34 49 20 21 32 2 29 44 25 36 81 62 68 125 92 166 192 167 
110 100 97 87 105 93 99 167 154 116 183 177 155 181 181 177 185 183 159 169 182 182 192 205 172 167 173 173 153 164 137 113 113 149 139 138 154 176 177 155 194 189 157 183 166 129 142 111 136 155 113 149 183 147 184 219 199 199 230 211 233 237 224 248 242 228 248 255 245 232 254 247 235 242 246 234 236 245 212 216 241 193 206 234 171 191 206 177 197 208 209 204 214 195 184 179 151 176 148 132 170 131 171 188 158 198 196 195 188 184 184 145 155 143 121 153 144 147 164 160 203 170 177 201 166 176 137 126 128 107 109 118 132 127 143 169 162 181 181 167 189 138 141 160 65 79 78 43 51 40 41 46 30 36 43 39 23 46 42 32 61 52 23 54 27 32 71 38 42 72 32 24 50 14 48 80 47 35 71 49 35 66 49 55 86 67 33 58 38 27 54 57 32 58 69 21 39 57 56 66 77 51 52 60 63 50 68 58 32 68 77 44 73 45 24 45 54 46 49 44 48 35 41 44 15 58 72 35 24 55 27 16 64 39 5 59 19 19 68 35 29 61 36 21 58 36 27 62 33 21 52 33 48 65 69 36 56 67 24 45 50 6 42 28 18 38 23 30 36 40 41 60 55 39 73 50 45 69 57 59 70 76 82 65 87 118 79 124 130 108 135 120 106 127 86 98 90 57 71 50 43 55 31 46 70 34 45 75 37 52 89 67 48 87 80 52 73 80 52 56 69 41 45 58 50 43 75 57 73 98 39 70 66 37 71 50 37 62 36 34 48 37 59 72 64 61 86 60 38 70 33 28 63 35 42 61 55 54 63 58 56 46 41 56 49 45 39 42 35 34 54 41 69 76 70 70 77 81 73 73 95 63 72 93 35 61 64 21 59 56 57 60 65 73 54 62 80 50 50 70 58 34 49 82 43 43 96 52 44 77 44 55 83 72 48 85 82 50 102 91 47 100 84 48 74 61 68 56 68 66 49 51 81 75 47 57 91 44 52 98 50 84 119 77 86 108 73 81 103 66 65 80 53 37 59 50 49 53 53 88 69 74 86 64 73 85 62 70 73 40 55 76 67 60 69 77 50 67 98 42 83 105 52 65 81 48 56 76 61 23 73 52 13 60 28 56 68 58 81 61 82 97 64 107 68 70 96 28 70 70 35 60 43 55 65 52 84 79 85 91 88 91 76 82 94 55 75 78 73 57 56 73 51 23 93 64 57 58 55 52 35 73 62 24 76 42 50 77 36 55 70 51 86 89 112 99 126 157 105 157 157 87 133 108 76 88 76 68 55 69 67 41 74 78 71 91 50 74 64 42 73 27 53 60 40 37 43 45 44 48 48 41 48 19 29 53 3 35 66 12 45 52 46 53 59 69 62 69 67 47 60 46 31 67 53 26 69 61 41 61 64 88 92 91 100 89 93 102 98 101 67 78 83 30 70 73 33 62 53 43 63 42 53 59 61 53 65 65 47 64 60 50 62 38 76 78 53 63 46 48 72 56 68 58 53 45 49 58 39 57 83 50 49 73 61 39 63 51 35 61 36 10 55 12 4 51 29 26 64 63 46 45 75 82 59 101 94 57 86 88 59 67 82 69 75 57 49 61 57 47 59 48 49 39 33 53 30 24 74 35 6 77 59 1 64 51 33 68 60 46 67 46 38 57 42 41 72 55 33 54 49 47 53 57 67 49 59 59 46 62 65 56 71 65 78 74 66 77 57 63 72 53 62 64 51 45 52 46 57 66 57 60 91 71 58 97 88 53 80 87 44 62 86 36 34 69 49 51 64 71 83 75 81 77 77 86 65 84 83 62 79 56 53 58 47 68 51 55 92 73 52 65 70 63 73 84 57 71 83 29 40 54 48 56 70 43 52 63 39 49 62 28 62 60 21 61 39 31 74 33 56 80 40 48 73 53 44 68 48 58 67 58 49 47 34 59 54 36 56 49 42 31 43 35 58 75 73 50 60 65 63 67 64 65 63 52 47 48 39 33 57 57 14 32 32 29 50 31 36 44 15 41 56 29 71 95 71 106 138 128 109 123 135 127 129 142 79 92 88 42 59 55 67 104 85 88 128 113 125 152 129 174 200 164 219 255 212 194 229 211 157 184 177 13 41 41 0 2 0 0 6 0 0 14 0 70 104 84 55 70 53 58 71 57 1 5 0 0 6 0 
53 43 40 51 69 57 38 106 93 101 168 162 164 190 190 177 185 183 143 153 166 122 132 145 146 141 147 172 152 163 171 147 147 133 123 122 101 123 124 121 160 155 179 205 188 222 235 204 229 248 206 215 249 213 193 228 208 189 220 201 174 178 165 149 143 129 135 143 132 131 153 146 158 165 169 190 192 201 198 202 227 181 194 222 166 186 201 143 163 174 161 156 166 198 187 182 194 219 191 207 245 206 231 248 218 235 233 232 215 211 211 171 181 169 106 138 129 88 105 101 165 132 139 207 172 182 224 213 215 244 246 255 239 234 250 228 221 240 225 211 233 166 169 188 109 123 122 70 78 67 41 46 30 25 32 28 29 52 48 38 67 58 45 76 49 25 64 31 35 65 25 25 51 15 36 68 35 28 64 42 34 65 48 35 66 47 34 59 39 29 56 59 31 57 68 36 54 72 42 52 63 45 46 54 47 34 52 55 29 65 62 29 58 55 34 55 48 40 43 55 59 46 45 48 19 39 53 16 9 40 12 0 47 22 3 57 17 19 68 35 39 71 46 33 70 48 28 63 34 10 41 22 25 42 46 26 46 57 36 57 62 25 61 47 28 48 33 37 43 47 30 49 44 27 61 38 41 65 53 47 58 64 71 54 76 78 39 84 77 55 82 71 57 78 59 71 63 44 58 37 45 57 33 46 70 34 28 58 20 38 75 53 26 65 58 50 71 78 62 66 79 55 59 72 49 42 74 40 56 81 37 68 64 30 64 43 49 74 48 50 64 53 48 61 53 46 71 45 39 71 34 38 73 45 75 94 88 69 78 73 76 66 61 60 53 49 47 50 43 39 59 46 56 63 57 87 94 98 101 101 123 100 109 130 93 119 122 54 92 89 66 69 74 54 35 43 64 34 34 36 24 0 43 76 37 19 72 28 29 62 29 63 91 80 31 68 65 43 95 84 26 79 63 46 72 59 69 57 69 65 48 50 58 52 24 34 68 21 48 94 46 67 102 60 90 112 77 80 102 65 89 104 77 71 93 84 68 72 72 75 56 61 69 47 56 79 56 64 90 57 72 86 77 70 45 53 26 40 71 15 50 72 19 59 75 42 71 91 76 44 94 73 42 89 57 63 75 65 83 63 84 90 57 100 52 54 80 28 70 70 43 68 51 54 64 51 84 79 85 84 81 84 65 71 83 67 87 90 68 52 51 83 61 33 89 60 53 56 53 50 50 88 77 27 79 45 56 83 42 51 66 47 68 71 94 59 86 117 51 103 103 83 129 104 82 94 82 88 75 89 65 39 72 31 24 44 41 65 55 46 77 31 79 86 66 59 65 67 39 43 43 51 58 29 20 44 0 45 76 22 43 50 44 45 51 61 71 78 76 35 48 34 34 70 56 21 64 56 25 45 48 67 71 70 67 56 60 68 64 67 73 84 89 54 94 97 52 81 72 53 73 52 39 45 47 34 46 46 45 62 58 48 60 36 65 67 42 80 63 65 66 50 62 65 60 52 49 58 39 35 61 28 43 67 55 49 73 61 43 69 44 15 60 17 29 76 54 27 65 64 68 67 97 82 59 101 67 30 59 76 47 55 56 43 49 55 47 59 68 58 70 62 63 53 49 69 46 25 75 36 0 70 52 14 77 64 23 58 50 51 72 51 37 56 41 43 74 57 59 80 75 43 49 53 72 54 64 56 43 59 61 52 67 58 71 67 51 62 42 50 59 40 57 59 46 44 51 45 55 64 55 35 66 46 33 72 63 53 80 87 50 68 92 56 54 89 65 67 80 53 65 57 59 55 55 82 61 80 62 41 58 67 64 69 68 89 72 50 87 68 73 86 91 57 67 78 32 46 58 37 48 62 44 52 66 59 68 79 45 55 68 33 67 65 19 59 37 19 62 21 38 62 22 48 73 53 61 85 65 84 93 84 66 64 51 53 48 30 54 47 40 43 55 47 55 72 70 51 61 66 52 56 53 55 53 42 63 64 55 39 63 63 45 63 63 39 60 41 48 56 27 24 39 12 30 54 30 32 64 54 46 60 72 59 61 74 40 53 49 42 59 55 50 87 68 53 93 78 74 101 78 65 91 55 58 96 51 44 79 61 30 57 50 28 56 56 50 57 55 59 75 60 38 61 44 33 67 47 23 38 21 4 17 3 89 93 57 163 169 127 
65 43 54 94 72 71 116 111 95 127 146 140 176 192 204 188 192 207 161 171 159 123 153 115 108 153 111 138 178 163 169 186 184 153 161 160 129 136 132 123 128 135 157 146 164 202 198 221 223 217 243 216 215 232 192 187 179 143 156 140 97 117 96 80 83 78 76 53 51 57 46 30 50 87 47 53 124 92 155 153 162 192 143 160 185 131 133 140 94 93 99 79 68 123 106 108 196 124 152 194 173 200 190 211 226 175 205 215 151 187 199 131 134 157 97 76 107 62 47 76 67 43 53 101 98 93 150 163 155 216 208 194 210 246 212 188 235 207 166 184 172 107 143 131 74 86 78 66 38 41 30 42 42 26 60 60 37 58 55 12 46 44 37 41 56 56 28 55 51 49 58 28 63 37 22 47 19 13 36 22 54 48 34 79 63 34 54 61 3 39 80 16 31 53 28 31 36 44 54 43 61 29 31 42 5 37 30 0 48 36 0 53 45 48 67 61 39 61 36 42 67 47 18 34 35 29 35 37 61 50 71 45 38 44 50 65 58 27 42 61 32 41 58 35 54 48 31 60 44 24 62 27 33 42 33 34 38 54 27 37 48 29 47 39 39 47 36 32 38 24 57 43 46 65 42 58 58 46 58 43 59 45 44 66 57 53 66 68 43 55 53 27 70 56 2 60 32 0 55 33 17 50 53 35 45 50 46 60 56 59 86 65 53 60 54 38 38 28 62 53 36 56 42 27 65 66 57 59 71 63 41 53 51 41 67 44 39 66 47 25 61 47 32 63 46 38 74 52 48 83 54 55 89 53 65 83 73 75 87 89 76 72 85 76 65 69 39 42 39 19 36 32 29 49 52 47 66 76 98 104 118 104 110 110 93 109 110 73 91 81 47 46 40 22 21 23 19 19 19 37 50 42 41 63 56 45 79 59 39 68 59 29 41 33 44 45 38 46 53 31 28 45 27 44 69 41 56 72 47 62 77 48 67 78 57 47 60 46 46 55 48 37 69 44 52 85 56 92 99 93 129 125 125 231 232 222 242 255 237 236 255 216 252 255 228 191 186 166 76 78 65 43 48 29 73 83 68 62 86 48 65 76 58 37 62 54 56 66 67 63 76 78 69 92 96 55 81 94 37 53 78 51 64 92 68 67 85 81 70 75 71 58 54 79 72 52 70 68 42 62 61 27 65 73 46 50 76 43 56 86 62 55 95 70 49 74 66 51 62 68 44 56 64 47 57 70 61 59 84 66 54 80 66 44 79 54 56 65 65 86 67 51 75 53 75 80 74 68 70 71 67 63 65 70 77 71 60 60 58 42 36 48 39 29 42 69 70 63 80 90 67 68 86 60 64 89 61 35 62 29 41 63 28 38 72 34 26 51 34 37 50 54 45 49 48 65 66 59 65 57 60 57 59 59 62 66 66 40 63 57 52 84 74 46 70 60 41 67 50 37 85 37 26 73 31 36 76 53 49 60 65 44 48 63 49 57 55 38 63 43 50 55 47 53 57 47 50 54 53 44 62 50 78 94 61 212 217 199 255 247 255 255 241 255 255 246 255 175 173 183 75 76 66 15 26 6 28 49 30 54 90 68 45 89 68 41 75 64 16 34 24 19 47 36 50 60 65 62 63 69 67 53 54 63 41 39 57 58 38 25 69 48 22 62 63 48 67 88 44 54 78 43 59 71 25 61 45 19 66 44 50 68 56 44 58 47 40 59 43 41 58 36 42 64 39 40 72 62 53 63 66 46 56 59 72 65 71 66 64 61 50 60 48 47 51 48 57 51 37 65 65 55 54 84 72 20 73 59 40 72 62 37 61 59 35 58 52 45 78 71 14 49 41 56 66 71 77 55 64 64 46 58 75 53 90 39 42 61 43 56 76 45 66 83 32 66 53 34 69 53 56 70 49 69 85 24 102 112 38 139 154 101 132 145 113 135 145 166 90 97 127 27 42 61 20 48 45 12 64 1 49 86 47 47 83 25 55 67 17 60 43 81 55 19 157 75 28 193 66 14 251 55 25 197 54 29 134 26 9 111 33 46 38 6 54 0 34 98 0 34 101 0 43 98 0 61 128 0 50 113 0 62 121 0 70 118 0 50 81 0 65 68 0 68 33 0 153 0 62 224 0 46 232 0 45 226 0 78 232 0 92 238 0 61 213 0 0 217 0 0 
69 47 58 78 56 55 71 66 50 40 59 53 25 41 53 15 19 34 18 28 16 20 50 12 24 69 27 36 76 61 46 63 61 43 51 50 38 45 41 31 36 43 47 36 54 49 45 68 63 57 83 61 60 77 57 52 44 33 46 30 30 50 29 40 43 38 56 33 31 42 31 15 34 71 31 24 95 63 92 90 99 127 78 95 87 33 35 75 29 28 47 27 16 67 50 52 126 54 82 102 81 108 66 87 102 40 70 80 36 72 84 51 54 77 68 47 78 57 42 71 50 26 36 47 44 39 35 48 40 84 76 62 51 87 53 50 97 69 54 72 60 21 57 45 43 55 47 48 20 23 31 43 43 14 48 48 20 41 38 21 55 53 42 46 61 64 36 63 60 58 67 8 43 17 29 54 26 24 47 33 61 55 41 77 61 32 54 61 3 35 76 12 37 59 34 47 52 60 33 22 40 44 46 57 6 38 31 0 63 51 0 53 45 9 28 22 38 60 35 13 38 18 40 56 57 46 52 54 49 38 59 55 48 54 27 42 35 32 47 66 39 48 65 43 62 56 39 68 52 34 72 37 41 50 41 35 39 55 34 44 55 33 51 43 52 60 49 43 49 35 68 54 57 73 50 66 67 55 67 57 73 59 34 56 47 53 66 68 34 46 44 29 72 58 20 78 50 20 86 64 46 79 82 41 51 56 42 56 52 38 65 44 65 72 66 53 53 43 56 47 30 45 31 16 61 62 53 60 72 64 49 61 59 43 69 46 33 60 41 37 73 59 55 86 69 53 89 67 55 90 61 67 101 65 67 85 75 54 66 68 54 50 63 42 31 35 44 47 44 50 67 63 52 72 75 61 80 90 53 59 73 37 43 43 30 46 47 17 35 25 49 48 42 50 49 51 61 61 61 58 71 63 47 69 62 30 64 44 25 54 45 42 54 46 50 51 44 71 78 56 41 58 40 54 79 51 51 67 42 50 65 36 59 70 49 50 63 49 73 82 75 62 94 69 68 101 72 85 92 86 65 61 61 74 75 65 67 89 62 57 92 37 71 80 47 70 65 45 58 60 47 67 72 53 53 63 48 42 66 28 52 63 45 46 71 63 74 84 85 64 77 79 60 83 87 49 75 88 66 82 107 50 63 91 73 72 90 51 40 45 66 53 49 76 69 49 73 71 45 82 81 47 60 68 41 57 83 50 39 69 45 39 79 54 52 77 69 47 58 64 66 78 86 53 63 76 56 54 79 61 49 75 69 47 82 64 66 75 45 66 47 47 71 49 58 63 57 53 55 56 71 67 69 60 67 61 55 55 53 68 62 74 62 52 65 69 70 63 52 62 39 45 63 37 43 68 40 34 61 28 53 75 40 32 66 28 42 67 50 47 60 64 39 43 42 50 51 44 52 44 47 58 60 60 60 64 64 49 72 66 31 63 53 23 47 37 33 59 42 17 65 17 29 76 34 43 83 60 47 58 63 48 52 67 51 59 57 36 61 41 45 50 42 61 65 55 47 51 50 43 61 49 42 58 25 32 37 19 55 35 46 67 34 63 65 48 80 54 52 62 54 55 45 38 49 29 47 68 49 32 68 46 27 71 50 32 66 55 41 59 49 34 62 51 41 51 56 48 49 55 57 43 44 76 54 52 53 54 34 8 52 31 11 51 52 27 46 67 47 57 81 63 79 91 35 71 55 23 70 48 31 49 37 31 45 34 50 69 53 47 64 42 44 66 41 30 62 52 38 48 51 52 62 65 62 55 61 63 61 58 62 72 60 53 57 54 63 57 43 48 48 38 24 54 42 20 73 59 34 66 56 40 64 62 36 59 53 26 59 52 34 69 61 53 63 68 80 58 67 61 43 55 61 39 76 58 61 80 42 55 75 32 53 70 26 60 47 29 64 48 56 70 49 63 79 18 53 63 0 53 68 15 49 62 30 48 58 79 58 65 95 46 61 80 31 59 56 11 63 0 18 55 16 41 77 19 60 72 22 53 36 74 49 13 151 48 1 166 63 11 248 72 42 214 62 37 142 59 42 144 37 50 42 26 74 0 42 106 0 34 101 0 44 99 0 12 79 0 14 77 0 38 97 0 43 91 0 67 98 0 69 72 0 55 20 0 155 0 64 232 0 54 232 0 45 228 0 80 229 0 89 255 0 93 255 83 85 255 169 93 
45 61 49 37 62 42 52 61 42 60 46 33 96 63 80 97 67 87 69 67 66 48 70 59 34 71 65 45 73 72 40 72 75 44 90 58 38 79 33 65 96 69 63 87 83 42 62 73 48 59 57 27 34 15 49 41 40 52 50 75 46 58 86 38 42 58 52 54 31 25 43 0 38 65 34 31 76 57 12 52 30 31 63 30 8 45 3 17 52 23 24 45 42 47 44 59 84 27 66 98 19 63 116 21 63 133 15 61 84 35 66 51 29 53 44 33 37 14 35 16 0 75 19 0 100 46 0 109 62 0 93 46 0 61 23 4 20 6 22 20 11 45 30 37 61 38 54 31 19 21 17 0 2 26 21 31 33 24 41 111 103 128 67 99 108 41 73 72 3 27 15 0 16 4 63 37 54 70 53 71 31 89 60 10 63 23 26 52 17 44 48 45 88 47 65 72 48 62 11 63 39 18 74 47 33 67 47 17 44 37 22 44 37 17 42 32 0 58 25 31 76 47 3 10 16 24 19 48 29 30 36 36 55 37 83 133 96 34 92 63 53 78 60 20 35 26 28 43 34 73 94 93 52 64 74 65 59 73 72 40 47 50 30 25 43 52 35 49 76 45 31 50 32 50 59 66 64 78 90 27 61 77 69 80 120 70 67 96 57 57 71 53 63 66 44 66 42 52 73 52 53 61 36 59 72 40 43 87 50 28 79 52 61 73 63 62 50 60 75 51 71 83 71 83 59 74 67 34 67 50 54 54 52 49 47 56 36 51 56 43 73 61 42 67 41 45 64 46 77 78 58 57 63 37 63 80 42 56 74 46 70 84 71 51 61 72 56 61 81 48 49 83 46 44 80 70 67 96 45 62 68 49 69 58 23 50 31 31 61 39 48 58 43 74 68 68 77 70 74 68 65 62 43 59 47 9 56 28 19 59 37 33 65 40 52 87 43 61 90 60 55 78 61 67 83 60 62 66 40 91 99 70 64 67 46 72 74 61 52 68 45 41 77 55 55 84 75 77 76 78 87 68 75 60 60 56 46 83 77 30 75 68 62 86 72 69 66 61 77 78 84 52 59 66 62 71 66 61 76 49 68 64 39 80 75 55 73 71 45 72 74 39 61 77 42 40 69 35 45 72 53 39 61 52 68 75 73 80 73 77 74 78 78 67 83 69 62 58 61 62 42 53 77 52 69 64 59 69 67 91 91 40 84 83 40 67 74 54 81 60 43 64 45 60 77 55 45 61 26 44 64 14 61 73 15 62 79 49 58 60 69 55 56 62 42 57 48 29 55 56 61 81 102 63 61 97 68 63 81 59 61 48 50 66 54 45 68 61 51 69 61 54 74 53 48 58 46 60 65 57 56 46 59 66 50 75 72 45 76 57 34 51 44 40 50 16 34 34 42 66 66 39 62 55 35 75 50 18 72 36 24 68 47 24 50 33 38 47 30 52 62 23 44 55 24 72 73 64 38 32 30 31 48 28 31 58 35 40 67 48 51 79 79 30 62 61 37 68 51 42 65 31 63 69 43 47 61 24 39 48 29 21 41 30 28 34 36 43 45 46 46 44 54 60 55 63 67 57 70 65 54 58 61 53 54 52 48 59 46 44 51 44 48 38 34 53 38 20 35 26 27 43 54 37 52 67 34 50 51 35 64 55 18 45 38 16 40 30 26 63 60 28 62 60 50 66 54 61 70 51 45 40 30 28 44 29 21 47 50 48 55 62 78 62 61 83 62 63 90 76 81 65 73 71 54 73 67 48 79 59 34 77 46 31 70 39 27 75 37 10 56 24 36 62 49 48 61 57 44 60 46 41 63 28 31 55 31 34 51 47 47 48 56 58 59 52 50 49 32 64 60 44 53 51 58 49 56 60 40 50 53 34 48 44 35 59 39 33 65 40 55 78 64 63 62 56 63 53 52 56 55 39 42 46 33 58 60 69 50 62 70 45 74 65 32 61 43 32 41 22 32 39 37 32 47 40 46 71 51 43 66 49 56 58 59 47 45 52 37 55 55 37 65 56 54 65 60 47 57 45 39 54 37 41 61 40 27 45 33 60 56 67 73 53 77 65 54 85 55 58 89 39 44 78 39 47 64 37 60 56 29 64 56 32 73 71 30 70 71 39 74 68 35 56 27 31 40 9 43 43 19 53 54 24 57 59 32 48 57 12 
45 61 49 32 57 37 40 49 30 76 62 49 78 45 62 78 48 68 63 61 60 27 49 38 15 52 46 8 36 35 5 37 40 3 49 17 23 64 18 41 72 45 40 64 60 35 55 66 36 47 45 26 33 14 40 32 31 44 42 67 49 61 89 57 61 77 54 56 33 34 52 4 26 53 22 20 65 46 26 66 44 44 76 43 30 67 25 31 66 37 32 53 50 48 45 60 90 33 72 108 29 73 101 6 48 131 13 59 86 37 68 75 53 77 62 51 55 28 49 30 0 82 26 0 107 53 0 112 65 0 91 44 3 67 29 33 49 35 60 58 49 58 43 50 49 26 42 55 43 45 72 55 57 62 57 67 54 45 62 46 38 63 6 38 47 18 50 49 26 50 38 35 59 47 73 47 64 56 39 57 20 78 49 10 63 23 38 64 29 57 61 58 69 28 46 63 39 53 15 67 43 0 56 29 22 56 36 21 48 41 25 47 40 29 54 44 7 69 36 16 61 32 39 46 52 37 32 61 47 48 54 48 67 49 40 90 53 36 94 65 42 67 49 52 67 58 20 35 26 35 56 55 54 66 76 67 61 75 93 61 68 64 44 39 38 47 30 50 77 46 64 83 65 61 70 77 60 74 86 36 70 86 59 70 110 61 58 87 25 25 39 47 57 60 30 52 28 70 91 70 92 100 75 58 71 39 33 77 40 8 59 32 45 57 47 76 64 74 84 60 80 67 55 67 50 65 58 38 71 54 69 69 67 67 65 74 57 72 77 46 76 64 41 66 40 44 63 45 54 55 35 51 57 31 62 79 41 52 70 42 52 66 53 64 74 85 60 65 85 54 55 89 61 59 95 48 45 74 43 60 66 52 72 61 37 64 45 42 72 50 39 49 34 63 57 57 69 62 66 51 48 45 55 71 59 23 70 42 37 77 55 60 92 67 41 76 32 63 92 62 53 76 59 58 74 51 68 72 46 63 71 42 86 89 68 81 83 70 49 65 42 42 78 56 37 66 57 60 59 61 82 63 70 53 53 49 50 87 81 30 75 68 52 76 62 67 64 59 52 53 59 72 79 86 51 60 55 67 82 55 70 66 41 89 84 64 91 89 63 75 77 42 70 86 51 43 72 38 59 86 67 50 72 63 64 71 69 68 61 65 62 66 66 55 71 57 66 62 65 68 48 59 72 47 64 59 54 64 49 73 73 27 71 70 48 75 82 55 82 61 58 79 60 77 94 72 60 76 41 51 71 21 54 66 8 46 63 33 64 66 75 79 80 86 59 74 65 59 85 86 39 59 80 43 41 77 63 58 76 57 59 46 69 85 73 45 68 61 52 70 62 67 87 66 76 86 74 104 109 101 98 88 101 75 59 84 87 60 91 47 24 41 35 31 41 28 46 46 26 50 50 68 91 84 40 80 55 20 74 38 5 49 28 17 43 26 34 43 26 45 55 16 50 61 30 51 52 43 67 61 59 52 69 49 31 58 35 47 74 55 16 44 44 20 52 51 36 67 50 28 51 17 72 78 52 42 56 19 33 42 23 34 54 43 35 41 43 59 61 62 57 55 65 61 56 64 55 45 58 56 45 49 48 40 41 40 36 47 46 44 51 43 47 37 24 43 28 40 55 46 25 41 52 25 40 55 32 48 49 20 49 40 43 70 63 45 69 59 35 72 69 24 58 56 43 59 47 38 47 28 44 39 29 41 57 42 32 58 61 70 77 84 99 83 82 115 94 95 99 85 90 77 85 83 58 77 71 39 70 50 36 79 48 35 74 43 10 58 20 19 65 33 18 44 31 22 35 31 40 56 42 46 68 33 58 82 58 48 65 61 51 52 60 46 47 40 36 35 18 55 51 35 48 46 53 44 51 55 55 65 68 46 60 56 40 64 44 35 67 42 41 64 50 54 53 47 75 65 64 75 74 58 57 61 48 57 59 68 44 56 64 28 57 48 29 58 40 47 56 37 46 53 51 60 75 68 41 66 46 37 60 43 41 43 44 43 41 48 42 60 60 33 61 52 49 60 55 55 65 53 53 68 51 46 66 45 42 60 48 55 51 62 63 43 67 62 51 82 46 49 80 46 51 85 40 48 65 35 58 54 30 65 57 18 59 57 28 68 69 19 54 48 28 49 20 51 60 29 76 76 52 99 100 70 124 126 99 157 166 121 
53 31 55 57 43 54 47 39 51 49 48 66 45 53 54 53 60 56 56 76 63 51 81 57 39 60 43 62 60 51 59 41 39 64 55 48 51 73 62 25 75 54 42 75 68 57 65 64 63 61 70 59 79 81 41 65 65 34 51 55 73 61 71 67 43 53 52 50 59 17 59 57 5 56 29 21 63 27 55 75 38 65 66 49 50 72 65 53 84 82 40 48 47 59 52 55 50 37 53 51 52 69 45 60 65 36 51 42 57 51 41 53 55 38 53 58 39 47 69 62 46 64 56 35 45 48 53 51 50 45 41 41 38 54 39 24 73 58 14 61 43 28 40 32 33 34 25 20 40 27 18 60 36 19 64 39 38 43 33 59 34 43 57 41 56 46 56 70 60 64 77 38 50 58 51 58 39 48 55 36 45 58 40 22 64 54 11 66 59 2 59 56 17 57 45 29 49 52 20 33 38 32 47 54 37 46 41 57 48 39 50 46 23 23 39 6 3 45 9 9 58 43 13 45 56 26 50 66 26 43 47 33 50 46 48 59 56 50 45 63 64 62 71 24 45 24 42 61 30 36 61 43 37 50 52 63 54 87 55 57 70 56 63 67 70 70 84 63 62 79 51 50 68 69 68 51 41 64 0 67 86 32 52 64 38 52 65 61 33 47 46 30 60 36 40 71 43 34 59 68 49 79 103 17 65 89 34 74 87 48 82 71 63 71 62 73 63 84 62 48 85 72 56 79 103 87 75 170 158 120 191 183 148 179 175 159 111 121 106 8 66 30 0 53 18 29 86 79 63 80 101 76 77 93 58 65 71 25 50 42 61 70 53 72 58 46 70 60 37 63 64 34 43 53 32 58 73 80 41 54 72 33 48 57 54 63 58 57 63 51 42 55 59 44 63 71 26 51 44 26 65 32 55 88 59 32 61 52 68 88 103 42 75 80 41 80 71 44 79 59 48 59 38 71 68 45 77 74 41 61 73 37 65 76 46 75 76 56 73 72 64 77 71 85 73 61 95 65 53 87 71 53 77 67 50 70 81 52 68 76 43 56 61 55 51 50 67 39 45 71 58 72 85 79 83 80 77 78 86 75 68 96 70 49 95 47 58 85 52 60 72 46 61 62 55 59 79 64 68 94 71 54 92 65 52 66 65 56 53 68 36 42 52 52 92 80 27 87 65 42 96 72 51 75 61 41 51 38 62 71 62 36 55 39 68 84 72 71 76 57 73 65 51 92 70 81 73 46 67 85 72 78 67 60 63 72 67 59 70 57 75 47 45 78 58 72 84 24 58 45 55 68 62 48 52 51 57 55 62 58 80 53 50 79 39 68 90 55 66 72 56 78 88 63 93 114 85 75 106 79 105 119 116 116 100 112 105 79 96 75 70 76 22 32 35 16 39 43 31 51 40 59 80 51 53 78 50 41 86 44 24 74 37 17 63 28 38 57 51 46 46 58 67 45 79 76 45 75 53 32 53 52 50 37 61 62 45 54 63 32 49 66 34 18 58 35 4 60 33 6 64 27 31 61 49 41 62 61 44 67 71 41 58 62 38 50 24 32 44 6 64 56 39 45 41 28 63 56 62 66 54 66 35 41 43 42 58 43 26 38 30 29 46 44 50 50 60 58 42 56 69 47 55 43 31 31 35 56 61 15 66 63 24 78 64 33 79 65 22 64 40 38 83 41 0 25 0 13 43 5 49 36 16 89 44 29 144 115 98 77 94 76 59 89 91 55 88 81 98 112 101 115 127 115 76 117 112 22 82 84 33 69 69 11 35 23 59 69 56 64 65 56 29 40 38 47 77 55 16 42 9 39 59 0 58 62 0 57 74 7 40 63 21 32 57 29 43 51 39 38 40 27 45 59 38 39 57 55 46 53 60 42 46 43 52 52 38 72 69 48 58 73 58 56 86 86 21 61 64 37 89 89 39 79 83 25 60 68 45 65 86 49 45 58 76 42 54 76 49 52 47 31 30 37 40 45 41 53 61 34 45 50 44 73 81 20 66 68 15 55 68 49 63 76 48 52 39 55 68 37 47 68 39 41 49 22 65 51 26 67 50 10 73 60 12 66 67 39 59 53 67 48 44 63 38 51 37 20 40 25 34 54 59 18 57 68 27 63 65 42 52 27 51 51 1 36 53 21 13 45 22 39 78 59 25 44 36 31 37 37 
60 38 62 52 38 49 47 39 51 46 45 63 52 60 61 57 64 60 39 59 46 36 66 42 40 61 44 55 53 44 78 60 58 54 45 38 23 45 34 15 65 44 17 50 43 35 43 42 39 37 46 30 50 52 36 60 60 55 72 76 63 51 61 57 33 43 45 43 52 12 54 52 21 72 45 29 71 35 40 60 23 54 55 38 28 50 43 35 66 64 63 71 70 76 69 72 89 76 92 78 79 96 43 58 63 49 64 55 31 25 15 34 36 19 45 50 31 40 62 55 59 77 69 56 66 69 57 55 54 56 52 52 44 60 45 28 77 62 16 63 45 36 48 40 25 26 17 19 39 26 19 61 37 13 58 33 44 49 39 71 46 55 67 51 66 57 67 81 64 68 81 24 36 44 52 59 40 72 79 60 133 146 128 193 235 225 191 246 239 154 211 208 73 113 101 13 33 36 0 3 8 14 29 36 45 54 49 63 54 45 57 53 30 15 31 0 0 26 0 0 49 34 2 34 45 45 69 85 29 46 50 17 34 30 37 48 45 38 33 51 63 61 70 46 67 46 34 53 22 21 46 28 44 57 59 62 53 86 56 58 71 47 54 58 49 49 63 38 37 54 56 55 73 63 62 45 49 72 4 54 73 19 39 51 25 42 55 51 49 63 62 41 71 47 50 81 53 42 67 76 28 58 82 13 61 85 13 53 66 0 21 10 23 31 22 119 109 130 233 219 255 255 247 255 210 194 182 67 55 17 9 1 0 4 0 0 0 4 0 59 117 81 36 122 87 46 103 96 55 72 93 12 13 29 133 140 146 137 162 154 166 175 158 167 153 141 28 18 0 49 50 20 47 57 36 98 113 120 163 176 194 89 104 113 38 47 42 31 37 25 43 56 60 30 49 57 51 76 69 40 79 46 66 99 70 113 142 133 115 135 150 104 137 142 71 110 101 21 56 36 44 55 34 57 54 31 100 97 64 104 116 80 46 57 27 62 63 43 60 59 51 41 35 49 85 73 107 77 65 99 49 31 55 78 61 81 68 39 55 84 51 64 105 99 95 65 82 54 63 89 76 65 78 72 63 60 57 78 86 75 58 86 60 36 82 34 52 79 46 50 62 36 74 75 68 72 92 77 61 87 64 53 91 64 51 65 64 47 44 59 57 63 73 31 71 59 37 97 75 40 94 70 45 69 55 60 70 57 43 52 43 61 80 64 69 85 73 69 74 55 78 70 56 64 42 53 66 39 60 81 68 74 81 74 77 88 83 75 66 53 71 39 37 70 36 50 62 28 62 49 70 83 77 82 86 85 75 73 80 55 77 50 41 70 30 43 65 30 53 59 43 68 78 53 61 82 53 49 80 53 82 96 93 83 67 79 87 61 78 52 47 53 37 47 50 29 52 56 56 76 65 55 76 47 47 72 44 25 70 28 24 74 37 38 84 49 57 76 70 73 73 85 61 39 73 63 32 62 59 38 59 47 45 32 69 70 53 40 49 18 41 58 26 30 70 47 0 51 24 25 83 46 32 62 50 33 54 53 30 53 57 40 57 61 35 47 21 63 75 37 88 80 63 55 51 38 111 104 110 108 96 108 120 126 128 103 119 104 54 66 58 6 23 21 18 18 28 68 52 66 77 55 63 82 70 70 44 65 70 17 68 65 22 76 62 32 78 64 27 69 45 18 63 21 28 71 40 37 67 29 60 47 27 105 60 45 95 66 49 66 83 65 75 105 107 78 111 104 124 138 127 126 138 126 79 120 115 26 86 88 5 41 41 19 43 31 39 49 36 69 70 61 54 65 63 31 61 39 30 56 23 21 41 0 45 49 0 59 76 9 40 63 21 41 66 38 44 52 40 35 37 24 40 54 33 31 49 47 49 56 63 60 64 61 54 54 40 62 59 38 39 54 39 30 60 60 40 80 83 20 72 72 38 78 82 26 61 69 26 46 67 43 39 52 59 25 37 60 33 36 53 37 36 47 50 55 34 46 54 43 54 59 42 71 79 24 70 72 31 71 84 31 45 58 41 45 32 58 71 40 58 79 50 57 65 38 64 50 25 66 49 9 70 57 9 67 68 40 66 60 74 57 53 72 48 61 47 39 59 44 43 63 68 85 124 135 229 255 255 250 255 235 255 255 210 245 255 230 77 109 86 23 62 43 62 81 73 137 143 143 
61 32 64 58 31 50 49 39 51 61 43 53 64 42 33 56 67 39 39 66 35 32 67 41 33 79 67 33 58 66 51 50 68 44 51 71 35 45 50 60 63 70 43 60 58 56 55 59 53 63 51 36 67 37 28 72 33 35 57 46 28 48 35 47 51 48 43 51 49 37 55 53 36 69 56 38 63 56 46 60 59 56 54 61 44 52 40 55 65 42 51 63 37 57 48 41 64 47 49 40 42 29 34 65 37 34 63 45 47 60 56 54 49 68 31 44 64 33 52 70 29 55 40 44 65 36 50 74 50 44 78 58 36 76 51 40 50 38 43 52 33 37 42 23 57 57 67 42 46 71 24 42 60 19 47 60 20 49 40 54 73 67 46 71 89 49 72 104 19 38 58 17 43 43 0 65 28 3 83 42 24 57 24 41 35 9 45 36 19 37 26 28 64 43 62 99 18 47 95 44 39 26 55 39 0 57 40 2 47 30 35 31 16 55 46 27 33 54 25 37 49 49 28 50 52 0 58 44 42 43 49 34 42 40 10 64 42 15 61 49 5 58 50 41 59 59 89 11 36 98 43 53 32 70 61 35 70 62 47 86 67 59 60 53 92 32 54 80 56 66 29 69 54 30 75 58 26 58 48 43 44 34 73 54 43 57 83 48 17 94 40 10 69 35 37 41 28 40 24 21 73 66 72 50 63 49 52 81 65 53 38 67 60 26 72 49 59 72 29 77 67 49 92 94 39 67 101 64 73 120 67 64 93 48 69 64 28 72 61 21 57 43 65 61 48 83 68 49 77 93 68 42 84 48 39 79 56 58 60 61 71 64 70 48 75 54 26 83 44 32 62 40 42 51 62 60 65 73 55 45 44 86 68 52 67 61 57 60 66 70 53 62 73 35 41 41 42 46 36 53 62 55 50 77 74 56 65 58 51 59 48 56 57 39 56 57 37 82 88 66 61 76 57 61 77 55 59 68 61 51 56 50 51 75 71 32 76 71 46 82 84 59 83 83 56 81 61 69 94 66 51 90 71 58 75 71 81 77 77 65 65 53 68 68 54 68 74 62 58 77 87 60 66 78 75 74 68 65 74 33 62 74 38 62 85 71 55 86 82 61 75 64 62 64 64 59 66 70 39 63 77 45 72 77 59 85 70 65 69 59 83 82 86 71 69 68 78 75 68 77 72 65 72 71 63 77 76 68 54 61 55 66 68 68 65 74 69 74 81 49 68 69 39 68 60 46 52 64 52 59 88 56 53 85 52 57 73 50 59 78 63 62 68 54 65 63 60 73 61 73 68 34 55 90 61 67 82 80 69 62 67 59 57 73 84 41 78 72 38 71 58 62 82 85 34 59 77 39 53 75 47 78 76 27 62 44 44 68 58 41 48 42 48 63 48 38 59 38 36 72 48 32 62 48 45 68 62 55 73 65 58 80 82 64 84 87 55 68 73 70 65 73 59 48 52 64 49 58 63 47 61 68 60 46 65 75 34 50 67 27 47 61 26 46 51 32 45 49 46 40 64 50 24 73 42 19 56 34 35 49 46 46 44 51 54 48 46 55 55 45 36 59 45 38 55 61 40 53 57 37 59 48 30 65 49 21 63 55 41 72 55 51 61 23 53 60 14 79 72 52 103 87 84 232 216 213 255 255 240 247 255 239 240 255 240 143 147 146 47 52 60 0 9 23 52 82 84 61 92 88 49 79 83 55 76 91 53 68 73 59 76 58 78 105 84 102 111 104 113 105 108 152 129 143 114 108 124 50 71 88 36 68 58 46 56 44 38 41 34 52 65 61 28 71 40 23 62 7 54 91 7 41 61 12 50 63 32 51 62 34 46 56 15 51 58 12 44 70 18 49 83 45 40 60 39 37 54 34 23 48 22 19 48 18 45 60 51 42 39 54 45 43 66 58 54 75 32 40 55 64 62 71 4 37 24 0 29 0 0 51 14 16 38 29 73 79 81 98 96 105 82 80 67 60 60 56 35 30 40 32 18 40 64 44 55 80 63 67 55 64 59 47 77 81 37 71 71 46 55 62 35 58 60 20 52 45 16 51 43 46 65 60 62 79 83 73 78 88 75 84 69 71 67 52 49 46 49 52 56 69 54 40 41 64 53 37 41 58 38 41 63 75 32 48 75 41 37 40 51 49 22 25 55 17 23 78 48 25 51 54 
66 37 69 58 31 50 44 34 46 67 49 59 77 55 46 67 78 50 30 57 26 22 57 31 1 47 35 38 63 71 64 63 81 58 65 85 62 72 77 64 67 74 46 63 61 58 57 61 43 53 41 18 49 19 36 80 41 41 63 52 51 71 58 60 64 61 38 46 44 36 54 52 25 58 45 22 47 40 40 54 53 51 49 56 55 63 51 50 60 37 53 65 39 55 46 39 59 42 44 52 54 41 25 56 28 38 67 49 45 58 54 49 44 63 43 56 76 34 53 71 32 58 43 43 64 35 44 68 44 39 73 53 34 74 49 33 43 31 44 53 34 43 48 29 63 63 73 44 48 73 30 48 66 22 50 63 29 58 49 41 60 54 19 44 62 31 54 86 16 35 55 37 63 63 0 81 44 0 69 28 22 55 22 39 33 7 40 31 14 64 53 55 63 42 61 106 25 54 69 18 13 12 41 25 6 69 52 12 57 40 50 46 31 33 24 5 17 38 9 27 39 39 34 56 58 0 59 45 39 40 46 40 48 46 2 56 34 20 66 54 0 48 40 29 47 47 93 15 40 96 41 51 35 73 64 35 70 62 33 72 53 57 58 51 95 35 57 67 43 53 29 69 54 6 51 34 38 70 60 49 50 40 85 66 55 44 70 35 2 79 25 7 66 32 33 37 24 64 48 45 57 50 56 53 66 52 39 68 52 61 46 75 72 38 84 59 69 82 25 73 63 21 64 66 38 66 100 31 40 87 69 66 95 52 73 68 23 67 56 42 78 64 70 66 53 84 69 50 61 77 52 57 99 63 34 74 51 55 57 58 66 59 65 38 65 44 33 90 51 53 83 61 50 59 70 52 57 65 66 56 55 61 43 27 61 55 51 47 53 57 40 49 60 52 58 58 54 58 48 48 57 50 35 62 59 40 49 42 46 54 43 61 62 44 64 65 45 66 72 50 56 71 52 54 70 48 47 56 49 59 64 58 58 82 78 49 93 88 45 81 83 47 71 71 46 71 51 58 83 55 49 88 69 39 56 52 63 59 59 63 63 51 70 70 56 88 94 82 59 78 88 62 68 80 77 76 70 63 72 31 64 76 40 55 78 64 33 64 60 49 63 52 64 66 66 63 70 74 57 81 95 55 82 87 72 98 83 81 85 75 79 78 82 70 68 67 73 70 63 77 72 65 75 74 66 84 83 75 54 61 55 96 98 98 72 81 76 85 92 60 71 72 42 55 47 33 57 69 57 38 67 35 45 77 44 61 77 54 53 72 57 72 78 64 77 75 72 71 59 71 81 47 68 79 50 56 50 48 37 73 78 70 56 72 83 61 98 92 50 83 70 40 60 63 38 63 81 34 48 70 33 64 62 23 58 40 39 63 53 52 59 53 51 66 51 49 70 49 21 57 33 39 69 55 44 67 61 42 60 52 43 65 67 42 62 65 53 66 71 81 76 84 84 73 77 73 58 67 70 54 68 50 42 28 55 65 24 51 68 28 51 65 30 61 66 47 44 48 45 27 51 37 19 68 37 20 57 35 50 64 61 49 47 54 57 51 49 60 60 50 29 52 38 41 58 64 33 46 50 36 58 47 38 73 57 27 69 61 49 80 63 53 63 25 65 72 26 68 61 41 60 44 41 61 45 42 44 45 28 47 61 39 42 66 42 70 74 73 60 65 73 57 75 89 40 70 72 43 74 70 33 63 67 49 70 85 52 67 72 54 71 53 54 81 60 65 74 67 112 104 107 116 93 107 104 98 114 69 90 107 42 74 64 41 51 39 38 41 34 45 58 54 29 72 41 48 87 32 44 81 0 47 67 18 61 74 43 52 63 35 49 59 18 34 41 0 39 65 13 42 76 38 46 66 45 38 55 35 14 39 13 17 46 16 37 52 43 61 58 73 63 61 84 57 53 74 41 49 64 43 41 50 18 51 38 0 59 30 0 60 23 29 51 42 29 35 37 49 47 56 49 47 34 59 59 55 49 44 54 57 43 65 56 36 47 58 41 45 53 62 57 47 77 81 49 83 83 50 59 66 46 69 71 26 58 51 51 86 78 66 85 80 55 72 76 53 58 68 47 56 41 63 59 44 70 67 70 70 74 87 80 66 67 67 56 40 62 79 59 40 62 74 35 51 78 38 34 37 48 46 19 26 56 18 36 91 61 96 122 125 
38 61 155 14 51 107 59 58 86 78 51 44 73 47 2 65 61 72 30 45 86 53 42 73 68 42 65 48 50 37 28 73 30 33 62 72 56 68 60 60 77 23 47 82 38 38 83 38 21 57 43 29 42 88 23 39 64 44 66 57 42 60 48 53 58 48 50 48 47 38 44 48 47 63 38 44 63 11 53 65 31 32 58 35 23 59 47 36 55 73 55 62 69 62 61 27 62 61 45 43 48 68 5 39 55 23 61 62 35 44 39 58 59 49 38 57 85 7 48 80 35 66 72 47 57 36 74 65 46 50 64 43 14 50 26 39 60 41 25 41 26 33 54 35 22 58 60 23 52 78 40 49 70 39 48 41 25 48 42 42 62 64 47 35 59 54 40 41 48 32 7 31 37 15 22 45 38 26 44 34 48 36 34 48 48 44 37 71 51 26 66 44 27 57 37 44 45 35 36 22 43 27 30 49 12 35 29 12 41 25 52 48 67 44 39 65 31 61 75 1 63 56 0 65 24 1 64 8 9 48 13 19 45 12 26 58 35 24 43 35 38 48 23 58 61 28 51 37 40 68 47 68 38 38 60 25 54 48 34 70 44 29 63 43 47 51 66 42 42 66 56 56 70 49 48 52 69 57 57 58 46 36 48 39 46 34 49 56 16 64 39 6 72 22 28 88 50 12 64 53 13 59 60 16 57 35 27 53 36 54 54 66 88 45 77 103 46 87 84 50 70 58 45 59 38 28 41 63 52 46 61 60 30 57 89 66 41 91 66 37 83 61 70 107 88 216 244 235 245 255 255 247 255 255 226 237 242 106 125 119 39 51 43 17 7 2 79 53 53 70 65 71 46 78 53 51 72 51 51 47 47 53 42 46 65 57 58 57 59 68 34 38 53 48 51 74 30 47 42 13 49 13 30 60 38 23 51 50 37 72 62 35 74 41 57 71 24 93 70 68 69 48 65 51 66 71 29 68 51 39 70 51 50 67 63 51 60 79 50 67 89 69 75 103 55 68 86 53 70 76 62 60 67 61 62 68 64 87 73 50 86 64 59 76 46 77 55 54 86 64 75 46 76 64 46 83 43 55 72 42 72 74 57 57 76 68 35 76 54 38 72 49 59 71 59 87 95 94 84 90 90 110 106 116 96 99 122 76 86 100 80 81 71 70 53 31 83 72 56 72 84 82 72 106 85 58 87 47 50 73 17 51 72 45 41 65 51 64 78 74 71 65 65 68 62 58 73 83 62 70 68 67 70 50 61 79 59 72 53 37 49 72 75 68 49 68 60 51 63 73 52 69 64 41 74 67 46 78 55 42 68 35 61 80 46 72 81 64 84 82 83 74 72 81 31 51 40 20 67 45 9 52 54 32 58 67 49 79 55 27 62 16 44 77 20 50 62 36 56 47 40 74 62 70 66 62 81 53 38 65 73 54 70 59 41 51 84 46 59 86 54 43 53 64 10 39 82 14 27 72 29 33 67 54 41 72 68 26 67 62 24 64 67 41 49 82 49 45 81 54 56 59 43 61 37 36 66 28 31 80 29 17 82 38 38 93 63 69 99 85 60 73 57 38 55 51 40 43 40 32 13 47 68 45 85 76 70 70 60 68 31 78 88 50 99 116 96 240 255 255 239 255 251 245 255 240 243 255 244 29 52 46 7 27 32 59 60 94 95 88 146 60 70 137 22 41 111 34 44 81 28 39 55 57 72 77 63 80 62 57 78 11 64 83 0 89 106 0 76 96 0 74 74 52 46 41 70 6 20 33 12 30 32 27 38 33 110 114 103 86 84 91 82 89 43 55 55 0 16 20 0 65 71 31 44 68 20 36 64 27 71 76 58 52 51 81 36 67 84 45 80 34 18 48 11 30 48 40 46 55 74 16 45 99 6 46 85 33 56 40 62 66 40 70 76 80 69 71 106 39 34 86 20 15 31 0 4 0 0 0 14 30 15 96 0 0 99 55 52 169 143 159 230 156 149 255 159 145 255 0 0 158 0 0 113 76 87 131 79 99 84 117 137 140 131 151 156 51 78 71 107 144 123 71 120 102 28 46 70 89 70 114 56 20 56 124 99 90 166 165 133 181 168 184 196 186 183 126 132 110 143 160 140 103 120 90 62 72 95 41 43 113 28 24 35 69 67 40 80 80 66 52 65 51 33 40 70 29 34 78 
31 54 148 27 64 120 57 56 84 73 46 39 84 58 13 57 53 64 31 46 87 77 66 97 47 21 44 68 70 57 26 71 28 16 45 55 59 71 63 46 63 9 46 81 37 45 90 45 41 77 63 37 50 96 33 49 74 23 45 36 50 68 56 48 53 43 53 51 50 46 52 56 32 48 23 58 77 25 39 51 17 25 51 28 13 49 37 18 37 55 60 67 74 72 71 37 68 67 51 55 60 80 9 43 59 2 40 41 31 40 35 47 48 38 35 54 82 28 69 101 21 52 58 54 64 43 61 52 33 38 52 31 28 64 40 27 48 29 39 55 40 25 46 27 7 43 45 10 39 65 36 45 66 44 53 46 31 54 48 33 53 55 42 30 54 48 34 35 58 42 17 43 49 27 17 40 33 33 51 41 46 34 32 43 43 39 13 47 27 1 41 19 5 35 15 25 26 16 51 37 58 38 41 60 32 55 49 31 60 44 50 46 65 46 41 67 31 61 75 1 63 56 0 59 18 0 55 0 6 45 10 29 55 22 24 56 33 34 53 45 38 48 23 38 41 8 45 31 34 48 27 48 35 35 57 40 69 63 43 79 53 21 55 35 50 54 69 30 30 54 57 57 71 55 54 58 66 54 54 64 52 42 53 44 51 33 48 55 0 45 20 2 68 18 0 55 17 27 79 68 30 76 77 1 42 20 0 19 2 24 24 36 62 19 51 150 93 134 111 77 97 70 57 71 45 35 48 63 52 46 81 80 50 56 88 65 19 69 44 6 52 30 25 62 43 30 58 49 60 74 73 41 50 57 49 60 65 60 79 73 64 76 68 63 53 48 78 52 52 48 43 49 27 59 34 28 49 28 45 41 41 52 41 45 58 50 51 62 64 73 29 33 48 51 54 77 26 43 38 30 66 30 35 65 43 9 37 36 13 48 38 14 53 20 51 65 18 80 57 55 77 56 73 54 69 74 26 65 48 43 74 55 56 73 69 56 65 84 60 77 99 42 48 76 41 54 72 51 68 74 58 56 63 66 67 73 49 72 58 50 86 64 74 91 61 78 56 55 74 52 63 41 71 59 43 80 40 70 87 57 62 64 47 56 75 67 36 77 55 49 83 60 66 78 66 87 95 94 94 100 100 123 119 129 111 114 137 101 111 125 78 79 69 82 65 43 68 57 41 53 65 63 53 87 66 66 95 55 61 84 28 64 85 58 56 80 66 47 61 57 71 65 65 50 44 40 51 61 40 76 74 73 82 62 73 92 72 85 81 65 77 60 63 56 59 78 70 62 74 84 50 67 62 38 71 64 54 86 63 49 75 42 65 84 50 50 59 42 53 51 52 40 38 47 54 74 63 35 82 60 35 78 80 52 78 87 22 52 28 30 65 19 40 73 16 40 52 26 61 52 45 53 41 49 48 44 63 49 34 61 74 55 71 75 57 67 95 57 70 93 61 50 43 54 0 31 74 6 24 69 26 24 58 45 32 63 59 30 71 66 30 70 73 52 60 93 37 33 69 46 48 51 46 64 40 39 69 31 39 88 37 9 74 30 35 90 60 63 93 79 88 101 85 72 89 85 72 75 72 57 38 72 62 39 79 66 60 60 50 58 21 55 65 27 30 47 27 36 57 54 40 64 52 46 63 41 46 65 47 39 62 56 35 55 60 46 47 81 58 51 109 40 50 117 42 61 131 39 49 86 36 47 63 29 44 49 47 64 46 46 67 0 61 80 0 75 92 0 56 76 0 68 68 46 63 58 87 40 54 67 42 60 62 33 44 39 49 53 42 55 53 60 65 72 26 62 62 0 47 51 25 66 72 32 37 61 13 54 82 45 62 67 49 51 50 80 32 63 80 29 64 18 35 65 28 49 67 59 44 53 72 17 46 100 5 45 84 25 48 32 52 56 30 57 63 67 42 44 79 32 27 79 43 38 54 37 46 27 59 56 73 57 42 123 29 24 138 31 28 145 21 37 108 40 33 140 55 41 190 51 46 210 46 58 182 63 74 118 70 90 75 73 93 96 108 128 133 104 131 124 104 141 120 102 151 133 115 133 157 150 131 175 178 142 178 170 145 136 160 159 127 169 156 172 156 146 143 144 150 128 138 155 135 118 135 105 98 108 131 70 72 142 61 57 68 73 71 44 86 86 72 86 99 85 125 132 162 181 186 230 
33 46 42 42 48 22 61 55 27 53 50 29 55 50 60 54 52 85 68 59 92 52 67 76 32 70 58 26 63 94 19 53 94 27 69 57 26 75 24 20 83 18 44 81 41 78 58 69 89 62 33 51 58 0 41 53 27 54 53 55 84 65 73 78 41 60 62 38 50 42 40 31 42 49 43 37 69 62 20 61 57 33 53 55 45 53 51 27 61 59 28 55 76 37 51 76 51 37 72 64 48 80 34 30 69 22 24 61 41 43 52 22 55 14 38 85 47 43 84 62 25 48 42 13 52 45 3 57 35 0 80 0 33 81 35 28 45 77 24 42 78 23 35 61 37 47 48 35 53 25 21 28 61 26 38 64 1 33 0 17 55 7 34 50 28 43 36 39 74 50 24 58 39 0 54 38 0 26 26 0 25 38 0 59 38 55 46 59 53 0 89 80 0 78 81 0 58 76 0 52 91 13 42 124 46 69 55 54 73 0 91 44 12 103 11 46 99 9 66 77 31 66 27 43 18 5 73 0 0 85 5 25 44 38 49 32 28 21 33 25 34 55 24 34 54 0 44 48 45 81 15 113 52 35 63 28 71 29 43 57 20 34 65 46 12 44 94 64 13 120 50 20 40 14 47 16 24 72 46 21 76 46 69 68 98 82 22 78 48 36 10 13 70 13 0 54 45 25 77 102 20 59 78 41 47 23 51 68 4 0 58 21 20 86 90 41 51 65 81 40 44 91 47 62 47 27 68 47 59 83 47 53 57 71 49 60 76 60 59 36 71 55 30 76 43 25 70 28 32 84 21 31 75 28 64 79 84 77 91 103 64 70 54 84 83 67 74 74 72 57 57 77 64 60 105 20 27 34 25 44 2 64 74 61 60 70 83 38 64 73 1 31 31 35 31 33 65 48 40 57 46 50 64 61 68 38 36 37 43 33 19 45 41 25 19 36 18 30 53 47 63 69 81 54 62 79 39 64 70 31 61 85 41 50 103 52 67 108 49 86 90 55 88 81 81 105 67 138 163 120 134 151 97 135 140 85 98 102 55 35 54 12 52 89 34 59 79 55 71 61 73 61 54 84 49 57 82 67 82 89 76 74 83 74 84 98 18 70 59 34 82 70 64 82 74 87 107 94 99 115 82 120 131 85 135 126 99 127 95 94 110 90 88 74 69 59 69 59 48 53 52 36 47 46 38 78 69 74 83 69 90 71 71 81 48 82 43 30 80 23 42 75 34 52 82 68 42 68 43 41 89 43 47 94 38 49 80 50 57 68 73 34 41 61 60 56 77 49 56 76 73 85 77 68 74 62 87 84 97 80 60 84 92 74 82 47 49 49 41 49 48 64 63 65 58 44 65 74 72 82 39 54 59 29 55 64 19 43 39 30 81 54 17 71 33 51 70 52 62 50 40 50 41 48 66 61 69 52 50 47 64 70 56 56 62 50 11 47 33 21 61 64 27 54 57 24 82 45 25 96 42 52 69 47 67 45 44 64 49 58 53 54 47 45 63 27 75 66 39 79 43 31 52 52 32 43 68 58 30 46 49 49 61 51 56 70 49 60 77 83 83 111 134 88 116 131 83 91 92 80 68 68 51 26 54 44 43 99 27 43 108 43 42 209 60 23 255 48 11 255 45 16 255 24 14 255 23 1 255 33 0 255 63 17 255 64 18 255 62 45 236 25 35 173 15 33 143 20 36 136 36 35 150 44 36 196 35 10 255 28 9 255 54 19 255 53 24 226 54 35 129 44 41 100 49 40 91 28 73 0 31 97 0 35 102 0 45 100 0 89 111 0 85 95 0 68 112 0 38 107 0 45 119 0 40 99 0 48 109 0 17 99 0 9 106 0 27 103 0 32 78 0 69 100 0 46 61 0 70 79 0 42 58 0 32 49 19 40 47 67 32 33 91 51 56 186 34 48 87 29 63 0 46 71 0 33 56 0 37 71 84 13 49 98 26 58 31 16 79 0 19 84 38 33 66 209 57 70 248 96 104 167 139 135 110 178 152 125 197 145 197 199 147 244 192 169 201 202 191 173 221 200 183 242 235 229 222 238 241 214 241 244 234 254 233 233 251 187 253 255 230 255 245 255 255 226 251 233 222 217 197 192 202 176 166 191 138 114 164 92 88 124 55 85 65 45 95 56 84 110 110 107 103 103 76 66 26 39 28 0 
37 50 46 35 41 15 52 46 18 55 52 31 67 62 72 60 58 91 57 48 81 44 59 68 51 89 77 15 52 83 18 52 93 27 69 57 11 60 9 23 86 21 45 82 42 78 58 69 91 64 35 81 88 20 43 55 29 67 66 68 62 43 51 83 46 65 74 50 62 48 46 37 45 52 46 20 52 45 19 60 56 35 55 57 42 50 48 23 57 55 31 58 79 28 42 67 55 41 76 41 25 57 37 33 72 36 38 75 44 46 55 24 57 16 28 75 37 6 47 25 31 54 48 31 70 63 0 46 24 17 100 0 0 37 0 39 56 88 19 37 73 33 45 71 46 56 57 25 43 15 61 68 101 38 50 76 35 67 32 19 57 9 13 29 7 34 27 30 45 21 0 61 42 0 59 43 0 41 41 0 39 52 0 33 12 29 20 33 27 0 75 66 0 83 86 0 80 98 0 61 100 10 39 121 31 54 40 47 66 0 52 5 0 87 0 30 94 4 61 66 20 55 58 74 49 23 91 0 0 96 16 40 59 53 48 31 27 0 7 0 21 42 11 43 63 3 42 46 43 106 40 138 44 27 55 21 64 22 30 44 7 33 64 45 30 62 112 74 23 130 81 51 71 18 51 20 22 70 44 17 72 42 53 52 82 78 18 74 54 42 16 20 77 20 3 58 49 21 73 98 20 59 78 43 49 25 45 62 0 9 67 30 12 78 82 53 63 77 93 52 56 77 33 48 52 32 73 28 40 64 43 49 53 73 51 62 70 54 53 41 76 60 20 66 33 37 82 40 33 85 22 26 70 23 32 47 52 31 45 57 53 59 43 77 76 60 70 70 68 49 49 69 46 42 87 34 41 48 42 61 19 59 69 56 49 59 72 39 65 74 16 46 46 40 36 38 39 22 14 52 41 45 57 54 61 36 34 35 75 65 51 47 43 27 34 51 33 30 53 47 32 38 50 46 54 71 52 77 83 46 76 100 43 52 105 48 63 104 16 53 57 34 67 60 29 53 15 47 72 29 55 72 18 74 79 24 74 78 31 42 61 19 48 85 30 50 70 46 89 79 91 68 61 91 65 73 98 43 58 65 68 66 75 61 71 85 22 74 63 40 88 76 58 76 68 75 95 82 92 108 75 115 126 80 122 113 86 133 101 100 91 71 69 56 51 41 72 62 51 43 42 26 82 81 73 71 62 67 80 66 87 72 72 82 53 87 48 27 77 20 52 85 44 36 66 52 55 81 56 43 91 45 35 82 26 54 85 55 35 46 51 74 81 101 50 46 67 70 77 97 82 94 86 62 68 56 77 74 87 64 44 68 62 44 52 70 72 72 55 63 62 67 66 68 77 63 84 57 55 65 35 50 55 41 67 76 35 59 55 38 89 62 19 73 35 33 52 34 50 38 28 70 61 68 72 67 75 53 51 48 62 68 54 30 36 24 26 62 48 27 67 70 42 69 72 19 77 40 10 81 27 37 54 32 64 42 41 67 52 61 45 46 39 43 61 25 56 47 20 94 58 46 72 72 52 48 73 63 44 60 63 43 55 45 43 57 36 45 62 68 62 90 113 73 101 116 81 89 90 89 77 77 58 33 61 41 40 96 26 42 107 37 36 203 54 17 255 56 19 255 53 24 255 2 0 250 30 8 255 13 0 244 74 28 255 64 18 255 58 41 232 39 49 187 22 40 150 26 42 142 37 36 151 36 28 188 31 6 255 38 19 255 38 3 255 52 23 225 56 37 131 42 39 98 61 52 103 44 89 0 39 105 0 38 105 0 44 99 0 83 105 0 83 93 0 74 118 0 17 86 0 33 107 0 37 96 0 44 105 0 26 108 0 0 93 0 29 105 0 29 75 0 75 106 0 52 67 0 77 86 0 52 68 0 57 74 44 41 48 68 45 46 104 38 43 173 15 29 68 57 91 0 42 67 0 63 86 7 43 77 90 19 55 104 46 78 51 28 91 0 44 109 63 84 117 255 135 148 255 192 200 255 230 226 201 246 220 193 254 202 254 255 218 255 255 244 255 255 245 227 255 247 230 255 252 246 243 255 255 235 255 255 243 255 242 240 255 194 253 255 230 255 237 255 255 239 255 252 241 236 230 225 235 207 197 222 183 159 209 99 95 131 58 88 68 46 96 57 66 92 92 123 119 119 142 132 92 168 157 100 
133 0 0 134 0 0 143 0 0 240 10 88 255 99 200 255 87 187 255 35 115 162 0 0 162 0 23 157 0 37 147 0 26 140 0 12 126 0 3 117 0 3 110 0 1 95 0 0 75 0 0 50 0 0 26 0 0 11 0 3 0 4 3 0 13 1 0 21 10 0 26 17 0 31 15 0 29 5 0 30 0 0 38 1 20 70 45 0 25 6 0 17 3 0 12 3 0 14 0 0 50 0 0 64 0 0 101 15 0 114 40 0 124 56 0 142 77 0 135 55 0 139 69 0 131 64 0 122 43 0 134 44 0 136 40 0 156 56 0 149 65 0 146 71 0 157 53 0 144 57 0 135 68 0 119 63 0 136 56 0 145 33 0 154 39 0 141 54 0 135 53 0 160 68 0 166 62 0 159 69 0 153 71 0 123 40 0 119 28 0 115 35 0 127 33 0 148 54 0 144 68 0 139 57 0 110 33 0 105 38 0 91 30 0 90 48 1 78 46 10 57 25 25 58 43 0 54 43 0 69 35 0 57 39 29 62 57 59 60 77 56 47 64 56 48 47 64 31 38 62 2 60 80 16 114 51 5 128 29 11 147 33 46 94 26 43 64 33 58 76 32 48 51 37 47 9 28 51 0 56 77 0 52 55 0 60 52 19 53 46 49 23 38 47 27 59 52 14 25 23 40 40 36 14 40 43 6 47 27 44 56 54 31 23 32 39 42 19 21 36 17 20 35 54 42 35 67 35 42 72 13 62 55 19 51 0 45 47 22 20 35 26 20 69 36 12 38 47 29 35 61 26 38 28 0 48 0 0 62 23 1 44 47 38 47 78 42 57 72 38 50 14 56 38 22 39 24 43 35 50 59 13 56 25 11 62 18 46 89 47 16 73 32 40 92 104 31 47 82 54 49 65 65 49 61 73 30 72 88 23 77 88 34 58 111 18 35 154 14 29 209 0 74 219 0 65 253 0 73 223 0 4 245 0 35 238 0 65 194 0 65 141 23 49 70 40 26 43 65 38 27 55 46 27 43 54 60 50 39 60 70 23 72 79 50 66 77 75 10 88 86 4 63 83 16 59 80 0 81 64 13 88 80 31 80 90 38 59 64 87 38 55 64 0 17 40 74 53 29 35 45 66 60 72 46 61 54 71 31 28 91 53 36 21 58 3 20 91 25 15 59 0 54 61 29 67 31 31 61 55 53 0 65 49 6 53 31 50 60 22 52 55 26 54 70 47 47 71 47 23 84 28 9 92 22 43 63 42 65 39 62 70 51 67 61 74 76 60 93 90 62 74 82 78 45 74 78 50 61 54 74 63 50 74 74 73 81 54 65 64 21 65 63 10 69 62 32 94 98 87 181 206 199 238 255 251 240 255 255 240 255 255 155 181 208 29 58 78 37 53 54 84 107 75 89 107 83 73 92 84 76 96 101 58 59 75 67 67 81 55 74 69 61 75 72 70 59 53 78 73 55 76 80 52 30 56 23 90 98 69 61 57 44 36 52 40 52 98 86 33 85 61 76 104 77 51 59 30 46 68 44 22 71 38 62 88 63 76 82 60 65 75 54 68 74 58 53 60 54 65 79 66 40 52 50 60 57 60 90 77 82 94 76 78 72 70 77 59 51 62 30 21 40 37 53 54 27 63 37 42 71 37 57 62 44 31 49 21 0 70 32 18 83 55 75 81 67 82 67 60 61 59 66 10 42 43 21 47 48 54 60 48 52 56 45 68 83 74 54 57 62 56 46 45 60 45 38 36 28 40 75 62 93 55 49 61 72 82 93 63 65 78 45 44 48 40 66 51 9 49 9 46 87 43 43 55 43 69 65 52 44 48 37 42 68 69 52 79 84 55 61 65 82 64 74 72 47 56 64 50 53 56 53 56 43 53 56 43 34 67 41 28 59 39 33 45 42 44 57 52 77 85 41 73 76 51 85 72 39 74 45 12 59 31 34 74 88 18 52 76 40 56 67 39 43 58 49 46 59 44 44 56 47 52 59 55 55 67 51 55 68 70 68 91 66 65 69 45 66 65 13 46 52 36 43 65 32 32 56 23 53 53 33 76 68 24 51 56 71 54 50 91 49 41 95 46 28 253 0 53 235 0 35 239 0 50 244 0 66 235 0 74 243 0 80 234 0 77 251 0 96 180 44 106 75 87 75 66 90 76 
174 0 41 178 0 24 198 0 44 195 0 43 235 0 78 234 0 63 225 0 50 198 0 36 220 0 81 224 0 104 218 0 97 216 2 88 177 0 54 178 0 64 164 0 55 159 18 48 124 17 13 104 34 22 89 50 57 77 59 69 65 79 78 33 73 61 0 58 47 0 68 59 0 61 45 0 83 59 10 91 47 5 67 30 29 79 54 7 64 45 0 49 35 20 59 50 6 49 31 0 74 16 0 109 31 0 92 6 0 110 36 0 101 33 0 123 58 0 141 61 0 122 52 0 123 56 0 105 26 0 132 42 0 144 48 0 141 41 0 136 52 0 104 29 0 134 30 0 132 45 0 127 60 0 123 67 0 112 32 0 142 30 0 130 15 0 126 39 0 124 42 0 121 29 0 145 41 0 137 47 0 125 43 0 113 30 0 115 24 0 108 28 0 120 26 0 125 31 0 118 42 0 119 37 0 89 12 0 96 29 0 82 21 0 85 43 0 66 34 0 39 7 6 39 24 0 43 32 0 69 35 0 62 44 28 61 56 38 39 56 39 30 47 47 39 38 64 31 38 85 25 83 82 18 116 65 19 142 41 23 159 39 52 100 35 52 73 28 53 71 37 53 56 66 76 38 65 88 0 78 99 0 50 53 0 51 43 10 37 30 33 46 61 70 36 68 61 45 56 54 66 66 62 43 69 72 42 83 63 46 58 56 67 59 68 49 52 29 71 86 67 44 59 78 67 60 92 37 44 74 36 85 78 45 77 24 51 53 28 56 71 62 0 48 15 49 75 84 36 42 68 42 54 44 23 89 31 11 91 52 34 77 80 42 51 82 42 57 72 47 59 23 72 54 38 67 52 71 32 47 56 39 82 51 21 72 28 30 73 31 6 63 22 0 52 64 27 43 78 52 47 63 64 48 60 77 34 76 95 30 84 76 22 46 134 41 58 154 14 29 214 0 79 230 0 76 228 0 48 233 0 14 231 0 21 252 0 79 191 0 62 150 32 58 72 42 28 48 70 43 52 80 71 60 76 87 84 74 63 62 72 25 58 65 36 54 65 63 25 103 101 37 96 116 42 85 106 10 96 79 0 75 67 18 67 77 52 73 78 112 63 80 112 47 65 62 96 75 50 56 66 56 50 62 64 79 72 102 62 59 119 81 64 63 100 45 31 102 36 75 119 58 113 120 88 193 157 157 177 171 169 81 147 131 62 109 87 21 31 0 67 70 41 81 97 74 75 99 75 49 110 54 1 84 14 50 70 49 69 43 66 85 66 82 42 55 57 49 82 79 59 71 79 79 46 75 89 61 72 69 89 78 58 82 82 61 69 42 67 66 23 63 61 8 74 67 37 55 59 48 36 61 54 53 79 66 35 53 69 41 57 82 13 39 66 17 46 66 44 60 61 53 76 44 60 78 54 43 62 54 44 64 69 46 47 63 66 66 80 44 63 58 56 70 67 62 51 45 44 39 21 49 53 25 43 69 36 56 64 35 74 70 57 50 66 54 15 61 49 20 72 48 44 72 45 59 67 38 42 64 40 25 74 41 43 69 44 50 56 34 41 51 30 36 42 26 33 40 34 43 57 44 44 56 54 65 62 65 61 48 53 63 45 47 46 44 51 43 35 46 64 55 74 43 59 60 49 85 59 25 54 20 52 57 39 39 57 29 3 75 37 23 88 60 52 58 44 67 52 45 50 48 55 31 63 64 41 67 68 113 119 107 253 255 246 245 255 251 252 255 255 255 249 248 104 89 82 38 30 42 32 19 50 70 64 76 62 72 83 62 64 77 53 52 56 32 58 43 22 62 22 30 71 27 54 66 54 56 52 39 70 74 63 53 79 80 62 89 94 102 108 112 170 152 162 205 180 189 253 239 242 217 214 217 152 162 165 100 91 124 94 81 112 98 92 104 104 106 119 39 64 72 40 72 75 50 84 71 58 93 64 85 132 104 45 85 99 48 82 106 99 115 126 112 116 131 143 140 153 160 160 172 145 150 157 192 192 204 198 202 215 209 207 230 203 202 206 192 213 212 204 237 243 229 236 255 245 245 255 217 247 247 209 252 244 217 244 249 240 223 219 251 209 201 221 172 154 255 63 128 255 21 86 255 0 72 255 10 101 255 6 118 255 4 113 255 0 107 255 0 101 188 52 114 125 137 125 156 180 166 
43 67 43 58 52 66 29 39 42 20 42 33 15 48 41 40 62 64 44 61 67 43 60 58 23 49 26 30 41 20 37 51 47 40 48 75 40 36 57 43 49 33 22 45 15 23 64 34 41 67 67 55 65 88 42 69 64 28 71 29 31 54 37 56 39 61 66 35 91 60 42 88 45 59 20 25 58 0 20 66 0 0 28 40 26 44 104 30 32 105 22 47 91 6 57 90 14 36 133 37 34 119 22 20 53 25 52 29 0 38 3 32 57 39 32 54 56 15 42 45 16 42 53 27 38 36 36 44 33 38 35 52 29 30 36 34 19 26 56 31 48 71 55 44 66 57 62 51 38 93 20 36 47 0 37 0 10 42 0 34 52 0 52 48 33 39 34 62 36 48 46 56 55 49 60 43 65 69 38 66 25 29 68 0 64 68 0 92 50 0 124 61 0 101 49 0 108 61 7 82 27 30 37 15 108 27 55 133 0 54 151 6 63 123 21 46 77 24 28 49 49 63 17 67 82 21 75 71 59 49 48 62 31 48 58 41 73 57 41 66 68 85 81 3 88 58 42 74 49 30 49 34 11 68 45 34 78 64 22 76 54 65 84 92 96 27 68 101 41 79 22 53 33 34 70 20 39 97 37 30 95 53 58 63 53 56 48 47 26 54 41 42 67 57 61 62 79 77 54 94 113 52 105 100 66 105 68 98 84 62 81 37 57 65 12 42 66 18 39 66 35 37 63 38 36 81 30 35 58 28 71 47 69 85 36 90 68 51 91 36 67 73 42 69 46 103 36 41 182 17 35 189 29 25 189 54 72 195 34 90 214 9 79 192 0 62 112 13 64 36 55 75 47 64 94 76 69 99 67 58 77 71 70 72 49 75 23 89 91 38 97 83 61 67 85 75 69 82 51 61 86 30 40 94 32 52 73 68 63 53 74 71 54 58 92 50 40 70 75 43 45 91 41 60 82 48 55 77 50 73 99 76 93 80 62 74 66 52 52 83 81 55 74 95 67 82 97 93 93 105 69 57 57 55 79 75 33 92 86 36 75 68 66 80 59 40 55 30 54 65 47 32 51 45 20 67 61 34 68 81 64 72 99 74 70 91 54 67 63 58 79 74 40 68 65 64 78 77 24 27 8 39 42 13 61 74 58 102 100 107 192 174 176 114 115 106 69 104 96 13 50 29 0 13 0 116 128 94 62 82 85 86 118 143 0 27 35 47 51 48 102 85 81 109 96 114 76 72 91 52 48 61 33 33 57 36 31 85 60 43 133 58 27 171 60 50 194 53 59 99 40 47 53 60 74 71 39 70 50 48 87 10 42 85 0 66 95 0 52 82 0 30 66 50 25 60 54 16 34 26 52 49 56 34 37 60 38 75 80 67 80 84 70 72 36 69 75 15 45 76 23 8 54 0 34 73 40 45 51 61 32 33 49 50 53 100 34 34 100 41 43 52 49 63 62 34 58 46 45 66 47 51 62 67 33 42 33 47 77 27 32 74 24 43 55 43 51 51 61 26 34 49 40 57 53 37 83 50 26 98 64 33 74 54 40 61 30 52 57 25 53 65 41 42 71 37 35 74 43 44 45 53 59 44 69 49 61 71 63 90 97 49 74 93 56 73 94 39 50 58 34 46 38 41 84 68 48 101 84 76 128 101 72 132 82 73 143 93 69 139 117 98 172 157 116 183 162 161 213 213 225 255 255 226 255 255 235 255 255 239 255 255 237 234 249 120 107 102 73 71 58 110 112 139 84 95 135 63 91 91 51 75 1 70 97 0 87 116 76 81 88 94 102 98 83 126 118 104 176 141 167 123 98 150 70 58 142 0 15 6 24 51 0 66 79 0 138 156 68 148 159 115 157 178 125 50 202 87 6 216 115 82 255 173 55 255 159 51 255 183 58 255 170 38 255 131 61 255 162 37 255 128 0 255 127 0 221 128 0 198 136 0 188 128 0 176 133 0 208 153 0 202 185 0 179 238 0 158 185 0 104 80 0 125 97 0 87 80 0 110 140 0 96 146 0 79 62 0 82 58 0 77 72 0 77 70 0 82 47 0 83 40 0 104 36 0 108 59 0 86 60 0 96 51 0 89 16 0 89 10 0 117 49 0 145 69 0 183 73 0 217 83 0 209 109 0 209 136 0 226 158 0 228 138 0 233 154 0 228 193 
34 58 34 52 46 60 50 60 63 53 75 66 45 78 71 49 71 73 50 67 73 36 53 51 45 71 48 35 46 25 38 52 48 55 63 90 59 55 76 80 86 70 85 108 78 78 119 89 96 122 122 127 137 160 85 112 107 91 134 92 45 68 51 17 0 22 39 8 64 70 52 98 73 87 48 55 88 0 13 59 0 0 30 42 16 34 94 35 37 110 22 47 91 19 70 103 25 47 144 53 50 135 25 23 56 13 40 17 27 65 30 30 55 37 26 48 50 24 51 54 26 52 63 41 52 50 70 78 67 63 60 77 53 54 60 57 42 49 34 9 26 47 31 20 39 30 35 58 45 100 47 63 74 12 50 13 24 56 7 55 73 11 110 106 91 100 95 123 102 114 112 43 42 36 48 31 53 35 4 32 18 22 61 8 125 129 0 146 104 0 114 51 0 74 22 0 55 8 0 65 10 51 58 36 88 7 35 142 2 63 128 0 40 126 24 49 83 30 34 23 23 37 1 51 66 0 41 37 29 19 18 66 35 52 52 35 67 42 26 51 40 57 53 0 68 38 0 20 0 9 28 13 7 64 41 86 130 116 169 223 201 223 242 250 255 207 248 177 117 155 73 104 84 8 44 0 0 24 0 0 24 0 0 2 0 5 0 0 0 9 0 0 8 0 0 0 15 22 0 39 73 12 65 78 44 83 68 98 84 62 81 37 80 88 35 34 58 10 19 46 15 28 54 29 30 75 24 12 35 5 65 41 63 89 40 94 71 54 94 47 78 84 75 102 79 92 25 30 176 11 29 198 38 34 176 41 59 217 56 112 171 0 36 167 0 37 129 30 81 76 95 115 89 106 136 114 107 137 130 121 140 112 111 113 109 135 83 70 72 19 58 44 22 59 77 67 55 68 37 58 83 27 39 93 31 15 36 31 51 41 62 73 56 60 76 34 24 52 57 25 14 60 10 64 86 52 62 84 57 68 94 71 96 83 65 70 62 48 50 81 79 32 51 72 44 59 74 63 63 75 92 80 80 52 76 72 25 84 78 46 85 78 58 72 51 61 76 51 51 62 44 52 71 65 44 91 85 42 76 89 64 72 99 59 55 76 60 73 69 66 87 82 42 70 67 61 75 74 67 70 51 67 70 41 81 94 78 65 63 70 70 52 54 52 53 44 35 70 62 63 100 79 73 92 58 73 85 51 26 46 49 33 65 90 43 84 92 69 73 70 86 69 65 70 57 75 57 53 72 87 83 96 125 125 149 193 188 242 255 239 255 255 229 255 195 185 255 124 130 170 63 70 76 34 48 45 59 90 70 76 115 38 53 96 0 55 84 0 40 70 0 17 53 37 39 74 68 52 70 62 48 45 52 49 52 75 48 85 90 43 56 60 62 64 28 75 81 21 35 66 13 33 79 20 34 73 40 44 50 60 38 39 55 44 47 94 39 39 105 51 53 62 50 64 63 44 68 56 44 65 46 46 57 62 39 48 39 39 69 19 34 76 26 61 73 61 99 99 109 44 52 67 37 54 50 8 54 21 0 60 26 40 81 61 42 63 32 68 73 41 68 80 56 49 78 44 23 62 31 21 22 30 47 32 57 39 51 61 42 69 76 43 68 87 31 48 69 37 48 56 37 49 41 3 46 30 14 67 50 35 87 60 18 78 28 23 93 43 13 83 61 0 73 58 9 76 55 26 78 78 17 56 77 42 82 86 41 68 71 34 54 65 75 72 87 59 46 41 70 68 55 48 50 77 19 30 70 26 54 54 42 66 0 58 85 0 72 101 61 80 87 93 108 104 89 137 129 115 157 122 148 170 145 197 157 145 229 135 150 141 147 174 107 151 164 81 146 164 76 163 174 130 149 170 117 30 182 67 0 177 76 0 153 70 0 168 58 0 203 79 0 207 35 0 215 20 0 191 37 0 170 28 0 178 38 0 168 75 0 173 111 0 175 115 0 173 130 0 169 114 0 171 154 0 151 210 0 148 175 0 172 148 0 176 148 0 189 182 0 171 201 0 151 201 0 162 145 0 171 147 0 184 179 0 206 199 0 225 190 0 248 205 2 255 201 13 255 228 23 255 255 9 255 227 0 255 182 0 235 156 0 210 142 0 203 127 0 200 90 0 204 70 0 220 120 0 217 144 0 207 139 0 205 115 0 191 112 1 255 228 
34 54 17 21 57 31 29 50 69 34 48 89 43 71 97 47 74 81 42 57 72 43 49 79 59 57 93 63 45 71 91 50 78 89 48 68 58 48 37 61 75 38 50 62 34 48 65 61 36 52 53 47 69 42 95 116 85 168 213 194 218 255 255 211 246 254 149 178 162 67 82 73 25 50 58 0 46 25 38 63 17 59 55 39 51 44 48 24 21 26 11 31 36 21 43 79 24 53 61 41 78 59 18 54 22 22 43 42 32 38 52 26 47 20 25 72 0 52 60 5 73 44 74 43 30 72 41 52 58 42 62 51 43 43 55 63 64 72 42 47 41 34 65 38 31 49 47 27 51 51 6 56 33 10 56 32 39 57 57 20 49 57 16 44 95 3 17 100 26 16 153 32 3 219 23 13 248 31 20 255 41 10 255 71 38 255 54 24 255 63 41 197 49 16 93 63 28 44 48 28 39 30 19 37 54 38 63 54 58 81 69 108 119 211 255 255 212 255 251 217 255 231 218 255 212 43 92 41 0 22 0 20 22 5 40 52 54 42 79 49 28 64 74 0 21 72 0 64 44 0 64 11 0 72 2 27 70 3 38 45 0 74 63 45 71 63 48 120 37 81 99 5 79 101 38 115 73 48 117 39 38 130 31 55 103 24 55 0 13 99 0 30 101 11 44 70 11 40 49 42 56 49 55 56 27 67 77 40 98 65 33 102 44 51 94 48 69 102 64 66 67 42 65 33 18 71 11 24 61 31 58 59 93 64 52 88 80 74 72 57 72 47 54 56 31 58 48 43 40 38 87 32 69 92 31 72 44 39 93 43 8 74 40 42 67 86 62 52 127 56 62 76 59 87 1 73 80 25 101 93 96 142 117 147 127 140 136 95 136 69 60 81 0 34 23 7 47 36 67 49 77 74 43 93 36 61 93 30 43 64 17 40 38 29 61 47 68 50 53 48 39 45 3 63 64 36 56 57 74 61 79 107 31 88 65 16 92 16 34 99 31 22 58 32 66 72 82 35 46 44 54 60 46 70 61 78 76 55 102 76 57 109 76 69 98 93 80 78 80 72 57 84 82 55 62 46 34 74 62 70 67 79 67 45 80 62 30 90 92 29 77 91 61 77 106 62 86 102 50 88 76 56 76 81 65 49 64 86 64 75 45 47 56 55 69 58 52 68 36 63 80 52 79 97 61 63 80 60 51 55 54 48 55 36 35 61 28 50 70 47 73 82 49 72 87 60 59 96 67 48 86 59 48 67 51 59 54 62 54 59 69 62 72 86 97 86 106 110 75 104 127 72 102 106 50 83 82 49 92 65 83 99 49 88 97 67 93 106 59 83 83 46 87 65 15 91 31 4 73 0 53 69 18 50 38 26 70 66 68 30 49 70 34 51 72 51 67 70 52 61 52 71 90 82 26 50 50 37 51 64 37 48 54 21 30 21 51 64 48 38 39 32 55 63 36 72 83 55 54 69 42 59 84 15 38 53 0 43 58 13 52 61 54 68 86 104 59 77 77 39 62 30 31 60 44 33 31 54 54 40 79 48 52 77 33 68 62 61 75 90 72 68 70 75 68 74 32 45 73 21 54 75 42 47 91 37 28 95 54 32 101 45 9 193 54 6 255 41 39 248 29 52 232 23 48 202 33 30 173 56 42 169 159 167 204 245 255 196 255 255 223 255 255 239 207 217 220 87 97 102 24 42 34 17 60 42 9 87 17 54 98 59 75 55 76 43 33 22 17 26 11 29 46 26 46 50 39 81 57 139 86 75 165 67 101 80 93 126 95 94 117 74 110 144 106 148 174 201 159 177 201 179 209 151 163 195 123 162 184 133 173 175 158 186 180 176 179 171 146 164 183 103 156 180 106 151 169 121 118 175 110 75 154 57 57 147 35 55 120 16 93 126 0 96 122 3 66 126 16 88 124 48 100 110 63 109 92 94 100 79 96 77 61 93 100 56 117 122 63 143 114 85 165 101 88 180 80 83 176 42 84 144 6 122 169 0 130 218 0 140 227 40 118 206 54 68 168 71 56 161 70 51 155 88 65 181 88 84 172 79 88 159 96 87 168 91 111 176 115 158 212 147 201 249 171 209 246 186 177 222 154 139 194 122 129 170 133 118 161 97 105 140 67 105 132 57 96 123 33 71 88 73 102 122 84 96 130 53 95 131 
36 56 19 19 55 29 43 64 83 31 45 86 17 45 71 45 72 79 41 56 71 73 79 109 78 76 112 68 50 76 92 51 79 75 34 54 72 62 51 31 45 8 48 60 32 27 44 40 30 46 47 55 77 50 37 58 27 44 89 70 13 52 61 34 69 77 14 43 27 43 58 49 17 42 50 0 44 23 37 62 16 45 41 25 77 70 74 52 49 54 50 70 75 37 59 95 29 58 66 30 67 48 23 59 27 25 46 45 41 47 61 24 45 18 31 78 0 48 56 1 74 45 75 42 29 71 40 51 57 38 58 47 41 41 53 61 62 70 27 32 26 32 63 36 17 35 33 45 69 69 15 65 42 25 71 47 35 53 53 0 24 32 22 50 101 9 23 106 41 31 168 33 4 220 6 0 231 18 7 255 27 0 255 32 0 255 35 5 237 43 21 177 63 30 107 62 27 43 49 29 40 31 20 38 46 30 55 52 56 79 3 42 53 6 71 53 0 30 4 7 68 21 1 64 0 28 77 26 44 67 24 41 43 26 76 88 90 52 89 59 34 70 80 0 16 67 0 21 1 0 35 0 0 71 1 41 84 17 71 78 32 84 73 55 57 49 34 102 19 63 108 14 88 60 0 74 9 0 53 0 0 85 32 56 104 106 137 74 95 181 46 40 111 21 35 61 2 48 57 50 18 11 17 88 59 99 59 22 80 69 37 106 52 59 102 28 49 82 61 63 64 52 75 43 33 86 26 34 71 41 53 54 88 39 27 63 65 59 57 73 88 63 76 78 53 60 50 45 44 42 91 14 51 74 40 81 53 38 92 42 25 91 57 32 57 76 55 45 120 38 44 58 40 68 0 63 70 15 85 77 80 113 88 118 82 95 91 44 85 18 42 63 0 41 30 14 50 39 70 55 83 80 19 69 12 60 92 29 18 39 0 49 47 38 68 54 75 60 63 58 69 75 33 62 63 35 48 49 66 47 65 93 19 76 53 14 90 14 40 105 37 19 55 29 69 75 85 59 70 68 46 52 38 76 67 84 48 27 74 65 46 98 78 71 100 77 64 62 103 95 80 89 87 60 101 85 73 73 61 69 49 61 49 15 50 32 15 75 77 21 69 83 56 72 101 64 88 104 33 71 59 66 86 91 83 67 82 101 79 90 67 69 78 41 55 44 49 65 33 57 74 46 60 78 42 69 86 66 75 79 78 70 77 58 63 89 56 43 63 40 50 59 26 65 80 53 40 77 48 61 99 72 40 59 43 77 72 80 45 50 60 65 75 89 106 95 115 142 107 136 157 102 132 141 85 118 93 60 103 59 77 93 42 81 90 44 70 83 40 64 64 34 75 53 27 103 43 25 94 13 66 82 31 39 27 15 44 40 42 21 40 61 30 47 68 65 81 84 49 58 49 49 68 60 28 52 52 22 36 49 57 68 74 44 53 44 57 70 54 59 60 53 62 70 43 67 78 50 59 74 47 43 68 0 61 76 7 59 74 29 49 58 51 53 71 89 20 38 38 50 73 41 43 72 56 44 42 65 71 57 96 54 58 83 53 88 82 49 63 78 45 41 43 55 48 54 27 40 68 43 76 97 47 52 96 58 49 116 62 40 109 44 8 192 36 0 255 13 11 220 21 44 224 29 54 208 51 48 191 46 32 159 37 45 82 43 69 0 63 67 30 48 44 28 0 4 7 11 21 26 28 46 38 57 100 82 50 128 58 19 63 24 34 14 35 60 50 39 85 94 79 83 100 80 131 135 124 134 110 192 129 118 208 155 189 168 135 168 137 155 178 135 163 197 159 151 177 204 182 200 224 162 192 134 165 197 125 176 198 147 174 176 159 191 185 181 172 164 139 163 182 102 145 169 95 146 164 116 101 158 93 64 143 46 39 129 17 51 116 12 78 111 0 92 118 0 73 133 23 94 130 54 100 110 63 114 97 99 112 91 108 90 74 106 96 52 113 97 38 118 94 65 145 95 82 174 101 104 197 48 90 150 2 118 165 0 136 224 0 144 231 32 110 198 62 76 176 71 56 161 96 77 181 119 96 212 109 105 193 83 92 163 86 77 158 81 101 166 111 154 208 144 198 246 164 202 239 107 98 143 77 62 117 91 98 139 128 113 156 162 170 205 75 113 140 42 81 108 74 112 129 87 116 136 122 134 168 158 200 236 
42 33 42 52 36 68 64 41 81 74 55 88 40 54 66 7 88 41 0 89 37 24 74 63 53 83 83 15 62 60 26 91 73 12 76 30 33 76 11 62 59 30 51 30 31 58 41 45 55 49 45 73 70 41 46 58 22 35 50 55 23 52 72 37 60 43 42 70 23 17 53 5 2 49 7 27 53 56 37 40 59 70 56 57 59 53 49 38 61 81 29 66 88 50 68 86 47 60 56 33 60 21 27 77 30 1 47 33 22 58 58 15 26 21 23 37 16 26 39 44 37 62 80 54 72 86 35 66 49 21 58 36 0 45 28 22 61 70 24 67 96 27 56 102 27 46 137 10 1 168 40 9 223 54 13 255 29 0 254 40 3 255 10 0 221 29 1 196 42 20 143 49 32 70 42 40 5 33 35 0 15 22 0 36 34 23 50 54 43 43 42 25 39 43 42 9 26 47 0 42 48 18 69 68 25 53 27 47 52 10 39 48 31 6 41 35 0 62 61 5 36 68 21 37 22 39 63 17 18 56 31 14 54 42 23 40 62 52 35 101 42 31 33 61 56 10 48 33 18 48 23 49 44 35 76 43 38 67 59 49 28 66 63 10 51 55 42 23 36 58 32 61 45 20 35 0 53 61 23 23 72 18 11 60 45 43 71 86 19 56 53 46 74 74 25 61 61 23 61 36 36 63 24 47 57 16 69 82 50 57 64 42 53 53 39 40 41 34 54 66 74 152 159 179 250 249 255 255 245 255 255 250 255 217 236 203 87 132 29 16 33 0 29 39 16 30 67 45 16 90 75 13 114 110 16 96 107 27 68 134 50 47 114 56 29 50 81 49 48 84 51 0 115 50 16 129 53 87 78 30 58 67 70 73 10 103 73 0 103 52 63 85 112 67 51 100 64 55 28 62 56 18 43 68 22 40 82 20 86 46 61 77 59 83 48 72 26 45 89 16 23 102 25 16 59 17 84 42 78 63 28 83 59 72 68 62 87 69 38 83 74 71 72 89 87 44 102 69 45 93 39 72 39 23 85 22 12 86 37 46 79 62 90 78 90 60 65 57 34 86 23 24 67 12 59 70 75 82 66 117 64 58 92 40 82 44 8 84 26 40 75 153 64 46 255 64 28 255 74 16 255 77 19 255 55 20 255 61 32 255 53 32 201 62 75 95 60 85 65 60 95 43 56 84 57 74 62 86 69 62 68 74 59 66 78 52 67 73 58 41 58 58 56 55 75 60 47 87 28 71 94 54 87 85 35 63 87 13 44 69 61 62 61 89 80 74 60 111 93 59 120 103 63 88 97 88 71 88 153 63 52 132 64 54 69 60 49 51 49 58 49 56 68 70 48 59 90 62 55 77 62 41 26 68 41 34 12 67 47 0 112 56 0 109 67 7 71 48 57 60 63 83 58 88 91 70 89 89 62 65 144 36 46 166 27 20 99 54 11 48 83 0 13 103 0 0 95 0 42 68 9 69 55 76 49 31 131 72 50 147 49 53 128 40 51 118 77 51 110 34 59 77 33 79 55 33 69 19 14 75 32 49 74 83 102 11 77 70 31 76 34 57 50 37 68 48 55 90 106 63 61 68 81 35 24 22 60 0 6 78 0 36 63 32 44 52 77 54 43 45 71 56 39 58 74 60 27 80 46 18 51 57 26 28 101 55 49 83 55 48 24 47 66 14 11 79 14 18 56 45 88 61 102 95 87 52 61 105 20 59 116 61 80 124 103 123 121 128 161 132 125 151 158 126 142 181 140 169 179 180 163 155 180 172 173 179 181 199 171 194 214 175 182 214 161 167 198 153 252 255 228 253 255 226 238 255 221 238 255 242 249 255 255 202 215 207 126 172 96 222 255 171 224 255 159 162 211 105 130 208 76 0 91 0 3 90 0 40 70 0 117 143 108 116 171 118 187 255 171 226 255 178 249 255 205 246 255 233 203 236 219 82 112 88 0 4 0 17 14 43 85 65 140 65 81 154 0 32 101 0 7 79 0 15 105 52 54 176 130 150 255 73 126 242 58 115 218 33 55 179 89 79 213 87 76 190 72 96 184 78 122 205 74 101 196 98 122 224 124 128 241 110 114 213 100 131 236 68 100 221 88 94 220 89 83 207 110 76 200 124 79 194 89 70 163 76 87 163 81 95 170 58 74 148 43 65 139 9 49 123 
31 22 31 56 40 72 65 42 82 66 47 80 71 85 97 28 109 62 0 82 30 26 76 65 6 36 36 23 70 68 14 79 61 16 80 34 43 86 21 57 54 25 61 40 41 61 44 48 45 39 35 55 52 23 50 62 26 58 73 78 31 60 80 27 50 33 12 40 0 14 50 2 32 79 37 14 40 43 36 39 58 54 40 41 55 49 45 44 67 87 27 64 86 17 35 53 37 50 46 38 65 26 15 65 18 10 56 42 4 40 40 31 42 37 36 50 29 49 62 67 33 58 76 24 42 56 21 52 35 11 48 26 0 43 26 17 56 65 8 51 80 39 68 114 38 57 148 26 17 184 26 0 209 16 0 226 36 0 255 36 0 255 36 10 247 46 18 213 34 12 135 49 32 70 36 34 0 34 36 0 36 43 14 45 43 32 42 46 35 53 52 35 36 40 39 17 34 55 0 51 57 3 54 53 37 65 39 53 58 16 31 40 23 13 48 42 0 40 39 6 37 69 35 51 36 27 51 5 27 65 40 7 47 35 20 37 59 46 29 95 60 49 51 57 52 6 45 30 15 45 20 46 20 11 52 41 36 65 59 49 28 43 40 0 45 49 36 49 62 84 30 59 43 55 70 29 27 35 0 0 32 0 5 54 39 38 66 81 29 66 63 49 77 77 29 65 65 21 59 34 52 79 40 51 61 20 53 66 34 56 63 41 55 55 41 10 11 4 16 28 36 31 38 58 85 84 130 125 115 174 88 82 106 56 75 42 0 37 0 19 36 0 66 76 53 45 82 60 19 93 78 0 101 97 0 79 90 32 73 139 70 67 134 61 34 55 72 40 39 83 50 0 115 50 16 120 44 78 111 63 91 76 79 82 0 89 59 0 102 51 40 62 89 62 46 95 96 87 60 70 64 26 50 75 29 41 83 21 72 32 47 80 62 86 63 87 41 21 65 0 27 106 29 32 75 33 99 57 93 84 49 104 52 65 61 56 81 63 43 88 79 63 64 81 81 38 96 49 25 73 39 72 39 36 98 35 6 80 31 56 89 72 62 50 62 68 73 65 52 104 41 31 74 19 58 69 74 57 41 92 55 49 83 45 87 49 12 88 30 27 62 140 42 24 236 58 22 255 86 28 255 96 38 255 77 42 255 83 54 255 39 18 187 82 95 115 96 121 101 68 103 51 95 123 96 20 8 32 48 41 47 82 67 74 102 76 91 90 75 58 79 79 77 51 71 56 42 82 23 54 77 37 70 68 18 34 58 0 36 61 53 44 43 71 50 44 30 91 73 39 88 71 31 50 59 50 56 73 138 48 37 117 58 48 63 67 56 58 35 44 35 54 66 68 49 60 91 57 50 72 76 55 40 88 61 54 16 71 51 0 117 61 0 94 52 14 78 55 56 59 62 88 63 93 86 65 84 77 50 53 159 51 61 170 31 24 114 69 26 61 96 0 10 100 0 8 104 0 35 61 2 65 51 72 51 33 133 71 49 146 58 62 137 37 48 115 78 52 111 36 61 79 39 85 61 41 77 27 30 91 48 40 65 74 112 21 87 71 32 77 29 52 45 45 76 56 43 78 94 72 70 77 87 41 30 27 65 4 4 76 0 51 78 47 55 63 88 69 58 60 61 46 29 32 48 34 15 68 34 18 51 57 45 47 120 56 50 84 57 50 26 61 80 28 32 100 35 50 88 77 102 75 116 104 96 61 80 124 39 87 144 89 106 150 129 145 143 150 183 154 147 174 181 149 151 190 149 163 173 174 177 169 194 172 173 179 162 180 152 155 175 136 155 187 134 161 192 147 180 189 156 173 181 146 152 184 135 141 168 145 174 181 185 171 184 176 148 194 118 147 212 96 134 199 69 128 177 71 95 173 41 63 165 7 58 145 0 91 121 37 70 96 61 56 111 58 26 113 10 56 114 8 94 112 50 72 89 59 79 112 95 83 113 89 76 90 86 103 100 129 89 69 144 61 77 150 40 85 154 24 76 148 48 77 167 73 75 197 70 90 224 37 90 206 37 94 197 65 87 211 99 89 223 98 87 201 50 74 162 40 84 167 64 91 186 64 88 190 89 93 206 65 69 168 47 78 183 69 101 222 87 93 219 99 93 217 109 75 199 102 57 172 95 76 169 81 92 168 84 98 173 88 104 178 98 120 194 112 152 226 
45 61 47 32 67 21 10 50 0 65 60 52 79 45 83 67 76 83 27 85 74 16 49 32 48 56 31 36 26 39 60 56 56 37 63 37 40 64 62 83 76 96 68 37 127 50 22 255 9 12 255 12 19 255 16 12 255 33 22 255 26 12 255 29 13 255 31 6 255 45 0 255 56 16 223 57 29 216 33 18 183 24 2 176 27 14 108 26 41 0 21 62 6 13 59 37 33 60 55 36 51 44 28 46 46 1 39 10 0 63 28 19 61 59 43 45 28 63 56 52 8 25 47 9 40 46 0 42 36 29 43 42 59 68 35 55 64 29 42 64 55 26 48 49 23 38 43 38 43 61 32 33 65 37 40 59 39 51 53 11 32 15 38 51 20 38 38 2 20 17 0 37 35 32 24 27 30 43 55 55 55 64 83 35 36 52 28 36 37 32 45 37 10 44 21 27 68 48 18 60 52 22 58 44 14 67 53 0 39 50 0 41 54 0 38 32 32 50 24 52 46 36 70 55 62 59 36 34 40 36 13 27 37 0 36 51 0 28 46 22 28 43 58 21 40 68 0 39 44 26 70 67 1 48 42 13 48 66 7 36 53 17 51 38 30 63 20 42 51 16 56 41 32 63 30 37 74 40 43 69 48 51 72 40 67 67 40 71 64 50 85 37 48 53 29 76 36 38 72 52 63 49 52 76 58 68 50 51 42 40 58 34 69 118 77 184 213 207 245 255 255 236 255 255 221 255 242 127 168 137 19 43 29 54 39 56 88 71 99 104 101 118 69 89 102 22 42 47 45 63 55 29 40 38 42 49 56 65 69 66 70 63 31 83 68 33 73 74 56 57 66 73 46 72 59 52 80 54 39 49 37 64 63 80 102 113 127 169 189 192 209 233 213 231 240 221 188 171 139 132 92 53 94 25 16 78 0 0 106 18 18 115 68 64 79 68 63 47 73 76 0 96 81 0 104 58 0 171 106 0 168 111 0 91 56 41 79 68 20 49 43 51 56 64 65 56 65 85 73 73 101 73 76 64 58 54 97 58 67 76 35 39 59 60 50 68 65 70 63 45 43 81 59 57 106 32 53 51 74 68 20 102 75 43 107 86 25 78 36 34 77 46 25 34 25 30 65 39 49 111 76 56 86 74 93 89 108 80 51 93 85 38 70 87 60 67 40 63 49 47 59 51 90 81 64 86 77 58 111 106 96 60 84 62 55 101 79 57 74 82 69 62 82 81 73 84 34 56 21 39 80 26 44 75 55 48 66 56 78 71 38 49 44 0 35 69 23 27 58 39 52 51 43 64 60 44 37 53 30 49 71 64 63 82 93 48 40 77 75 46 96 60 64 89 24 42 56 92 85 169 42 32 167 24 43 212 0 22 255 0 7 252 43 24 255 62 10 255 97 42 255 95 26 255 83 28 255 105 36 255 84 24 255 57 53 142 20 68 68 3 63 39 5 79 16 30 79 90 35 62 129 58 74 99 57 63 73 43 47 63 70 83 0 36 58 0 57 84 0 58 60 45 58 53 97 70 66 129 50 35 204 61 30 255 63 19 255 72 20 255 77 57 216 49 76 35 39 95 0 36 93 0 22 91 0 28 110 0 43 127 0 41 75 10 50 24 179 49 0 255 44 3 251 54 31 149 62 42 102 76 54 88 79 81 6 82 137 0 59 139 0 67 149 0 77 149 0 100 159 0 103 172 0 72 147 0 63 154 0 77 151 44 122 146 136 158 165 146 166 173 154 168 167 197 158 176 212 181 177 213 189 166 198 188 171 193 176 156 195 169 171 223 152 189 220 139 173 189 147 171 167 136 189 133 129 210 130 104 237 144 98 229 124 105 214 85 130 202 68 151 186 82 178 151 112 176 131 88 163 111 57 137 99 0 120 122 0 81 125 0 79 143 0 36 148 0 55 131 0 82 97 54 71 92 125 73 79 169 56 60 208 40 82 168 63 96 125 72 92 141 40 108 133 36 94 107 32 81 151 62 109 193 112 93 207 124 92 226 91 106 239 57 104 234 46 103 184 29 100 156 53 103 166 50 70 143 64 73 222 55 70 213 62 72 156 81 115 198 179 204 255 243 240 255 238 237 255 217 255 255 216 248 255 88 120 255 36 44 201 101 96 239 93 94 216 79 98 202 200 227 255 231 243 255 239 249 255 236 255 255 
27 43 29 24 59 13 25 65 8 61 56 48 89 55 93 52 61 68 25 83 72 10 43 26 49 57 32 54 44 57 66 62 62 60 86 60 43 67 65 76 69 89 56 25 115 25 0 246 0 0 252 0 3 255 52 48 255 54 43 255 38 24 255 32 16 255 5 0 243 47 1 255 56 16 223 37 9 196 54 39 204 52 30 204 31 18 112 47 62 0 0 32 0 3 49 27 22 49 44 30 45 38 63 81 81 36 74 45 15 91 56 7 49 47 15 17 0 30 23 19 22 39 61 37 68 74 19 62 56 43 57 56 28 37 4 5 14 0 0 11 2 2 24 25 66 81 86 185 190 208 250 251 255 250 253 255 246 255 255 177 198 181 38 51 20 31 31 0 25 22 3 19 17 14 63 66 69 21 33 33 38 47 66 54 55 71 18 26 27 32 45 37 24 58 35 11 52 32 14 56 48 32 68 54 0 38 24 0 37 48 0 47 60 0 41 35 22 40 14 70 64 54 59 44 51 56 33 31 48 44 21 35 45 0 41 56 5 37 55 31 28 43 58 11 30 58 14 57 62 0 39 36 24 71 65 21 56 74 25 54 71 19 53 40 6 39 0 39 48 13 40 25 16 72 39 46 62 28 31 60 39 42 66 34 61 65 38 69 61 47 82 39 50 55 32 79 39 29 63 43 66 52 55 72 54 64 62 63 54 49 67 43 11 60 19 16 45 39 43 54 68 41 67 70 36 89 57 46 87 56 26 50 36 67 52 69 68 51 79 50 47 64 73 93 106 85 105 110 59 77 69 85 96 94 34 41 48 38 42 39 48 41 9 63 48 13 97 98 80 60 69 76 45 71 58 0 26 0 35 45 33 55 54 71 64 75 89 70 90 93 46 70 50 60 69 50 68 51 19 71 31 0 111 42 33 135 28 47 121 33 33 106 59 55 85 74 69 47 73 76 2 98 83 0 101 55 0 137 72 0 125 68 0 97 62 47 85 74 29 58 52 61 66 74 64 55 64 65 53 53 95 67 70 69 63 59 86 47 56 78 37 41 55 56 46 65 62 67 73 55 53 91 69 67 104 30 51 51 74 68 0 62 35 40 104 83 74 127 85 92 135 104 92 101 92 9 44 18 0 61 26 51 81 69 104 100 119 109 80 122 78 31 63 78 51 58 32 55 41 83 95 87 109 100 83 67 58 39 93 88 78 83 107 85 80 126 104 138 155 163 103 96 116 80 72 83 62 84 49 40 81 27 36 67 47 34 52 42 46 39 6 64 59 13 67 101 55 51 82 63 87 86 78 66 62 46 58 74 51 46 68 61 34 53 64 50 42 79 73 44 94 61 65 90 10 28 42 0 0 72 13 3 138 21 40 209 70 106 255 73 101 255 53 34 255 52 0 255 45 0 255 69 0 255 87 32 255 96 27 255 79 19 255 60 56 145 7 55 55 19 79 55 10 84 21 12 61 72 43 70 137 63 79 104 51 57 67 69 73 89 32 45 0 30 52 0 32 59 0 62 64 49 105 100 144 76 72 135 83 68 237 35 4 255 41 0 255 79 27 255 73 53 212 57 84 43 48 104 0 43 100 0 48 117 0 40 122 0 25 109 0 14 48 0 49 23 178 66 11 255 49 8 255 61 38 156 45 25 85 52 30 64 70 72 0 84 139 0 78 158 0 117 199 0 103 175 0 91 150 0 86 155 0 49 124 0 62 153 0 74 148 41 104 128 118 148 155 136 152 159 140 168 167 197 146 164 200 173 169 205 187 164 196 187 170 192 181 161 200 169 171 223 138 175 206 142 176 192 141 165 161 103 156 100 106 187 107 77 210 117 93 224 119 127 236 107 140 212 78 140 175 71 173 146 107 166 121 78 173 121 67 157 119 0 123 125 0 110 154 0 89 153 0 55 167 0 67 143 0 68 83 40 53 74 107 60 66 156 69 73 221 56 98 184 75 108 137 71 91 140 36 104 129 56 114 127 48 97 167 65 112 196 86 67 181 87 55 189 70 85 218 41 88 218 57 114 195 45 116 172 49 99 162 67 87 160 76 85 234 63 78 221 90 100 184 76 110 193 78 103 210 107 104 225 85 84 236 53 92 183 67 99 172 41 73 208 68 76 233 74 69 212 75 76 198 80 99 203 55 82 203 70 82 216 95 105 181 139 159 198 
82 39 57 69 49 26 39 44 10 35 46 28 50 30 67 45 34 98 48 62 85 33 53 42 48 72 62 9 63 53 22 77 67 40 81 50 48 59 29 47 50 31 25 58 55 19 46 77 55 42 84 78 63 70 67 53 40 80 59 52 59 63 60 37 65 56 21 50 34 32 54 20 46 61 32 0 45 15 10 81 51 20 75 47 66 80 69 89 101 91 16 57 35 0 26 0 0 13 6 53 43 64 85 59 94 81 56 76 46 35 39 25 29 26 38 37 54 22 34 58 22 51 61 17 60 44 5 61 34 21 78 49 6 47 25 33 47 36 41 53 41 17 45 18 12 43 23 11 46 28 18 47 39 33 62 46 5 63 35 28 70 44 30 38 29 28 38 39 17 39 49 14 8 40 48 35 75 39 33 67 37 56 66 30 53 57 22 20 47 40 35 53 11 34 28 48 75 52 57 49 34 43 33 30 32 51 43 0 37 5 24 59 30 32 55 21 21 63 25 5 55 32 20 41 24 39 39 39 34 27 33 40 29 31 54 36 46 44 16 43 69 38 66 82 15 54 76 4 32 37 46 41 23 60 41 32 75 57 32 61 45 15 60 35 0 76 31 0 92 40 0 77 43 17 59 49 46 46 34 56 55 47 51 51 47 46 50 50 22 50 37 52 56 45 68 60 63 57 45 69 79 53 89 64 43 96 62 36 123 58 38 147 30 14 160 46 10 246 43 21 255 9 40 255 0 48 255 0 31 255 0 17 205 64 25 198 75 32 123 49 76 35 40 88 62 57 35 44 96 44 53 91 40 61 81 56 66 47 62 81 54 40 88 89 42 46 88 60 34 52 91 48 42 93 48 38 84 62 24 78 42 47 75 38 50 65 70 35 90 70 28 93 47 79 73 69 73 46 51 65 46 62 46 59 81 42 71 63 82 72 67 63 52 72 35 70 60 10 67 48 37 49 51 81 67 72 51 67 44 35 90 60 39 85 61 52 64 56 63 73 74 59 64 71 43 57 56 36 69 74 58 80 89 65 62 57 76 70 56 39 32 38 30 54 52 18 67 51 76 85 78 100 71 79 85 61 71 54 65 73 18 44 21 54 75 12 75 82 16 79 92 52 53 86 57 31 75 52 33 59 46 69 65 76 87 78 123 69 62 130 64 74 121 39 58 68 38 76 41 60 96 44 45 77 26 90 131 87 93 149 100 115 150 121 152 161 144 139 136 131 112 116 105 112 102 97 71 47 35 60 34 23 45 52 22 61 72 25 66 70 33 72 86 64 25 67 33 38 79 51 50 60 45 61 68 38 34 60 25 36 65 57 56 55 75 65 46 88 61 61 101 29 65 65 43 66 59 67 49 59 74 48 45 80 60 39 73 56 26 68 70 21 46 66 17 53 51 42 79 56 64 69 42 65 94 60 81 81 17 53 123 10 70 102 5 73 94 28 77 66 71 91 36 76 79 10 92 68 0 101 62 0 116 67 0 128 60 0 96 17 20 64 3 54 58 22 75 59 58 79 64 79 62 68 54 45 50 32 26 68 60 53 58 78 90 74 97 58 85 82 40 66 51 49 74 66 11 35 31 69 35 38 73 43 43 22 71 38 56 80 66 69 73 73 68 55 73 107 20 77 91 24 79 34 60 60 34 108 84 44 94 69 90 115 95 89 125 93 63 142 89 53 154 96 70 111 109 113 77 113 137 92 147 120 106 153 114 101 143 130 119 139 131 125 137 165 155 178 151 163 197 136 174 209 134 185 220 162 180 228 182 172 229 165 183 219 151 183 208 151 192 222 142 192 195 151 188 158 132 192 132 119 204 123 135 200 128 146 176 104 164 185 102 160 175 104 155 178 122 127 168 60 101 147 24 78 120 9 77 114 30 93 146 42 107 153 32 128 156 21 116 135 29 92 107 66 93 118 110 80 109 91 91 128 109 79 102 106 79 106 125 38 74 123 44 85 145 64 97 144 62 84 156 71 86 193 42 73 175 45 89 190 56 102 191 77 104 187 68 94 203 63 91 202 54 91 184 81 106 203 60 96 192 70 111 205 71 112 204 74 118 193 63 122 168 71 137 176 76 133 188 85 123 212 83 126 234 50 106 233 47 97 232 49 75 202 73 87 210 53 90 193 48 107 189 30 93 159 51 98 156 26 69 123 30 73 156 0 46 147 
57 14 32 59 39 16 59 64 30 57 68 50 67 47 84 53 42 106 25 39 62 35 55 44 43 67 57 10 64 54 15 70 60 29 70 39 40 51 21 57 60 41 26 59 56 37 64 95 59 46 88 60 45 52 66 52 39 62 41 34 73 77 74 29 57 48 34 63 47 31 53 19 21 36 7 25 72 42 0 57 27 12 67 39 44 58 47 31 43 33 22 63 41 3 62 30 26 48 41 42 32 53 50 24 59 54 29 49 54 43 47 40 44 41 43 42 59 32 44 68 26 55 65 5 48 32 6 62 35 3 60 31 8 49 27 37 51 40 17 29 17 38 66 39 30 61 41 21 56 38 38 67 59 11 40 24 8 66 38 13 55 29 26 34 25 36 46 47 15 37 47 28 22 54 45 32 72 28 22 56 24 43 53 25 48 52 28 26 53 53 48 66 27 50 44 30 57 34 48 40 25 38 28 25 19 38 30 14 57 25 3 38 9 28 51 17 6 48 10 7 57 34 35 56 39 43 43 43 43 36 42 44 33 35 64 46 56 61 33 60 67 36 64 79 12 51 82 10 38 31 40 35 12 49 30 13 56 38 34 63 47 16 61 36 0 78 33 0 95 43 0 71 37 21 63 53 44 44 32 42 41 33 49 49 45 41 45 45 35 63 50 48 52 41 62 54 57 63 51 75 63 37 73 63 42 95 56 30 117 46 26 135 54 38 184 63 27 255 51 29 255 14 45 255 0 37 255 0 39 255 24 47 235 62 23 196 61 18 109 25 52 11 29 77 51 73 51 60 102 50 59 86 35 56 67 42 52 51 66 85 65 51 99 93 46 50 89 61 35 48 87 44 26 77 32 18 64 42 18 72 36 48 76 39 76 91 96 37 92 72 15 80 34 73 67 63 88 61 66 85 66 82 42 55 77 38 67 59 59 49 44 71 60 80 50 85 75 9 66 47 54 66 68 58 44 49 65 81 58 47 102 72 64 110 86 88 100 92 50 60 61 70 75 82 197 211 210 231 255 255 238 255 255 255 254 249 166 160 146 62 55 61 0 22 20 19 68 52 63 72 65 97 68 76 114 90 100 48 59 67 37 63 40 69 90 27 65 72 6 69 82 42 27 60 31 10 54 31 35 61 48 51 47 58 95 86 131 81 74 142 68 78 125 74 93 103 22 60 25 48 84 32 65 97 46 55 96 52 101 157 108 86 121 92 137 146 129 144 141 136 111 115 104 124 114 109 86 62 50 74 48 37 50 57 27 41 52 5 70 74 37 53 67 45 30 72 38 33 74 46 36 46 31 61 68 38 37 63 28 36 65 57 78 77 97 40 21 63 65 65 105 19 55 55 49 72 65 70 52 62 55 29 26 64 44 23 68 51 21 89 91 42 69 89 40 62 60 51 59 36 44 75 48 71 64 30 51 106 42 78 142 29 89 119 22 90 116 50 99 65 70 90 20 60 63 0 68 44 0 91 52 0 113 64 0 131 63 0 123 44 44 88 27 106 110 74 94 78 77 142 127 142 157 163 149 123 128 110 105 147 139 39 44 64 48 32 55 67 94 91 63 89 74 24 49 41 41 65 61 42 8 11 79 49 49 26 75 42 41 65 51 40 44 44 37 24 42 96 9 66 86 19 74 59 85 85 66 140 116 81 131 106 104 129 109 105 141 109 71 150 97 40 141 83 88 129 127 121 85 121 139 94 149 91 77 124 92 79 121 101 90 110 170 164 176 255 249 255 242 254 255 224 255 255 215 255 255 208 226 255 173 163 220 138 156 192 165 197 222 157 198 228 132 182 185 167 204 174 125 185 125 100 185 104 143 208 136 144 174 102 171 192 109 150 165 94 115 138 82 132 173 65 78 124 1 100 142 31 97 134 50 65 118 14 123 169 48 131 159 24 126 145 39 115 130 89 70 95 87 84 113 95 86 123 104 90 113 117 80 107 126 59 95 144 54 95 155 65 98 145 73 95 167 47 62 169 51 82 184 47 91 192 70 116 205 91 118 201 78 104 213 62 90 201 65 102 195 80 105 202 65 101 197 57 98 192 39 80 172 67 111 186 67 126 172 79 145 184 80 137 192 96 134 223 70 113 221 41 97 224 36 86 221 51 77 204 57 71 194 47 84 187 34 93 175 47 110 176 75 122 180 69 112 166 100 143 226 121 171 255 
39 38 0 54 41 36 40 36 55 34 42 67 35 44 65 41 47 59 55 49 71 48 38 95 50 38 96 53 71 69 57 67 42 76 51 45 84 59 69 2 22 24 0 51 16 0 59 0 47 81 17 65 75 54 44 70 70 14 53 38 34 49 32 61 66 47 23 49 23 37 75 89 0 20 60 28 51 70 31 52 51 20 53 40 25 66 48 7 40 46 14 51 55 33 41 30 54 43 38 46 46 58 41 45 61 44 42 51 43 40 53 43 26 44 37 49 59 9 51 49 19 63 40 4 42 3 31 50 35 15 40 46 35 63 80 40 54 67 27 35 24 45 49 21 21 33 9 50 79 63 29 56 37 28 48 24 9 36 0 23 32 0 50 57 28 37 50 36 42 58 46 16 37 36 26 32 36 30 43 27 3 38 30 8 58 61 17 49 58 23 27 52 48 43 53 35 24 19 55 49 45 36 39 32 30 48 40 10 34 24 15 44 26 20 53 24 1 54 20 13 61 53 7 32 41 42 52 55 27 41 38 38 76 47 22 63 35 35 38 31 60 42 50 32 15 37 43 49 63 41 67 54 18 30 38 34 45 61 9 30 25 0 27 6 25 71 21 29 66 26 58 66 64 54 52 51 51 52 35 38 33 23 40 40 36 32 48 34 39 49 36 54 52 39 47 48 39 45 48 55 31 55 71 40 74 90 37 56 67 55 63 61 33 44 41 50 60 71 45 58 76 39 55 66 48 55 61 49 46 43 61 45 60 48 44 54 42 75 60 36 80 41 42 82 41 52 69 41 47 61 40 37 69 46 51 73 72 50 50 74 57 48 63 62 45 49 59 59 57 73 94 93 52 82 82 54 81 58 56 80 34 28 53 9 71 96 88 74 88 100 77 72 101 89 71 107 51 39 49 54 65 63 46 68 69 63 69 81 44 53 46 58 81 38 45 83 54 68 99 82 173 207 196 240 255 255 242 255 253 236 255 255 172 229 224 64 147 91 0 68 13 0 49 54 25 60 68 73 70 75 126 108 92 255 246 221 255 230 255 255 227 255 255 236 249 152 122 122 32 47 2 25 63 16 56 83 86 69 70 87 71 57 68 74 72 61 67 86 45 36 48 40 28 72 87 0 50 56 18 71 63 39 93 83 40 67 72 53 65 77 68 81 63 108 68 64 124 50 51 108 58 47 70 62 25 68 91 31 82 98 66 106 90 105 125 103 140 97 115 133 74 107 110 75 95 108 57 78 87 49 67 55 23 53 13 20 70 21 22 73 16 51 76 48 69 86 84 33 51 53 47 77 53 51 71 58 56 49 68 122 90 123 242 219 236 255 254 237 255 255 223 255 248 246 164 153 171 31 46 53 0 19 16 22 65 59 43 97 73 46 84 75 64 71 104 53 47 83 49 39 34 54 63 54 50 68 86 36 58 109 48 61 143 37 59 110 22 61 8 40 42 19 86 70 69 68 65 44 71 74 9 32 46 0 0 29 0 37 51 0 36 55 37 107 141 141 109 132 136 71 94 90 40 71 54 9 21 31 45 45 91 49 68 88 32 73 79 48 102 80 16 56 33 41 48 54 54 65 60 41 57 82 66 65 121 64 76 42 62 78 0 72 75 0 97 91 0 116 91 75 81 88 108 77 115 104 53 90 95 75 90 159 91 97 229 73 95 210 65 113 189 63 111 147 71 100 128 89 104 185 94 100 174 103 113 153 80 102 114 61 114 98 57 127 102 73 115 117 122 159 120 126 155 113 131 160 168 147 169 194 175 152 210 232 138 255 228 145 239 205 171 194 163 187 163 142 188 138 152 197 154 163 199 177 171 198 118 145 186 68 123 152 56 123 126 59 106 119 64 116 133 67 108 133 63 56 124 17 57 145 21 52 138 15 56 142 31 108 157 80 107 145 110 90 141 114 100 143 135 78 99 158 72 81 170 95 82 176 100 62 162 139 69 187 113 84 188 63 111 189 47 117 181 63 97 173 114 70 193 141 72 213 127 97 199 110 104 178 135 81 167 153 54 159 123 63 171 67 89 163 2 140 155 0 184 188 0 148 195 19 123 172 30 116 153 43 112 157 59 117 177 62 118 191 128 70 177 171 34 164 115 51 175 98 76 209 68 71 196 68 93 187 71 72 176 19 15 142 1 83 179 38 94 201 92 122 230 81 108 213 
32 31 0 37 24 19 26 22 41 42 50 75 44 53 74 68 74 86 71 65 87 57 47 104 47 35 93 21 39 37 52 62 37 82 57 51 80 55 65 48 68 70 16 72 37 4 69 0 40 74 10 37 47 26 31 57 57 29 68 53 39 54 37 46 51 32 13 39 13 15 53 67 2 33 73 35 58 77 42 63 62 20 53 40 29 70 52 20 53 59 21 58 62 38 46 35 38 27 22 25 25 37 21 25 41 49 47 56 55 52 65 61 44 62 46 58 68 3 45 43 6 50 27 14 52 13 26 45 30 25 50 56 40 68 85 38 52 65 27 35 24 47 51 23 22 34 10 33 62 46 35 62 43 12 32 8 27 54 11 36 45 4 35 42 13 36 49 35 7 23 11 16 37 36 38 44 48 46 59 43 31 66 58 3 53 56 12 44 53 29 33 58 67 62 72 125 114 109 148 142 138 127 130 123 70 88 80 0 23 13 30 59 41 119 152 123 65 118 84 49 97 89 0 6 15 0 2 5 0 4 1 0 14 0 0 15 0 0 1 0 11 0 1 9 0 14 10 16 30 59 85 72 91 103 111 159 170 186 129 150 145 112 146 125 94 140 90 6 43 3 8 16 14 89 87 86 36 37 20 39 34 24 0 0 0 49 65 51 58 68 55 92 90 77 83 84 75 37 40 47 50 74 90 71 105 121 86 105 116 56 64 62 68 79 76 38 48 59 17 30 48 63 79 90 66 73 79 53 50 47 48 32 47 53 49 59 27 60 45 49 93 54 54 94 53 56 73 45 54 68 47 33 65 42 20 42 41 45 45 69 55 46 61 87 70 74 78 78 76 61 82 81 44 74 74 39 66 43 70 94 48 54 79 35 51 76 68 51 65 77 64 59 88 90 72 108 76 64 74 64 75 73 60 82 83 73 79 91 57 66 59 44 67 24 37 75 46 56 87 70 60 94 83 55 76 71 47 66 58 32 60 51 8 65 60 10 93 37 0 96 41 20 83 88 51 86 94 75 72 77 73 55 39 87 49 24 66 0 23 109 32 74 111 53 66 82 52 52 66 81 36 24 62 15 43 70 73 72 73 90 70 56 67 64 62 51 48 67 26 68 80 72 47 91 106 35 88 94 14 67 59 0 52 42 30 57 62 54 66 78 72 85 67 101 61 57 120 46 47 94 44 33 73 65 28 43 66 6 64 80 48 87 71 86 89 67 104 79 97 115 50 83 86 52 72 85 60 81 90 49 67 55 45 75 35 28 78 29 6 57 0 50 75 47 45 62 60 63 81 83 57 87 63 47 67 54 55 48 67 59 27 60 66 43 60 66 57 40 85 78 45 70 48 46 53 42 60 51 66 73 13 46 43 42 85 79 21 75 51 31 69 60 62 69 102 58 52 88 84 74 69 33 42 33 36 54 72 32 54 105 116 129 211 165 187 238 180 219 166 178 180 157 144 128 127 118 115 94 58 61 0 41 55 0 93 122 0 127 141 31 128 147 129 57 91 91 10 33 37 31 54 50 70 101 84 81 93 103 44 44 90 26 45 65 10 51 57 28 82 60 28 68 45 68 75 81 40 51 46 47 63 88 67 66 122 54 66 32 107 123 2 121 124 0 110 104 6 145 120 104 101 108 128 73 111 100 79 116 121 45 60 129 62 68 200 55 77 192 9 57 133 50 98 134 51 80 108 85 100 181 91 97 171 77 87 127 78 100 112 62 115 99 49 119 94 98 140 142 120 157 118 147 176 134 123 152 160 129 151 176 159 136 194 224 130 255 247 164 255 207 173 196 155 179 155 146 192 142 144 189 146 143 179 157 152 179 99 125 166 48 128 157 61 134 137 70 107 120 65 98 115 49 81 106 36 65 133 26 60 148 24 51 137 14 48 134 23 95 144 67 122 160 125 107 158 131 107 150 142 71 92 151 30 39 128 53 40 134 29 0 91 141 71 189 134 105 209 112 160 238 95 165 229 61 95 171 121 77 200 153 84 225 112 82 184 121 115 189 143 89 175 144 45 150 141 81 189 84 106 180 0 136 151 0 173 177 0 149 196 9 113 162 58 144 181 42 111 156 53 111 171 51 107 180 93 35 142 126 0 119 86 22 146 76 54 187 105 108 233 107 132 226 97 98 202 64 60 187 58 140 236 91 147 254 116 146 254 179 206 255 
54 42 32 58 40 16 70 34 60 32 7 25 63 75 0 19 56 0 59 76 72 67 71 45 43 38 67 35 40 58 28 47 67 50 61 128 44 60 185 35 59 143 5 48 40 8 69 0 15 60 0 63 69 31 69 49 72 55 42 74 45 48 81 30 56 65 43 75 48 57 67 90 39 68 78 9 63 23 0 51 7 10 47 7 17 31 18 21 26 68 33 60 67 43 64 37 57 66 51 23 48 5 15 58 17 0 44 49 34 57 61 46 65 32 34 67 28 32 74 64 0 29 73 32 37 117 5 18 49 40 66 49 13 49 51 32 29 68 45 35 50 22 35 3 38 82 33 18 54 6 45 62 57 53 35 69 23 27 26 18 60 0 7 34 3 54 41 59 68 47 76 40 26 47 35 64 34 0 38 8 22 50 84 45 18 99 73 14 54 107 16 12 91 0 0 104 30 19 62 30 29 105 56 61 78 42 42 10 40 28 0 53 30 0 90 52 0 108 66 0 71 42 34 67 50 14 40 15 46 68 41 43 53 58 50 55 71 63 43 58 29 33 59 3 52 70 27 47 36 28 68 9 20 55 0 38 50 42 21 48 41 36 32 6 102 36 23 20 27 23 17 57 78 6 40 63 9 54 45 55 53 62 57 21 55 68 81 85 18 53 37 47 75 72 23 46 42 29 30 20 74 58 55 37 48 17 44 71 16 40 62 12 60 70 23 67 53 30 67 61 51 65 63 36 40 45 29 56 68 94 37 63 112 32 54 107 49 78 108 32 50 68 45 60 91 36 73 78 53 92 75 49 65 32 53 58 22 69 45 33 75 41 41 78 82 72 45 82 78 51 81 95 45 54 107 64 69 139 21 57 123 27 85 145 24 71 69 61 68 62 92 68 92 83 70 68 72 83 13 56 74 0 57 96 0 54 79 23 74 79 95 70 84 96 44 74 78 52 67 82 57 55 64 75 64 56 52 52 50 62 72 57 53 69 21 61 75 30 61 84 50 43 72 89 51 74 119 56 40 75 75 55 70 38 46 34 27 79 27 30 67 27 66 72 58 46 50 40 44 76 66 25 76 55 40 63 46 87 71 103 77 50 105 63 56 85 64 62 69 53 56 37 62 87 35 57 89 64 65 89 87 65 75 80 51 79 70 42 71 55 54 64 51 71 61 84 54 63 82 63 65 65 62 50 24 71 53 39 38 41 34 50 69 61 28 43 24 77 71 71 64 65 73 47 69 71 72 104 77 38 68 46 39 81 81 46 76 90 43 62 57 61 65 65 38 51 71 26 50 76 42 62 67 76 67 60 71 60 64 65 60 53 63 63 39 54 52 26 51 58 52 43 50 44 46 61 20 73 87 42 65 77 75 53 68 99 30 66 80 19 52 23 56 84 48 33 52 47 15 64 59 18 82 69 0 63 39 15 81 65 20 68 68 28 54 54 54 59 66 71 52 68 85 57 60 81 47 34 102 63 36 74 53 18 51 52 32 58 75 73 37 64 57 62 91 82 29 67 58 31 54 40 48 50 25 75 49 62 67 46 67 74 52 53 76 49 44 65 41 45 63 68 76 38 57 75 59 80 79 71 82 77 74 88 87 79 110 83 83 117 71 108 109 100 106 102 115 107 95 103 68 66 55 68 92 70 83 121 118 122 145 164 137 143 153 124 146 139 42 86 81 22 84 51 50 88 63 83 90 110 88 114 151 40 91 124 23 83 87 61 95 75 76 108 101 124 153 170 114 154 158 129 148 156 173 186 182 153 157 146 154 170 173 149 177 192 156 165 186 173 179 165 172 178 128 176 184 121 141 180 127 140 179 134 117 162 109 97 149 52 96 141 34 80 119 24 76 132 57 98 129 65 95 121 62 99 132 57 73 117 52 45 100 46 78 104 79 67 80 84 65 114 124 61 129 126 79 116 138 92 92 156 106 113 198 60 106 195 45 112 195 78 99 190 90 80 180 95 85 186 106 114 226 95 118 226 96 119 226 88 128 212 86 130 191 70 106 172 69 101 188 59 93 204 41 73 206 64 98 255 73 92 255 64 94 255 63 108 241 58 111 217 53 121 180 73 145 156 70 120 97 69 128 52 63 100 71 56 77 118 63 75 145 66 81 162 65 84 156 79 102 186 55 65 234 69 83 254 39 72 187 17 77 143 24 79 121 3 47 130 
54 42 32 27 9 0 57 21 47 82 57 75 76 88 12 48 85 17 35 52 48 30 34 8 32 27 56 23 28 46 48 67 87 61 72 139 31 47 172 28 52 136 20 63 55 10 71 0 24 69 0 77 83 45 78 58 81 75 62 94 96 99 132 186 212 221 235 255 240 245 255 255 233 255 255 115 169 129 4 69 25 0 15 0 38 52 39 42 47 89 49 76 83 38 59 32 17 26 11 29 54 11 15 58 17 39 89 94 32 55 59 41 60 27 16 49 10 12 54 44 14 43 87 9 14 94 44 57 88 6 32 15 16 52 54 47 44 83 35 25 40 42 55 23 28 72 23 26 62 14 39 56 51 53 35 69 43 47 46 0 41 0 15 42 11 30 17 35 48 27 56 65 51 72 31 60 30 11 52 22 5 33 67 60 33 114 68 9 49 118 27 23 131 6 0 99 25 14 78 46 45 85 36 41 75 39 39 22 52 40 0 86 63 0 96 58 0 95 53 0 72 43 12 45 28 39 65 40 50 72 45 47 57 62 51 56 72 43 23 38 36 40 66 3 52 70 31 51 40 38 78 19 29 64 9 46 58 50 11 38 31 35 31 5 67 1 0 17 24 20 23 63 84 25 59 82 41 86 77 48 46 55 57 21 55 29 42 46 13 48 32 32 60 57 19 42 38 53 54 44 63 47 44 36 47 16 41 68 13 20 42 0 68 78 31 69 55 32 80 74 64 65 63 36 53 58 42 58 70 96 34 60 109 44 66 119 40 69 99 53 71 89 47 62 93 42 79 84 32 71 54 50 66 33 53 58 22 84 60 48 93 59 59 76 80 70 49 86 82 39 69 83 44 53 106 49 54 124 33 69 135 29 87 147 33 80 78 82 89 83 69 45 69 82 69 67 57 68 0 59 77 0 59 98 0 67 92 36 72 77 93 51 65 77 35 65 69 39 54 69 74 72 81 81 70 62 59 59 57 42 52 37 50 66 18 51 65 20 51 74 40 40 69 86 50 73 118 84 68 103 60 40 55 55 63 51 18 70 18 41 78 38 85 91 77 51 55 45 50 82 72 31 82 61 49 72 55 59 43 75 59 32 87 67 60 89 61 59 66 74 77 58 46 71 19 28 60 35 59 83 81 72 82 87 54 82 73 67 96 80 50 60 47 77 67 90 59 68 87 52 54 54 87 75 49 75 57 43 57 60 53 72 91 83 45 60 41 95 89 89 61 62 70 60 82 84 34 66 39 41 71 49 35 77 77 29 59 73 65 84 79 39 43 43 39 52 72 35 59 85 39 59 64 90 81 74 72 61 65 73 68 61 64 64 40 52 50 24 52 59 53 54 61 55 57 72 31 56 70 25 49 61 59 36 51 82 41 77 91 31 64 35 47 75 39 37 56 51 9 58 53 10 74 61 0 66 42 0 61 45 25 73 73 33 59 59 52 57 64 77 58 74 82 54 57 98 64 51 73 34 7 68 47 12 59 60 40 49 66 64 64 91 84 45 74 65 15 53 44 50 73 59 60 62 37 77 51 64 73 52 73 79 57 58 127 100 95 212 188 192 250 255 255 239 255 255 218 239 238 164 175 170 93 107 106 62 93 66 100 134 88 92 93 84 111 107 120 103 91 99 110 108 97 95 119 97 75 113 110 69 92 111 119 125 135 130 152 145 110 154 149 104 166 133 92 130 105 116 123 143 97 123 160 56 107 140 53 113 117 65 99 79 73 105 98 109 138 155 109 149 153 154 173 181 165 178 174 161 165 154 154 170 173 137 165 180 163 172 193 169 175 161 173 179 129 168 176 113 140 179 126 139 178 133 113 158 105 88 140 43 87 132 25 85 124 29 70 126 51 90 121 57 85 111 52 86 119 44 88 132 67 81 136 82 102 128 103 103 116 120 47 96 106 48 116 113 52 89 111 95 95 159 90 97 182 61 107 196 43 110 193 65 86 177 99 89 189 90 80 181 90 98 210 99 122 230 84 107 214 67 107 191 82 126 187 62 98 164 78 110 197 81 115 226 64 96 229 62 96 255 77 96 255 53 83 253 61 106 239 61 114 220 62 130 189 56 128 139 74 124 101 54 113 37 55 92 63 70 91 132 76 88 158 85 100 181 93 112 184 66 89 173 65 75 244 64 78 249 63 96 211 67 127 193 96 151 193 146 190 255 
60 42 76 51 46 39 51 45 33 81 37 42 92 9 43 78 45 86 51 59 74 46 54 29 63 71 46 31 37 25 53 45 46 55 54 58 41 52 47 56 67 47 16 54 17 0 51 42 19 67 65 33 62 46 70 77 58 43 60 40 27 77 54 43 76 69 48 48 48 66 61 43 30 48 22 15 59 56 20 73 67 35 55 34 37 61 37 21 51 39 14 37 41 33 42 69 28 54 57 16 46 26 33 75 51 10 29 24 34 46 46 36 55 40 27 47 49 38 55 53 28 51 47 46 57 55 42 45 52 42 41 45 34 48 47 22 59 37 5 50 25 24 56 47 13 33 44 31 47 72 45 70 76 71 96 70 119 144 100 142 157 112 111 121 100 59 67 65 6 18 20 0 17 2 16 44 41 31 54 56 54 52 75 50 36 49 75 54 57 68 66 53 45 60 45 52 60 51 44 41 54 27 29 32 29 52 46 7 47 35 4 74 34 19 75 48 51 85 75 28 45 51 0 47 44 0 76 59 0 43 14 30 85 65 43 70 63 21 80 64 19 73 71 53 62 57 66 39 20 79 38 22 88 36 44 65 23 35 72 46 63 44 28 25 31 52 23 34 32 41 60 40 81 50 41 72 35 41 45 52 51 35 32 44 16 32 55 38 41 49 73 42 56 81 25 46 55 35 46 44 10 44 21 37 44 38 91 68 72 73 59 46 76 66 55 45 50 34 5 52 32 36 82 70 52 55 50 74 76 63 53 47 45 62 75 44 35 84 50 70 87 65 89 66 64 68 51 69 47 84 106 12 71 87 18 70 82 17 49 50 45 64 48 53 76 70 55 93 82 63 81 73 70 58 34 105 102 71 198 204 188 250 255 255 246 255 255 243 255 255 167 192 185 14 50 36 21 78 59 65 107 83 70 89 56 56 77 46 0 37 2 19 45 30 55 55 69 90 56 95 99 60 79 70 52 26 61 74 9 83 91 18 88 84 25 78 83 31 61 75 38 40 45 37 33 39 87 77 34 138 125 15 164 104 48 143 105 53 87 91 28 33 110 36 39 136 59 87 97 53 90 67 101 91 49 86 47 49 79 65 41 77 61 42 69 62 53 55 82 80 70 59 60 72 34 60 67 48 60 73 59 37 68 75 92 74 112 56 64 65 66 101 81 78 101 85 58 86 60 67 74 80 83 30 72 79 56 96 44 84 87 23 64 44 37 90 48 55 68 64 103 63 86 105 61 74 50 50 28 46 52 28 57 78 51 60 60 50 93 68 77 65 52 66 43 73 85 20 62 72 16 57 55 48 63 54 52 49 54 87 77 115 38 62 84 40 67 60 52 64 40 57 54 35 72 82 67 36 58 57 9 60 41 31 86 32 31 68 13 60 75 56 61 62 78 43 35 60 56 59 78 51 57 43 29 51 17 45 53 42 70 37 54 71 45 68 71 60 88 57 47 72 41 54 56 66 64 74 54 59 67 45 95 74 7 94 37 24 86 25 28 70 18 46 52 14 63 73 52 60 60 58 70 60 73 69 49 64 107 77 91 252 255 247 224 255 255 224 255 255 229 255 255 170 206 208 165 189 185 162 199 178 94 144 121 104 118 130 135 138 161 132 130 127 127 112 105 122 120 117 105 131 142 99 117 151 98 112 125 118 115 86 120 103 71 164 160 134 205 242 210 235 255 230 242 255 223 245 255 231 247 255 255 184 207 227 60 120 122 64 110 78 113 123 100 130 120 106 103 112 77 124 182 92 186 255 163 215 255 189 206 219 188 186 182 192 236 255 255 232 255 235 245 255 233 252 254 255 255 245 255 238 250 255 138 169 237 162 190 207 95 145 96 37 90 32 68 100 47 92 119 16 91 122 0 103 147 0 126 181 0 87 108 65 86 91 107 85 114 84 42 71 27 92 117 110 101 143 155 57 127 175 71 128 213 76 114 225 58 83 200 56 99 205 43 86 195 53 80 197 88 92 239 82 103 220 74 128 144 68 122 174 81 110 241 65 79 255 60 71 255 64 80 255 100 106 255 114 122 234 103 103 211 75 82 176 69 82 174 80 103 210 89 114 193 84 117 210 73 112 219 64 87 203 77 93 192 58 90 151 43 102 60 18 110 25 44 104 168 83 120 189 86 113 170 115 111 176 152 84 185 255 120 255 255 133 255 255 144 255 
52 34 68 52 47 40 36 30 18 61 17 22 112 29 63 72 39 80 63 71 86 53 61 36 49 57 32 38 44 32 45 37 38 46 45 49 50 61 56 55 66 46 18 56 19 21 73 64 0 46 44 49 78 62 56 63 44 49 66 46 42 92 69 36 69 62 66 66 66 52 47 29 27 45 19 18 62 59 4 57 51 46 66 45 35 59 35 44 74 62 22 45 49 22 31 58 18 44 47 8 38 18 21 63 39 45 64 59 30 42 42 57 76 61 105 125 127 103 120 118 111 134 130 72 83 81 18 21 28 30 29 33 19 33 32 35 72 50 34 79 54 12 44 35 33 53 64 8 24 49 23 48 54 50 75 49 39 64 20 43 58 13 26 36 15 23 31 29 29 41 43 160 179 164 235 255 255 238 255 255 253 251 255 178 164 177 99 78 81 113 111 98 208 223 208 235 243 234 227 224 237 121 123 126 44 67 61 0 36 24 0 56 16 12 68 41 33 67 57 30 47 53 0 57 54 0 80 63 0 69 40 30 85 65 42 69 62 0 59 43 5 59 57 46 55 50 57 30 11 82 41 25 101 49 57 70 28 40 62 36 53 60 44 41 42 63 34 55 53 62 59 39 80 45 36 67 22 28 32 43 42 26 45 57 29 43 66 49 46 54 78 32 46 71 29 50 59 35 46 44 38 72 49 44 51 45 63 40 44 68 54 41 76 66 55 60 65 49 20 67 47 13 59 47 46 49 44 45 47 34 84 78 76 73 86 55 32 81 47 51 68 46 56 33 31 59 42 60 53 90 112 31 90 106 33 85 97 49 81 82 52 71 55 47 70 64 42 80 69 35 53 45 74 62 38 84 81 50 65 71 55 84 89 99 62 72 83 47 61 74 52 77 70 26 62 48 29 86 67 37 79 55 62 81 48 56 77 46 41 79 44 42 68 53 35 35 49 77 43 82 81 42 61 98 80 54 74 87 22 53 61 0 75 71 12 33 38 0 66 80 43 60 65 57 53 59 107 98 55 159 129 19 168 85 29 124 90 38 72 102 39 44 120 46 49 142 65 93 116 72 109 65 99 89 53 90 51 40 70 56 47 83 67 44 71 64 54 56 83 68 58 47 44 56 18 65 72 53 67 80 66 40 71 78 71 53 91 60 68 69 44 79 59 69 92 76 71 99 73 79 86 92 132 79 121 89 66 106 29 69 72 31 72 52 0 50 8 49 62 58 83 43 66 92 48 61 79 79 57 58 64 40 43 64 37 48 48 38 74 49 58 75 62 76 45 75 87 34 76 86 35 76 74 48 63 54 53 50 55 56 46 84 41 65 87 40 67 60 56 68 44 63 60 41 41 51 36 42 64 63 15 66 47 25 80 26 45 82 27 60 75 56 62 63 79 60 52 77 39 42 61 28 34 20 25 47 13 36 44 33 101 68 85 101 75 98 74 63 91 51 41 66 11 24 26 54 52 62 60 65 73 36 86 65 6 93 36 0 61 0 35 77 25 65 71 33 90 100 79 90 90 88 87 77 90 126 106 121 129 99 113 150 155 145 116 162 148 52 95 97 84 119 129 86 122 124 94 118 114 112 149 128 59 109 86 104 118 130 141 144 167 152 150 147 157 142 135 139 137 134 111 137 148 91 109 143 95 109 122 120 117 88 145 128 96 178 174 148 93 130 98 94 128 89 61 86 42 28 47 14 72 81 88 61 84 104 44 104 106 75 121 89 66 76 53 116 106 92 109 118 83 117 175 85 93 185 70 119 191 93 196 209 178 165 161 171 144 170 170 137 175 140 146 165 134 180 182 195 174 164 225 148 160 232 117 148 216 110 138 155 83 133 84 89 142 84 92 124 71 94 121 18 93 124 0 89 133 0 71 126 0 84 105 62 70 75 91 78 107 77 94 123 79 128 153 146 119 161 173 69 139 187 57 114 199 42 80 191 47 72 189 53 96 202 55 98 207 74 101 218 84 88 235 88 109 226 78 132 148 72 126 178 121 150 255 120 134 255 144 155 255 119 135 255 61 67 219 63 71 183 52 52 160 78 85 179 104 117 209 71 94 201 90 115 194 63 96 189 69 108 215 82 105 221 66 82 181 71 103 164 57 116 74 46 138 53 64 124 188 69 106 175 62 89 146 84 80 145 117 49 150 178 28 191 255 5 255 255 72 213 
62 13 152 50 0 106 38 44 70 18 42 18 23 67 0 28 72 35 45 61 86 48 47 77 39 48 55 0 42 47 0 41 40 17 42 77 13 31 47 41 84 26 20 73 43 9 65 50 48 65 37 42 34 59 22 35 57 34 57 17 41 42 0 61 53 18 50 44 8 0 0 40 14 39 74 0 35 0 51 63 29 77 79 64 40 56 34 44 59 68 18 25 23 17 34 0 49 45 29 54 37 75 45 59 98 3 55 80 32 56 72 66 36 73 48 35 77 54 74 111 13 53 31 33 61 0 48 39 0 23 38 21 24 81 62 46 56 43 45 43 30 60 49 18 65 43 41 69 44 74 67 32 76 47 54 52 15 76 47 23 70 30 38 75 46 33 71 68 56 96 73 120 147 92 155 151 109 146 153 134 116 133 129 68 74 76 35 44 51 16 41 57 0 16 47 39 53 76 36 42 56 36 44 45 34 43 60 28 38 52 41 45 45 15 36 43 17 50 55 25 61 39 79 68 60 81 49 74 33 32 49 13 34 51 4 25 56 35 62 85 45 60 93 63 80 88 37 81 46 37 75 40 49 67 23 39 67 0 59 83 0 50 71 16 39 65 39 23 78 24 36 74 9 52 59 11 65 68 49 72 80 53 67 66 10 97 77 26 88 68 29 120 140 91 231 255 230 236 255 253 255 248 255 255 248 255 127 119 118 14 0 0 47 16 36 87 83 96 116 133 139 87 107 109 28 46 38 0 48 17 0 69 46 45 111 62 75 99 61 69 66 63 73 80 61 36 64 28 47 73 47 146 169 163 245 255 255 255 248 255 253 253 255 220 227 207 64 62 51 31 28 33 66 62 83 61 79 95 60 79 87 64 83 67 30 44 43 37 62 78 41 57 92 48 57 76 72 77 71 63 92 60 30 83 51 19 71 36 22 44 17 50 65 22 66 82 21 59 77 5 93 86 53 85 55 67 110 84 107 84 93 100 17 62 55 10 57 65 0 23 47 24 51 56 84 89 79 80 80 58 78 79 70 84 80 65 87 67 56 78 50 61 55 32 64 36 58 70 39 60 75 69 73 86 77 76 78 35 44 65 52 61 130 62 55 255 34 23 255 39 31 255 19 18 255 39 14 255 54 19 255 22 23 255 35 31 255 62 12 255 79 21 255 60 37 215 33 39 89 33 80 0 44 66 0 62 65 0 59 78 106 30 45 142 41 39 189 0 5 187 44 23 234 66 23 213 73 46 135 33 58 48 0 49 0 0 63 33 25 51 77 76 78 149 55 53 202 51 27 255 53 14 231 95 28 181 98 41 134 84 73 39 71 93 0 66 110 0 55 103 0 64 108 0 64 112 0 56 108 0 68 123 0 33 109 0 60 140 0 87 154 0 72 150 0 66 155 0 79 153 0 71 136 22 89 100 160 84 85 242 42 35 239 71 51 255 75 40 255 82 57 255 99 65 255 87 59 228 88 86 163 67 100 103 64 114 103 76 115 126 90 89 177 93 89 112 95 99 52 78 84 68 85 79 127 66 67 123 68 75 131 47 77 39 85 117 48 85 127 103 74 108 98 67 117 102 73 122 107 58 133 80 111 181 133 130 185 139 136 182 98 157 194 113 156 161 142 148 152 165 168 178 191 154 170 148 139 171 134 118 159 173 87 115 192 77 113 175 81 121 132 46 94 86 62 115 85 34 96 69 50 101 116 64 123 107 68 140 80 67 127 90 65 98 104 82 92 131 58 86 137 62 108 136 73 128 145 83 114 174 80 115 185 61 118 139 56 136 147 127 171 222 182 191 255 227 214 255 177 187 234 96 134 151 67 96 124 95 99 115 109 103 89 99 120 57 75 153 47 45 132 29 58 138 25 121 168 48 108 147 32 93 146 41 37 155 29 0 124 31 0 130 58 0 176 110 0 192 146 0 181 170 0 186 198 0 164 176 0 179 196 0 205 235 0 229 237 0 220 198 0 182 158 0 125 95 0 101 82 0 150 137 0 154 111 0 136 101 0 95 101 0 71 102 0 72 120 0 93 124 0 87 107 0 72 99 0 71 104 0 70 108 0 92 128 0 82 105 0 74 86 0 75 89 0 73 93 0 86 128 0 88 121 0 132 146 0 160 161 0 189 201 0 206 242 0 197 249 0 176 220 0 201 226 0 184 204 0 194 224 
48 0 138 63 9 119 19 25 51 4 28 4 15 59 0 20 64 27 34 50 75 84 83 113 21 30 37 6 49 54 35 79 78 10 35 70 41 59 75 8 51 0 28 81 51 14 70 55 53 70 42 59 51 76 22 35 57 65 88 48 56 57 14 76 68 33 68 62 26 21 28 69 30 55 90 21 58 3 33 45 11 37 39 24 5 21 0 25 40 49 35 42 40 44 61 3 53 49 33 54 37 75 35 49 88 0 51 76 26 50 66 47 17 54 52 39 81 30 50 87 11 51 29 24 52 0 50 41 0 36 51 34 18 75 56 38 48 35 42 40 27 45 34 3 57 35 33 57 32 62 58 23 67 55 62 60 0 52 23 26 73 33 4 41 12 0 30 27 5 45 22 22 49 0 58 54 12 62 69 50 45 62 58 46 52 54 45 54 61 32 57 73 40 61 92 45 59 82 48 54 68 40 48 49 24 33 50 40 50 64 30 34 34 37 58 65 29 62 67 30 66 44 78 67 59 19 0 12 11 10 27 15 36 53 42 63 94 117 144 167 82 97 130 73 90 98 78 122 87 116 154 119 130 148 104 121 149 52 86 110 10 57 78 23 43 69 43 25 80 26 24 62 0 32 39 0 41 44 25 13 21 0 41 40 0 90 70 19 62 42 3 44 64 15 17 57 16 22 50 39 55 44 74 54 45 78 63 55 54 70 52 38 82 51 71 58 54 67 41 58 64 33 53 55 45 63 55 31 80 49 76 146 123 112 178 129 165 189 151 177 174 171 136 143 124 129 157 121 85 111 85 52 75 69 33 44 60 68 61 101 74 74 88 61 68 48 55 53 42 46 43 48 67 63 84 55 73 89 53 72 80 36 55 39 53 67 66 49 74 90 43 59 94 59 68 87 86 91 85 166 195 163 221 255 242 222 255 239 242 255 237 219 234 191 100 116 55 32 50 0 76 69 36 116 86 98 77 51 74 72 81 88 53 98 91 68 115 123 113 147 171 48 75 80 22 27 17 17 17 0 47 48 39 48 44 29 74 54 43 112 84 95 75 52 84 33 55 67 23 44 59 52 56 69 73 72 74 81 90 111 50 59 128 16 9 215 60 49 255 43 35 255 20 19 255 79 54 255 34 0 255 23 24 255 45 41 255 58 8 255 69 11 255 71 48 226 32 38 88 37 84 0 81 103 0 70 73 0 88 107 135 89 104 201 95 93 243 116 123 255 102 81 255 98 55 245 45 18 107 10 35 25 27 104 36 41 112 82 55 81 107 35 37 108 23 21 170 40 16 255 65 26 243 85 18 171 86 29 122 62 51 17 76 98 0 59 103 0 57 105 0 138 182 0 241 255 17 249 255 28 247 255 28 233 255 28 117 197 0 46 113 0 0 67 0 15 104 0 37 111 0 19 84 0 41 52 112 44 45 202 37 30 234 42 22 255 64 29 255 33 8 255 64 30 255 18 0 159 0 0 67 6 39 42 47 97 86 90 129 140 120 119 207 85 81 104 58 62 15 46 52 36 68 62 110 101 102 158 127 134 190 156 186 148 141 173 104 131 173 149 107 141 131 62 112 97 76 125 110 70 145 92 42 112 64 54 109 63 52 98 14 67 104 23 155 160 141 157 161 174 117 127 140 76 92 70 0 31 0 11 52 66 71 99 176 52 88 150 80 120 131 20 68 60 64 117 87 60 122 95 61 112 127 70 129 113 47 119 59 61 121 84 90 123 129 76 86 125 79 107 158 75 121 149 69 124 141 113 144 204 117 152 222 122 179 200 122 202 213 155 199 250 176 185 254 157 144 209 137 147 194 87 125 142 94 123 151 95 99 115 89 83 69 83 104 41 51 129 23 53 140 37 55 135 22 86 133 13 94 133 18 70 123 18 27 145 19 0 142 49 0 131 59 0 177 111 0 171 125 0 201 190 9 255 255 75 255 255 75 255 255 75 255 255 71 255 255 0 179 157 0 184 160 0 199 169 0 182 163 0 164 151 0 146 103 0 180 145 0 198 204 0 186 217 0 171 219 0 185 216 0 202 222 0 179 206 0 191 224 0 160 198 0 166 202 0 161 184 0 168 180 0 156 170 0 179 199 0 171 213 0 183 216 0 182 196 0 163 164 0 162 174 0 168 204 0 173 225 0 180 224 0 177 202 0 184 204 0 216 246 
43 45 45 25 21 6 6 2 0 9 10 0 32 13 21 94 75 106 94 91 122 59 75 87 23 57 57 0 35 0 19 61 35 32 70 59 31 59 33 37 67 19 13 47 1 31 57 22 51 46 52 64 38 51 74 58 57 60 57 62 46 74 71 17 77 55 0 45 29 25 59 57 11 30 58 24 51 74 15 54 37 31 54 40 52 36 51 50 31 46 63 43 66 20 28 26 37 66 26 29 63 16 36 46 25 57 49 52 43 45 54 2 53 34 14 62 37 44 53 60 46 38 84 47 60 126 10 45 125 1 31 129 39 49 86 32 61 45 39 74 66 38 59 76 43 49 51 35 58 0 25 57 0 37 59 0 45 37 13 30 48 50 17 37 48 37 51 48 43 40 19 52 57 47 34 62 87 13 58 65 31 61 49 22 57 37 27 74 44 17 59 83 27 56 136 22 36 146 40 26 161 40 6 117 54 20 41 42 41 0 57 59 0 80 65 72 56 54 81 49 79 21 22 69 0 5 50 0 51 52 42 62 54 17 68 104 18 48 106 8 51 78 47 77 72 98 57 41 55 89 97 96 94 117 119 92 127 107 132 140 131 67 72 38 37 54 0 15 43 0 7 42 0 23 88 8 0 38 66 48 48 46 57 67 0 41 73 0 44 85 18 51 81 59 38 36 87 60 52 81 23 43 6 33 42 53 63 33 83 74 36 81 97 63 109 56 46 69 87 81 69 56 63 59 51 51 99 81 84 115 43 83 61 1 83 33 42 61 46 118 22 74 162 44 92 168 24 29 158 0 0 92 0 30 97 30 95 101 47 95 47 111 98 0 97 66 0 103 41 0 171 75 0 153 80 82 85 88 69 48 31 54 47 25 53 45 44 30 69 76 14 99 80 33 96 55 0 130 48 70 73 68 60 60 56 63 79 64 68 57 26 75 25 40 147 5 75 190 0 73 71 83 55 16 107 52 20 72 38 41 66 56 89 58 75 99 49 70 52 61 78 21 66 71 64 48 45 109 21 33 115 42 76 88 51 73 41 50 41 24 77 45 36 69 52 43 50 72 11 105 95 0 102 67 0 107 85 57 105 95 84 63 28 114 41 22 48 30 28 22 66 55 56 80 68 71 83 75 65 75 78 72 61 79 23 72 65 2 90 54 42 78 82 68 42 68 90 63 66 87 80 56 46 89 57 40 101 84 52 75 68 62 56 46 47 58 55 44 58 55 64 74 59 52 75 61 67 70 73 54 40 41 62 43 33 66 55 59 59 68 75 47 64 72 49 54 64 42 43 26 73 68 60 39 56 34 23 75 15 4 86 0 36 92 17 88 106 78 78 78 92 72 84 120 55 45 104 88 44 129 101 35 113 72 24 68 61 58 39 39 67 7 71 78 32 65 69 59 19 46 65 5 63 89 0 31 84 44 63 92 46 73 70 42 59 151 35 52 198 42 57 174 58 37 128 73 56 97 63 61 122 45 51 141 77 73 112 54 57 16 63 57 29 66 82 21 97 110 78 149 151 152 192 163 203 205 176 228 174 189 198 138 179 183 126 151 160 113 120 114 93 104 83 67 114 58 66 126 52 67 112 57 95 109 22 87 98 7 73 98 44 63 114 57 60 113 71 69 101 161 80 89 178 65 81 146 57 66 157 45 71 160 48 74 136 88 97 152 90 92 93 79 115 19 77 113 1 84 119 0 85 126 0 108 137 59 97 109 85 100 107 77 83 80 77 78 87 116 82 104 142 113 115 152 155 131 171 162 141 206 162 166 226 145 178 225 144 166 204 148 174 200 122 146 198 91 122 182 82 116 106 48 92 19 81 105 41 90 119 67 82 98 83 86 105 71 77 117 42 63 108 5 87 120 55 69 108 89 64 104 107 71 109 124 64 93 119 75 90 133 82 99 167 65 107 203 82 128 202 90 100 173 107 100 192 82 95 177 63 106 171 68 115 183 100 110 194 101 84 184 90 95 191 53 88 158 52 82 146 75 84 167 68 76 165 71 113 199 72 138 210 59 117 194 82 108 215 70 67 198 92 80 218 131 135 255 96 126 228 101 106 199 64 56 169 38 34 145 49 80 175 63 116 200 50 122 182 62 96 171 70 101 193 63 89 188 57 79 192 73 82 197 59 82 174 63 94 163 84 105 182 79 84 187 76 78 203 43 69 194 
1 3 3 22 18 3 108 104 89 99 100 83 85 66 74 36 17 48 19 16 47 30 46 58 27 61 61 24 82 45 14 56 30 10 48 37 31 59 33 24 54 6 47 81 35 29 55 20 49 44 50 67 41 54 58 42 41 69 66 71 35 63 60 14 74 52 0 53 37 13 47 45 17 36 64 21 48 71 24 63 46 40 63 49 62 46 61 30 11 26 44 24 47 8 16 14 23 52 12 42 76 29 47 57 36 83 75 78 43 45 54 2 53 34 29 77 52 36 45 52 104 96 142 42 55 121 16 51 131 23 53 151 29 39 76 54 83 67 29 64 56 26 47 64 46 52 54 36 59 0 24 56 0 54 76 0 43 35 11 36 54 56 34 54 65 31 45 42 48 45 24 43 48 38 25 53 78 0 35 42 45 75 63 28 63 43 36 83 53 18 60 84 3 32 112 13 27 137 35 21 156 81 47 158 64 30 51 67 66 0 47 49 0 54 39 46 59 57 84 34 64 6 40 87 0 24 69 0 45 46 36 67 59 22 39 75 0 32 90 0 34 61 30 51 46 72 67 51 65 66 74 73 53 76 78 21 56 36 40 48 39 29 34 0 47 64 0 53 81 36 21 56 1 31 96 16 2 45 73 51 51 49 73 83 0 39 71 0 59 100 33 38 68 46 46 44 95 54 46 75 36 56 19 50 59 70 82 52 102 79 41 86 78 44 90 60 50 73 60 54 42 66 73 69 63 63 111 63 66 97 46 86 64 4 86 36 51 70 55 109 13 65 128 10 58 144 0 5 176 3 18 138 30 76 100 33 98 101 47 95 20 84 71 0 109 78 0 121 59 0 157 61 0 129 56 65 68 71 81 60 43 73 66 44 78 70 69 34 73 80 0 80 61 21 84 43 0 120 38 69 72 67 61 61 57 60 76 61 57 46 15 89 39 54 162 20 90 201 6 84 63 75 47 10 101 46 23 75 41 32 57 47 83 52 69 76 26 47 48 57 74 33 78 83 89 73 70 117 29 41 113 40 74 67 30 52 79 88 79 136 189 157 233 255 249 247 254 255 167 255 251 34 173 138 0 58 36 0 36 26 82 61 26 125 52 33 100 82 80 37 81 70 36 60 48 41 53 45 45 55 58 85 74 92 35 84 77 29 117 81 56 92 96 75 49 75 80 53 56 70 63 39 37 80 48 40 101 84 62 85 78 73 67 57 47 58 55 33 47 44 0 9 0 37 60 46 51 54 57 123 109 110 136 117 107 76 65 69 44 53 60 19 36 44 60 65 75 72 73 56 87 82 74 73 90 68 26 78 18 14 96 10 67 123 48 107 125 97 140 140 154 127 139 175 70 60 119 53 9 94 112 46 124 104 56 100 61 58 39 58 86 26 36 43 0 37 41 31 52 79 98 17 75 101 26 64 117 36 55 84 6 33 30 20 37 129 19 36 182 52 67 184 81 60 151 69 52 93 78 76 137 51 57 147 72 68 107 78 81 40 82 76 48 95 111 50 131 144 112 168 170 171 204 175 215 204 175 227 167 182 191 122 163 167 133 158 167 136 143 137 110 121 100 101 148 92 62 122 48 83 128 73 119 133 46 115 126 35 101 126 72 79 130 73 53 106 64 63 95 155 81 90 179 72 88 153 88 97 188 81 107 196 85 111 173 101 110 165 108 110 111 88 124 28 97 133 21 91 126 0 68 109 0 72 101 23 77 89 65 92 99 69 112 109 106 93 102 131 116 138 176 141 143 180 163 139 179 159 138 203 149 153 213 127 160 207 115 137 175 115 141 167 105 129 181 125 156 216 232 255 255 232 255 203 245 255 205 240 255 217 135 151 136 52 71 37 16 56 0 0 25 0 0 18 0 39 78 59 70 110 113 80 118 133 74 103 129 45 60 103 50 67 135 63 105 201 96 142 216 90 100 173 121 114 206 111 124 206 71 114 179 83 130 198 83 93 177 75 58 158 84 89 185 74 109 179 75 105 169 94 103 186 79 87 176 46 88 174 67 133 205 38 96 173 68 94 201 78 75 206 74 62 200 90 94 231 63 93 195 89 94 187 93 85 198 79 75 186 57 88 183 36 89 173 40 112 172 79 113 188 63 94 186 75 101 200 55 77 190 81 90 205 73 96 188 78 109 178 86 107 184 95 100 203 132 134 255 166 192 255 
54 51 32 44 40 17 49 57 55 55 63 61 154 158 155 225 220 239 226 237 255 162 186 186 60 71 40 9 40 0 7 54 14 63 81 69 85 85 75 33 37 26 40 55 48 39 56 62 55 26 70 111 47 112 48 0 38 68 12 39 74 41 48 62 58 33 27 47 34 0 40 39 0 69 35 0 87 11 0 108 44 5 91 68 18 34 35 30 21 38 43 31 57 22 29 70 38 59 104 43 54 62 28 63 34 0 49 48 22 50 76 48 75 78 61 77 54 76 91 46 14 85 18 24 48 12 51 38 8 23 76 42 2 85 55 8 86 58 21 71 84 54 17 83 81 31 78 27 64 42 31 58 61 56 49 78 56 53 48 67 45 17 58 33 1 26 32 34 14 37 56 39 51 39 64 61 30 45 57 45 21 63 55 0 58 46 29 66 62 27 41 53 44 58 73 35 63 63 44 55 50 79 51 54 52 29 9 61 70 27 33 56 22 59 75 76 26 47 54 37 52 35 34 59 16 4 54 33 25 88 94 11 40 58 50 60 63 33 38 32 28 55 60 34 66 91 41 59 73 69 51 61 59 31 34 50 50 40 26 50 4 45 60 0 44 47 4 46 38 14 68 55 25 66 71 39 73 79 79 72 53 103 58 45 120 29 41 95 12 28 239 3 23 255 31 32 255 41 33 226 40 40 148 71 50 167 58 23 127 73 51 41 59 51 0 48 53 0 58 75 37 42 50 75 36 69 92 21 80 87 40 85 68 65 74 39 73 47 80 73 42 62 53 59 19 49 82 27 69 88 46 79 71 119 78 59 188 61 73 85 30 79 28 18 61 30 54 64 41 69 54 47 62 47 62 72 99 32 29 91 6 39 76 47 67 61 85 45 32 97 42 62 126 40 76 80 38 68 30 69 74 81 65 52 94 65 67 78 50 60 37 63 64 21 53 66 34 52 69 77 44 79 97 7 81 60 6 96 74 4 76 74 35 64 74 54 46 58 62 60 59 64 71 51 66 59 26 76 59 53 43 44 50 44 78 58 38 99 70 41 77 79 52 55 86 69 42 85 87 49 74 79 49 69 77 72 98 56 56 76 75 82 76 64 78 57 40 53 37 24 58 20 20 71 0 72 100 37 72 80 69 78 58 79 63 43 58 40 58 48 26 75 59 65 87 88 63 65 74 66 66 76 50 87 94 16 82 56 25 80 35 47 66 22 62 71 40 63 73 76 50 62 64 63 50 55 75 40 66 94 46 82 106 63 105 86 44 106 60 26 75 63 38 56 62 47 32 89 71 13 114 82 57 83 43 55 103 31 65 81 16 34 61 39 30 78 95 57 69 97 96 43 98 114 8 87 98 0 84 98 0 101 96 0 108 37 46 87 0 64 70 0 63 57 9 63 74 44 40 61 44 74 67 63 62 45 73 74 33 147 75 46 174 12 59 115 0 70 80 10 68 0 30 101 0 66 98 0 56 74 158 5 84 201 51 82 238 86 56 220 120 75 254 182 80 255 193 97 255 161 184 232 136 206 168 141 176 104 175 181 143 184 173 217 157 184 205 128 198 183 112 166 154 129 126 103 133 121 113 106 116 156 118 156 91 116 160 95 125 167 131 143 167 127 156 155 147 147 125 185 142 127 110 251 71 71 255 62 99 255 68 113 255 74 127 255 14 79 255 37 55 255 107 101 232 164 151 119 183 145 25 126 82 0 27 0 95 71 71 133 127 87 115 130 89 114 132 124 109 130 109 131 127 76 171 191 131 118 223 155 103 167 144 127 167 181 101 132 138 103 117 130 102 120 204 97 90 255 130 111 204 73 122 153 67 109 161 75 89 164 40 83 111 61 91 67 114 109 5 93 94 22 97 116 110 85 104 88 92 111 78 113 124 93 89 113 99 43 117 94 30 110 99 44 87 92 75 110 130 69 111 137 49 112 133 69 102 159 76 106 192 104 129 244 83 86 239 71 83 215 38 94 157 66 115 170 189 192 255 255 236 255 255 236 255 242 251 255 217 255 255 121 152 231 64 52 202 27 36 205 61 108 238 41 98 189 70 108 207 86 86 232 87 77 211 81 106 203 70 100 198 14 60 150 71 98 191 77 96 184 73 111 160 62 101 158 80 87 190 78 98 181 98 107 164 90 105 172 75 104 194 65 125 199 71 140 219 41 102 169 
67 64 45 44 40 17 29 37 35 41 49 47 26 30 27 4 0 18 0 4 35 7 31 31 70 81 50 94 125 72 39 86 46 25 43 31 1 1 0 22 26 15 56 71 64 58 75 81 78 49 93 67 3 68 75 8 65 77 21 48 93 60 67 60 56 31 31 51 38 3 57 56 0 65 31 0 85 9 0 81 17 0 77 54 13 29 30 58 49 66 67 55 81 47 54 95 22 43 88 46 57 65 0 28 0 8 62 61 23 51 77 12 39 42 49 65 42 25 40 0 0 57 0 27 51 15 83 70 40 6 59 25 0 32 2 0 26 0 0 13 26 18 0 47 29 0 26 0 13 0 0 7 10 1 0 23 2 0 0 18 0 0 21 0 0 0 1 3 0 4 23 0 4 0 59 56 25 71 83 71 74 116 108 63 123 111 112 149 145 215 229 241 243 255 255 235 255 255 240 251 246 222 194 197 139 116 96 30 39 0 24 47 13 1 17 18 0 14 21 0 13 0 49 74 31 47 97 76 31 94 100 46 75 93 28 38 41 25 30 24 45 72 77 3 35 60 32 50 64 98 80 90 79 51 54 77 77 67 47 71 25 43 58 0 36 39 0 82 74 50 69 56 26 62 67 35 47 53 53 56 37 87 54 41 116 47 59 113 26 42 253 3 23 255 44 45 255 21 13 206 60 60 168 49 28 145 61 26 130 74 52 42 48 40 0 60 65 10 46 63 25 49 57 82 30 63 86 7 66 73 19 64 47 58 67 32 84 58 91 87 56 76 64 70 30 24 57 2 47 66 24 57 49 97 52 33 162 60 72 84 35 84 33 62 105 74 61 71 48 101 86 79 70 55 70 73 100 33 37 99 14 35 72 43 59 53 77 43 30 95 50 70 134 42 78 82 69 99 61 48 53 60 67 54 96 36 38 49 75 85 62 72 73 30 51 64 32 47 64 72 34 69 87 27 101 80 20 110 88 49 121 119 182 211 221 255 251 255 255 254 253 252 255 239 197 190 157 92 75 69 40 41 47 50 84 64 36 97 68 63 99 101 33 36 67 55 28 71 56 18 43 78 48 68 55 50 76 47 47 67 60 67 61 77 91 70 74 87 71 42 76 38 24 75 0 37 65 2 61 69 58 58 38 59 85 65 80 26 44 34 36 85 69 63 85 86 45 47 56 67 67 77 47 84 91 6 72 46 37 92 47 32 51 7 42 51 20 61 71 74 67 79 81 84 71 76 70 35 61 79 31 67 83 40 82 83 41 103 88 54 103 70 45 63 65 50 35 91 73 15 68 36 11 94 54 66 89 17 51 111 46 64 74 52 43 65 82 44 34 62 61 17 72 88 14 93 104 0 62 76 0 118 113 0 90 19 45 86 0 55 61 0 61 55 7 58 69 39 50 71 54 52 45 41 48 31 59 80 39 153 107 78 206 74 121 177 19 95 105 7 65 0 0 58 0 10 42 0 21 39 123 0 78 195 61 92 248 95 65 229 122 77 255 138 36 255 118 22 255 85 108 156 69 139 101 110 145 73 174 180 142 172 161 205 141 168 189 141 211 196 133 187 175 161 158 135 160 148 140 131 141 181 108 146 81 95 139 74 100 142 106 107 131 91 170 169 161 179 157 217 197 182 165 255 127 127 255 99 136 255 76 121 255 58 111 255 63 128 255 72 90 255 102 96 196 128 115 54 118 80 19 120 76 9 87 51 126 102 102 106 100 60 99 114 73 96 114 106 87 108 87 92 88 37 64 84 24 0 63 0 98 162 139 118 158 172 142 173 179 133 147 160 125 143 227 141 134 255 138 119 212 47 96 127 63 105 157 71 85 160 106 149 177 123 153 129 108 103 0 124 125 53 103 122 116 39 58 42 97 116 83 103 114 83 117 141 127 122 196 173 38 118 107 72 115 120 91 126 146 74 116 142 53 116 137 72 105 162 54 84 170 82 107 222 84 87 240 71 83 215 39 95 158 67 116 171 97 100 189 113 90 194 106 82 182 65 74 129 8 58 83 37 68 147 66 54 204 64 73 242 97 144 255 61 118 209 73 111 210 58 58 204 76 66 200 60 85 182 81 111 209 68 114 204 66 93 186 65 84 172 56 94 143 40 79 136 80 87 190 90 110 193 102 111 168 102 117 184 69 98 188 27 87 161 28 97 176 50 111 178 
53 29 53 48 10 47 76 42 81 15 13 38 25 61 73 32 49 53 43 51 42 54 52 61 48 39 44 44 37 40 45 40 32 49 42 36 48 41 34 57 59 62 20 62 60 17 72 62 6 60 46 12 46 33 8 62 38 0 48 42 0 60 66 31 55 55 28 39 21 41 47 21 53 53 31 106 74 111 91 45 93 68 63 82 30 35 43 1 0 10 25 32 39 0 6 24 48 80 89 20 66 41 7 55 21 0 32 0 0 27 0 49 50 23 47 58 37 38 78 27 18 63 10 41 55 18 61 51 28 50 50 28 31 57 34 11 46 36 26 48 58 30 40 53 37 37 57 38 37 39 12 22 35 8 32 116 37 67 139 53 66 60 95 50 43 109 19 32 131 6 0 145 15 0 103 55 0 80 60 0 97 55 0 75 69 0 24 102 0 0 104 0 0 105 46 0 89 56 32 50 86 65 55 76 28 47 41 47 50 95 34 40 52 33 44 24 46 57 39 0 89 0 0 105 56 38 53 120 14 46 115 40 63 111 100 122 123 239 255 251 255 226 255 255 204 255 221 255 255 58 98 99 16 60 47 0 44 2 81 50 52 122 71 62 62 85 0 2 61 0 2 36 52 20 27 85 52 18 83 60 47 89 9 58 25 38 87 10 58 81 5 78 94 0 70 76 0 96 71 99 51 54 51 0 37 16 24 44 47 44 40 51 50 54 80 47 74 97 34 87 19 31 66 48 39 59 46 21 49 4 30 54 32 40 58 48 61 73 45 52 73 20 38 82 0 54 86 37 83 54 106 107 71 147 117 99 145 98 93 119 89 85 96 60 31 63 106 36 86 106 21 2 173 46 0 253 3 0 208 0 0 234 0 77 228 0 74 253 0 80 255 0 100 230 0 128 213 0 121 100 15 86 0 82 32 7 120 50 66 83 55 83 53 73 109 68 98 124 55 96 109 39 77 111 57 61 84 34 55 46 59 79 0 110 63 0 62 43 50 56 30 52 35 0 58 34 38 56 77 86 15 102 46 0 103 54 0 68 37 19 59 47 39 70 102 44 81 104 72 102 80 58 49 30 116 36 49 106 17 33 72 31 77 73 69 114 41 84 6 27 104 0 72 54 0 99 47 21 71 78 49 68 86 52 39 60 43 24 53 96 81 0 193 88 0 194 20 77 98 6 54 18 49 79 55 52 86 47 64 58 58 62 64 75 0 81 47 29 77 78 39 51 79 55 51 87 48 38 77 71 67 52 85 86 42 89 74 57 88 59 49 52 25 56 47 43 116 39 33 81 56 71 88 25 57 68 34 68 55 17 62 81 51 78 147 101 135 148 235 255 221 255 255 171 255 248 146 255 230 217 162 74 144 173 102 132 255 148 185 255 70 149 227 22 105 145 0 96 89 0 28 150 53 74 140 44 93 102 47 137 38 46 131 26 46 83 47 79 80 66 90 114 61 81 104 89 97 62 87 122 14 76 166 0 100 169 41 129 144 125 123 130 160 104 115 182 110 131 172 124 175 156 169 156 134 207 163 168 151 185 112 98 155 62 75 135 77 59 122 21 109 105 56 157 121 117 116 151 109 91 152 149 99 140 198 128 178 91 153 186 67 146 189 69 128 203 52 137 203 66 143 167 83 148 173 67 143 162 69 140 159 109 134 161 130 115 136 131 105 109 124 98 91 67 108 109 27 113 139 54 82 116 67 72 126 88 56 89 32 73 105 10 115 166 61 225 255 200 226 255 219 228 255 201 240 255 180 101 147 60 59 103 68 82 120 135 82 118 164 87 119 180 96 109 176 87 79 153 112 81 173 108 112 185 79 95 130 76 100 112 117 109 138 90 74 109 107 89 115 125 96 126 80 85 105 62 111 142 59 121 158 51 104 148 97 149 213 55 130 210 36 148 233 123 191 255 136 131 248 158 124 255 94 63 189 66 69 152 104 109 187 104 118 195 92 118 191 93 121 180 57 86 130 71 134 165 48 114 152 41 86 127 103 107 146 103 86 126 45 58 115 58 84 157 63 77 164 82 75 156 120 105 172 114 94 179 76 79 168 70 113 180 51 88 144 56 79 137 76 90 165 42 57 154 63 98 192 43 112 193 47 93 182 71 99 195 55 88 195 57 91 200 59 112 202 68 107 198 81 107 206 94 101 204 83 111 206 64 80 177 
72 48 72 66 28 65 51 17 56 22 20 45 0 31 43 49 66 70 45 53 44 50 48 57 53 44 49 34 27 30 69 64 56 96 89 83 74 67 60 59 61 64 0 35 33 0 17 7 0 22 8 0 23 10 24 78 54 28 93 87 6 67 73 5 29 29 27 38 20 40 46 20 62 62 40 80 48 85 65 19 67 31 26 45 30 35 43 44 40 53 32 39 46 57 76 94 25 57 66 0 44 19 21 69 35 12 51 16 25 58 19 51 52 25 39 50 29 8 48 0 45 90 37 152 166 129 255 254 231 255 255 235 239 255 242 158 193 183 39 61 71 11 21 34 54 54 74 49 48 50 54 64 77 6 30 114 0 22 94 51 64 58 78 33 26 84 0 7 89 0 0 110 0 0 113 65 0 192 172 0 152 110 0 50 44 0 8 86 0 0 81 0 0 140 81 0 104 71 0 6 42 34 24 45 57 76 70 63 66 111 54 60 72 37 48 28 27 38 20 0 105 15 0 92 43 30 45 112 11 43 112 33 56 104 28 50 51 21 45 33 98 39 135 100 0 162 33 72 125 26 66 67 8 52 39 3 62 20 46 15 17 73 22 13 35 58 0 15 74 0 29 63 79 40 47 105 78 44 109 55 42 84 40 89 56 38 87 10 52 75 0 47 63 0 45 51 0 61 36 64 50 53 50 38 75 54 0 20 23 39 35 46 32 36 62 23 50 73 38 91 23 17 52 34 43 63 50 46 74 29 79 103 81 57 75 65 38 50 22 23 44 0 9 53 0 53 85 36 111 82 134 107 71 147 100 82 128 104 99 125 94 90 101 108 79 111 109 39 89 102 17 0 142 15 0 244 0 0 242 0 26 229 0 72 224 0 70 209 0 36 225 0 59 225 0 123 248 0 156 126 41 112 12 108 58 23 136 66 44 61 33 79 49 69 81 40 70 88 19 60 130 60 98 106 52 56 116 66 87 41 54 74 0 95 48 22 89 70 62 68 42 93 76 36 58 34 38 36 57 66 0 73 17 0 111 62 20 93 62 53 93 81 39 70 102 30 67 90 39 69 47 61 52 33 67 0 0 92 3 19 86 45 91 89 85 130 119 162 84 56 133 0 85 67 0 87 35 9 43 50 21 49 67 33 42 63 46 27 56 99 91 9 203 89 1 195 10 67 88 29 77 41 39 69 45 48 82 43 65 59 59 33 35 46 0 76 42 26 74 75 45 57 85 59 55 91 60 50 89 51 47 32 60 61 17 77 62 45 87 58 48 89 62 93 56 52 125 49 43 91 22 37 54 8 40 51 55 89 76 33 78 97 62 89 158 54 88 101 42 78 28 45 44 0 53 0 0 91 3 0 91 3 73 160 89 119 196 58 95 189 0 51 166 0 44 122 0 73 138 4 77 120 23 44 131 35 84 107 52 142 41 49 134 45 65 102 59 91 92 53 77 101 62 82 105 95 103 68 85 120 12 71 161 0 90 159 31 99 114 95 95 102 132 93 104 171 98 119 160 142 193 174 201 188 166 218 174 179 157 191 118 131 188 95 111 171 113 80 143 42 116 112 63 123 87 83 74 109 67 94 155 152 88 129 187 112 162 75 172 205 86 115 158 38 120 195 44 158 224 87 194 218 134 187 212 106 170 189 96 163 182 132 140 167 136 157 178 173 144 148 163 140 133 109 188 189 107 164 190 105 138 172 123 143 197 159 132 165 108 135 167 72 182 233 128 126 181 101 103 153 96 66 116 39 54 90 0 90 136 49 84 128 93 38 76 91 48 84 130 45 77 138 72 85 152 113 105 179 110 79 171 81 85 158 104 120 155 73 97 109 98 90 119 127 111 146 98 80 106 116 87 117 93 98 118 55 104 135 50 112 149 59 112 156 54 106 170 38 113 193 0 109 194 19 87 182 77 72 189 92 58 195 118 87 213 87 90 173 96 101 179 103 117 194 82 108 181 90 118 177 83 112 156 35 98 129 49 115 153 40 85 126 75 79 118 89 72 112 58 71 128 78 104 177 76 90 177 88 81 162 81 66 133 92 72 157 93 96 185 69 112 179 68 105 161 74 97 155 72 86 161 84 99 196 45 80 174 20 89 170 49 95 184 62 90 186 72 105 212 66 100 209 57 110 200 67 106 197 88 114 213 77 84 187 78 106 201 131 147 244 
0 51 13 36 58 0 57 27 0 68 27 13 61 35 52 19 62 54 0 69 42 38 93 63 41 49 47 45 54 73 33 61 60 0 46 32 13 65 30 12 26 0 57 25 12 43 30 26 50 64 61 46 58 96 44 57 79 52 54 29 53 33 18 30 43 37 1 61 63 19 59 98 6 35 45 19 34 0 21 42 11 43 81 82 216 255 255 247 253 255 255 251 251 255 255 205 79 130 75 8 83 56 0 38 21 6 53 21 34 77 36 26 65 30 28 59 55 15 3 55 50 0 45 59 19 33 41 37 40 48 55 53 57 50 72 36 63 96 0 66 129 0 31 156 0 16 192 4 46 142 43 48 82 51 58 82 47 39 48 74 29 0 92 30 0 92 59 0 46 55 0 18 65 33 0 51 51 35 57 56 52 36 51 57 39 41 67 80 76 36 51 42 31 63 26 18 71 41 43 49 23 55 68 28 45 75 53 0 34 11 0 51 34 5 33 59 47 23 27 44 59 44 0 52 41 24 61 40 12 48 52 55 49 85 86 45 49 87 53 40 58 46 44 20 45 51 8 45 75 23 48 83 57 74 104 29 54 98 35 52 152 39 44 148 61 18 85 67 33 72 49 47 72 104 91 122 234 216 224 255 255 196 255 255 125 255 255 161 141 179 131 43 60 58 108 96 106 82 72 71 43 51 40 6 20 33 0 8 44 39 64 82 68 74 62 73 102 72 22 83 38 0 53 18 0 64 15 19 70 25 46 60 38 33 63 51 49 86 65 57 73 51 51 52 34 66 46 61 92 55 120 66 56 107 71 75 116 84 58 167 86 16 250 80 4 255 55 11 255 19 0 255 51 18 255 57 17 255 48 8 255 24 4 255 15 18 255 51 61 207 18 40 151 33 39 161 0 9 125 0 3 89 57 64 97 49 43 65 78 40 255 94 57 255 73 56 226 90 86 211 72 85 116 45 74 68 37 64 149 12 45 42 23 39 0 12 24 0 26 47 0 41 53 17 59 65 105 39 40 80 33 30 45 59 61 44 39 53 18 93 105 103 82 97 114 74 81 111 104 103 123 95 98 117 76 99 119 69 76 108 67 49 93 57 35 43 65 75 28 40 76 54 19 67 85 33 81 55 54 94 35 118 159 69 246 255 191 252 253 255 255 242 255 253 255 253 124 109 74 102 89 87 140 136 181 70 75 145 76 90 139 25 51 15 26 71 0 44 81 60 53 96 124 55 86 66 37 53 0 31 50 0 10 37 0 26 38 64 46 43 82 67 72 54 63 84 67 37 57 94 81 92 152 118 111 141 164 136 146 200 169 188 177 148 178 111 74 130 73 55 89 11 32 0 21 56 0 64 82 54 55 66 46 37 58 11 17 73 0 17 62 0 21 53 28 35 61 62 30 56 39 20 53 20 37 73 57 57 64 97 70 67 98 75 98 82 62 85 71 66 84 112 123 132 179 126 157 173 85 184 141 66 203 119 63 152 84 112 140 113 136 139 118 161 161 111 220 183 140 255 242 208 255 243 217 255 255 221 221 255 207 136 247 138 101 227 106 79 191 92 176 204 157 192 146 109 138 65 8 102 45 0 23 0 0 0 8 0 0 12 0 58 129 39 199 255 172 221 255 189 207 255 175 43 91 0 9 11 0 11 9 0 29 0 0 25 1 0 0 19 0 0 15 0 0 9 0 0 16 0 0 34 0 4 98 0 8 156 50 38 128 54 27 51 29 133 93 116 163 80 120 142 76 125 146 120 182 99 92 156 97 96 165 108 143 197 35 120 165 31 189 215 21 173 200 41 106 152 99 111 163 74 96 150 103 125 178 107 121 159 96 90 116 91 89 125 64 92 141 82 109 192 72 100 196 70 108 205 92 117 221 73 99 206 100 92 215 81 66 179 55 71 160 51 92 172 68 91 183 87 107 190 91 107 136 72 110 45 61 110 30 54 115 59 63 100 97 101 98 139 78 84 124 66 83 113 73 89 152 56 85 165 63 93 157 49 84 100 44 90 78 72 109 114 86 108 161 75 104 186 47 92 169 46 81 159 63 81 167 86 97 203 82 89 205 75 96 163 79 102 168 70 86 185 88 78 213 73 51 233 70 62 213 89 74 151 102 66 160 157 70 199 255 26 207 255 0 181 255 0 130 255 0 120 255 11 199 255 34 243 
115 169 131 154 176 64 135 105 55 112 71 57 255 237 254 225 255 255 197 255 255 207 255 232 82 90 88 27 36 55 34 62 61 22 68 54 1 53 18 37 51 12 44 12 0 68 55 51 46 60 57 58 70 108 109 122 144 110 112 87 110 90 75 75 88 82 0 36 38 0 11 50 0 27 37 56 71 26 35 56 25 25 63 64 13 57 80 15 21 49 60 48 48 57 64 6 10 61 6 0 55 28 0 46 29 0 17 0 8 51 10 28 67 32 44 75 71 65 53 105 60 1 55 62 22 36 31 27 30 51 58 56 62 55 77 28 55 88 0 56 119 0 48 173 0 37 213 0 25 121 34 39 73 36 43 67 31 23 32 72 27 0 89 27 0 65 32 0 68 77 0 13 60 28 19 79 79 37 59 58 75 59 74 175 157 159 246 255 255 245 255 251 236 255 231 162 215 185 11 17 0 0 10 0 28 58 36 50 94 71 72 128 111 43 71 97 58 34 38 82 97 82 128 180 169 153 190 169 95 131 135 37 31 67 35 0 0 77 43 30 65 53 51 68 93 99 26 63 93 0 24 59 37 54 84 27 52 96 25 42 142 61 66 170 72 29 96 58 24 63 52 50 75 46 33 64 65 47 55 82 64 4 74 61 0 44 51 0 26 64 16 49 66 64 26 14 24 17 7 6 17 25 14 8 22 35 84 126 162 83 108 126 69 75 63 19 48 18 0 58 13 32 88 53 30 98 49 23 74 29 30 44 22 29 59 47 30 67 46 67 83 61 67 68 50 56 36 51 99 62 127 74 64 115 47 51 92 60 34 143 73 3 237 62 0 255 68 24 255 67 42 255 27 0 255 66 26 255 55 15 255 28 8 255 41 44 255 30 40 186 28 50 161 34 40 162 23 35 151 37 41 127 46 53 86 78 72 94 68 30 249 75 38 241 79 62 232 53 49 174 46 59 90 29 58 52 7 34 119 22 55 52 37 53 2 45 57 0 43 64 0 63 75 39 46 52 92 50 51 91 63 60 75 67 69 52 85 99 64 70 82 80 88 103 120 76 83 113 22 21 41 33 36 55 39 62 82 95 102 134 149 131 175 125 103 111 48 58 11 6 42 20 9 57 75 37 85 59 43 83 24 27 68 0 30 55 0 38 39 56 66 53 131 91 94 91 89 74 39 78 65 63 62 58 103 29 34 104 26 40 89 46 72 36 50 95 6 40 77 56 39 82 110 33 64 44 47 63 2 59 78 10 34 61 18 24 36 62 50 47 86 53 58 40 71 92 75 64 84 121 42 53 113 62 55 85 81 53 63 91 60 79 67 38 68 63 26 82 37 19 53 36 57 12 44 79 11 46 64 36 62 73 53 47 68 21 6 62 0 22 67 0 17 49 24 63 89 90 49 75 58 30 63 30 43 79 63 53 60 93 105 102 133 113 136 120 132 155 141 159 177 205 143 152 199 123 154 170 54 153 110 19 156 72 58 147 79 109 137 110 139 142 121 168 168 118 199 162 119 226 171 137 223 175 149 174 178 139 130 190 116 89 200 91 77 203 82 75 187 88 132 160 113 184 138 101 211 138 81 181 124 57 158 134 76 176 184 133 208 230 177 183 254 164 149 235 122 140 203 108 124 199 92 125 173 63 172 174 77 160 158 71 200 170 94 228 204 126 150 184 102 148 176 116 145 166 137 83 121 76 43 91 27 30 124 24 0 127 21 64 154 80 88 112 90 109 69 92 173 90 130 156 90 139 166 140 202 144 137 201 110 109 178 79 114 168 65 150 195 7 165 191 0 151 178 75 140 186 71 83 135 92 114 168 92 114 167 73 87 125 113 107 133 93 91 127 69 97 146 66 93 176 70 98 194 80 118 215 73 98 202 63 89 196 103 95 218 136 121 234 145 161 250 141 182 255 134 157 249 129 149 232 133 149 178 105 143 78 108 157 77 69 130 74 43 80 77 83 80 121 62 68 108 128 145 175 122 138 201 74 103 183 75 105 169 83 118 134 80 126 114 87 124 129 71 93 146 58 87 169 47 92 169 58 93 171 68 86 172 85 96 202 106 113 229 40 61 128 39 62 128 72 88 187 138 128 255 159 137 255 146 138 255 84 69 146 135 99 193 172 85 214 242 8 189 255 45 244 255 32 171 255 57 177 255 131 255 255 91 255 
0 43 133 0 45 132 0 40 29 55 47 56 191 49 119 241 0 96 231 0 95 199 0 56 178 0 1 209 0 0 238 0 21 249 0 74 172 0 20 110 0 0 82 21 0 61 58 37 47 48 88 4 61 68 9 48 0 30 23 17 72 56 71 44 71 76 52 138 149 97 187 197 186 204 194 254 212 202 197 165 140 78 103 77 0 46 38 0 8 0 26 47 0 68 71 38 40 68 57 0 55 44 0 49 46 0 33 38 42 65 59 57 69 67 31 49 49 12 71 52 20 73 56 109 132 118 201 201 189 237 244 240 229 239 255 98 108 131 47 40 59 12 0 3 29 18 36 64 73 82 44 69 52 44 55 52 1 24 30 0 36 54 13 52 59 38 61 67 54 68 80 46 18 45 49 18 11 24 31 0 4 42 0 58 69 64 69 69 65 36 52 40 17 60 42 8 72 36 30 61 15 60 43 37 70 51 84 28 53 59 40 78 13 55 77 0 37 50 10 56 49 71 26 29 52 29 57 44 17 49 40 50 59 70 50 46 91 16 23 53 42 54 78 84 22 75 154 9 54 222 5 48 228 0 46 222 0 58 225 0 57 230 0 60 224 0 56 234 0 59 224 0 35 220 0 31 89 55 76 0 79 59 23 84 65 49 43 33 81 37 50 89 37 100 59 16 94 119 64 107 215 118 147 255 228 255 239 255 255 217 255 255 181 227 203 45 73 46 21 17 0 75 26 33 106 51 70 120 104 137 65 114 122 48 88 63 74 87 29 26 32 0 40 43 38 32 58 58 38 82 68 91 76 91 70 24 82 17 0 90 36 32 143 31 61 173 27 68 162 55 39 123 84 45 114 51 43 89 57 78 135 31 49 127 43 61 49 90 61 0 91 58 0 77 79 44 56 66 45 60 75 34 28 72 0 34 84 0 48 112 0 11 144 0 0 143 0 9 119 0 43 112 0 55 110 0 55 122 0 56 111 0 70 106 0 77 83 0 45 52 0 34 67 0 14 32 32 94 25 128 124 19 125 112 8 107 201 0 31 222 0 0 244 0 124 244 0 218 243 0 199 230 0 255 239 0 255 255 0 255 253 0 255 44 75 255 65 34 255 86 0 255 58 0 255 24 37 255 0 27 255 27 16 255 52 19 255 130 2 197 69 69 0 0 96 0 59 90 0 91 68 0 85 68 0 94 81 0 0 101 0 0 149 0 87 152 0 83 130 0 66 127 0 43 94 0 12 64 0 72 109 0 58 104 0 0 65 0 3 64 0 40 40 36 69 57 129 121 129 94 98 111 30 58 63 0 49 17 80 26 0 192 39 72 117 64 64 255 82 51 255 59 13 255 44 0 255 29 7 255 24 27 255 45 14 255 69 14 255 20 4 247 14 57 88 9 76 57 9 44 138 71 50 157 79 37 123 58 63 57 71 89 41 66 64 0 64 37 44 71 71 7 64 105 0 118 162 35 119 146 89 160 165 121 171 186 167 193 223 227 231 255 122 172 177 96 108 104 79 42 48 34 18 42 42 116 152 128 140 177 59 181 202 121 189 206 178 162 188 175 146 194 186 164 198 185 145 145 195 162 154 255 137 151 255 116 156 255 132 184 255 131 161 235 160 172 234 154 182 216 155 204 135 171 226 85 165 209 108 172 197 117 172 186 125 182 188 148 155 182 141 153 178 150 131 163 76 140 177 26 163 194 52 165 198 71 152 193 87 120 169 73 73 157 31 51 117 31 65 96 113 91 111 150 65 108 137 86 141 158 76 121 138 101 93 204 129 88 255 124 99 230 114 128 187 111 129 177 96 121 173 94 111 205 52 75 165 77 109 136 80 107 150 92 99 191 97 120 214 85 93 178 74 91 159 73 100 143 105 98 166 87 102 183 71 111 158 85 120 156 78 102 176 86 96 197 89 72 190 63 72 181 94 123 203 119 142 222 147 160 243 167 173 239 181 204 224 186 208 207 162 188 171 133 166 123 115 168 108 104 173 128 86 155 114 87 133 111 75 102 79 102 119 97 106 126 115 89 114 123 76 103 124 75 95 134 88 104 151 79 101 155 60 98 161 59 111 198 69 94 211 87 75 195 96 90 202 44 99 196 55 123 212 69 117 213 73 101 186 64 99 151 68 104 150 71 95 145 97 90 171 68 55 157 85 89 200 97 103 211 
0 53 143 0 34 121 18 80 69 36 28 37 142 0 70 217 0 72 204 0 68 231 0 88 251 0 74 255 81 89 255 171 216 255 163 255 255 198 224 255 193 183 158 97 67 8 5 0 53 54 94 40 97 104 25 64 9 56 49 43 56 40 55 40 67 72 43 129 140 14 104 114 28 46 36 55 13 3 66 34 9 60 85 59 9 57 49 39 60 41 0 12 0 23 26 0 26 54 43 0 78 67 17 91 88 3 40 45 12 35 29 16 28 26 12 30 30 0 48 29 18 71 54 21 44 30 60 60 48 44 51 47 45 55 76 31 41 64 40 33 52 54 34 45 25 14 32 41 50 59 13 38 21 34 45 42 24 47 53 22 63 81 21 60 67 20 43 49 43 57 69 53 25 52 89 58 51 40 47 1 18 56 11 38 49 44 30 30 26 42 58 46 25 68 50 1 65 29 39 70 24 38 21 15 34 15 48 37 62 68 55 93 28 69 91 0 66 79 39 50 43 65 23 26 49 33 61 48 31 63 54 57 66 77 58 54 99 64 71 101 30 42 66 86 24 77 122 0 22 207 0 33 236 0 54 232 0 68 238 0 70 225 0 55 255 0 89 206 0 31 209 0 20 216 0 27 90 56 77 36 155 135 40 101 82 44 38 28 62 18 31 64 12 75 99 56 134 99 44 87 130 33 62 91 13 40 36 58 59 14 71 52 18 64 40 47 75 48 70 66 43 112 63 70 73 18 37 58 42 75 0 40 48 0 34 9 52 65 7 52 58 16 83 86 81 74 100 100 49 93 79 75 60 75 67 21 79 39 22 112 59 55 166 33 63 175 52 93 187 85 69 153 68 29 98 83 75 121 26 47 104 44 62 140 47 65 53 74 45 0 107 74 0 29 31 0 50 60 39 47 62 21 57 101 0 127 177 14 152 216 10 84 217 0 83 226 0 47 157 0 23 92 0 38 93 0 37 104 0 57 112 0 65 101 0 50 56 0 31 38 0 34 67 0 40 58 58 58 0 92 83 0 84 96 0 91 216 0 46 255 38 64 255 0 149 249 0 223 223 0 179 225 0 255 254 0 255 248 0 255 210 0 255 0 23 255 43 12 255 93 5 255 87 22 255 0 13 255 0 29 255 22 11 255 47 14 255 119 0 186 57 57 0 10 116 0 60 91 0 106 83 0 93 76 0 87 74 0 0 107 0 0 150 0 34 99 0 49 96 0 59 120 0 41 92 0 50 102 0 71 108 0 26 72 0 49 121 0 32 93 0 58 58 54 67 55 127 58 66 31 69 82 1 66 71 0 60 28 91 40 10 206 16 49 94 40 40 238 81 50 255 63 17 255 70 15 255 15 0 255 0 0 247 44 13 255 54 0 255 57 41 255 27 70 101 0 66 47 24 59 153 68 47 154 126 84 170 126 131 125 148 166 118 176 174 85 190 163 170 180 180 116 158 199 47 152 196 69 153 180 123 160 165 121 148 163 144 149 179 183 149 196 40 191 196 115 186 182 157 169 175 161 160 184 184 151 187 163 158 195 77 156 177 96 174 191 163 162 188 175 149 197 189 168 202 189 167 167 217 159 151 255 140 154 255 113 153 255 113 165 255 162 192 255 184 196 255 160 188 222 146 195 126 143 198 57 147 191 90 174 199 119 167 181 120 149 155 115 120 147 106 95 120 92 85 117 30 97 134 0 89 120 0 112 145 18 93 134 28 75 124 28 63 147 21 80 146 60 91 122 139 102 122 161 85 128 157 72 127 144 97 142 159 118 110 221 132 91 255 129 104 235 111 125 184 105 123 171 88 113 165 93 110 204 76 99 189 80 112 139 89 116 159 86 93 185 89 112 206 85 93 178 90 107 175 69 96 139 99 92 160 67 82 163 61 101 148 90 125 161 89 113 187 120 130 231 154 137 255 144 153 255 147 176 255 141 164 244 131 144 227 116 122 188 98 121 141 87 109 108 78 104 87 69 102 59 70 123 63 60 129 84 82 151 110 88 134 112 98 125 102 98 115 93 93 113 102 91 116 125 84 111 132 85 105 144 75 91 138 72 94 148 58 96 159 55 107 194 74 99 216 95 83 203 87 81 193 56 111 208 33 101 190 59 107 203 62 90 175 81 116 168 94 130 176 138 162 212 170 163 244 179 166 255 189 193 255 204 210 255 
49 14 42 57 31 56 42 24 50 46 36 48 62 60 34 42 46 9 44 52 23 34 49 30 8 45 15 13 49 17 26 59 30 38 51 45 64 80 81 59 94 86 55 81 68 52 42 63 0 53 48 0 86 57 0 88 70 22 75 79 53 62 73 71 37 50 47 5 3 59 22 18 106 0 19 107 19 32 89 64 58 45 44 46 21 51 55 12 31 39 64 31 44 70 43 62 51 31 46 61 45 70 7 48 43 0 56 27 0 53 45 0 60 54 0 71 54 3 57 19 0 59 8 15 34 28 111 8 85 76 2 161 31 19 239 25 3 255 4 15 255 41 22 255 69 4 255 29 21 255 0 13 255 0 0 246 0 12 134 31 37 25 60 27 66 42 40 75 0 32 55 33 40 62 59 25 61 53 27 79 44 43 61 22 38 13 44 62 24 62 50 0 95 61 35 62 49 44 47 60 64 51 50 121 38 41 104 43 64 69 10 59 41 24 77 60 15 83 58 45 70 79 58 54 54 35 46 0 24 43 0 53 67 20 44 40 15 88 53 73 79 42 74 38 28 25 51 61 74 3 17 58 41 48 78 46 64 56 30 95 41 29 109 24 11 94 14 23 46 40 69 35 47 70 39 32 49 49 61 67 78 118 86 101 144 175 177 203 215 237 186 187 220 143 153 165 127 38 65 44 0 15 1 15 17 2 42 60 62 67 106 127 53 80 109 5 73 74 26 75 59 57 70 28 73 86 44 67 63 73 47 28 46 42 55 39 20 63 31 30 56 39 47 67 80 30 51 68 40 69 63 29 56 53 67 76 121 109 94 171 78 69 122 65 89 87 7 51 14 0 13 0 34 38 0 51 49 0 81 98 42 69 93 73 62 62 76 81 48 25 104 70 0 73 52 0 67 88 5 33 58 38 31 51 62 64 66 75 47 15 64 40 24 145 30 55 172 46 66 177 61 74 131 65 65 55 54 46 19 22 57 28 8 57 26 21 57 25 41 68 37 58 77 35 52 76 40 48 71 54 27 51 41 29 41 41 43 45 45 51 47 22 46 66 45 48 61 89 44 72 69 24 50 35 29 44 29 41 31 43 56 40 99 77 60 150 55 82 101 33 68 48 31 52 23 39 60 3 35 59 37 44 72 72 22 67 16 31 59 0 37 45 20 55 55 55 59 44 89 59 44 87 72 59 64 61 47 58 51 66 101 61 72 114 5 41 25 12 49 9 0 28 4 19 58 25 65 121 62 91 116 36 100 92 16 82 47 11 46 17 23 40 45 26 56 86 28 72 90 46 40 49 44 41 56 65 28 68 55 14 69 15 47 95 21 34 55 10 40 52 52 66 63 94 50 47 52 62 66 29 48 47 15 55 46 39 34 36 45 34 42 43 24 71 31 7 67 17 48 84 68 83 93 116 145 156 187 171 170 200 165 169 194 168 177 188 168 165 158 177 173 160 172 163 152 177 176 159 140 178 153 152 210 173 143 184 118 159 185 102 178 199 132 148 184 132 174 212 149 166 194 95 159 203 76 160 218 112 179 232 156 186 222 134 152 193 65 130 177 23 99 167 16 154 211 86 158 198 90 156 184 88 147 187 130 124 171 151 134 197 190 133 189 234 130 149 255 167 190 248 158 198 219 150 205 175 153 208 163 124 172 112 138 172 74 87 163 0 80 154 0 109 153 0 94 117 0 103 114 0 105 108 67 82 109 86 132 151 118 125 144 128 117 151 148 82 130 128 88 121 166 99 131 134 89 130 84 114 153 144 124 152 178 124 139 206 141 140 255 129 141 213 124 161 183 113 134 179 123 124 203 103 98 214 97 86 202 117 119 171 90 101 133 50 91 151 41 99 161 52 99 155 81 121 143 84 135 118 95 136 168 63 109 196 69 113 198 77 116 189 73 99 170 89 128 199 118 151 244 100 158 244 114 173 201 112 148 158 106 109 138 84 88 130 80 96 134 79 90 124 94 89 115 113 76 106 112 84 110 100 100 98 108 114 90 117 133 121 115 106 137 114 119 153 89 106 138 54 100 138 74 116 176 74 102 190 79 89 188 57 100 167 26 99 153 49 106 189 58 105 207 65 95 205 56 96 206 48 97 211 53 98 193 54 84 160 57 96 151 69 112 166 94 130 205 133 162 250 148 173 254 148 158 255 117 138 255 71 81 218 
34 0 27 46 20 45 49 31 57 62 52 64 56 54 28 46 50 13 30 38 9 32 47 28 14 51 21 38 74 42 42 75 46 27 40 34 42 58 59 39 74 66 23 49 36 60 50 71 0 59 54 0 76 47 0 76 58 14 67 71 22 31 42 80 46 59 74 32 30 70 33 29 113 0 26 84 0 9 57 32 26 51 50 52 24 54 58 16 35 43 49 16 29 68 41 60 63 43 58 46 30 55 16 57 52 0 56 27 8 67 59 0 74 68 0 59 42 0 50 12 0 57 6 32 51 45 102 0 76 87 13 172 8 0 216 26 4 255 0 8 255 31 12 255 71 6 255 13 5 255 0 13 255 0 3 252 3 21 143 58 64 52 85 52 91 64 62 97 43 76 99 43 50 72 73 39 75 55 29 81 48 47 65 37 53 28 48 66 28 85 73 21 77 43 17 63 50 45 29 42 46 26 25 96 40 43 106 20 41 46 12 61 43 33 86 69 43 111 86 49 74 83 46 42 42 23 34 0 32 51 0 61 75 28 65 61 36 70 35 55 59 22 54 47 37 34 56 66 79 59 73 114 47 54 84 35 53 45 26 91 37 185 255 180 205 255 208 239 255 255 255 243 255 152 121 114 26 26 38 0 0 38 0 14 57 57 59 85 96 118 67 96 129 52 72 84 46 31 58 37 23 46 32 61 63 48 55 73 75 47 86 107 51 78 107 16 84 85 19 68 52 41 54 12 41 54 12 54 50 60 77 58 76 66 79 63 10 53 21 0 26 9 48 68 81 25 46 63 57 86 80 61 88 85 51 60 105 74 59 136 60 51 104 32 56 54 28 72 35 44 62 14 78 82 20 67 65 2 55 72 16 29 53 33 48 48 62 83 50 27 113 79 0 101 80 3 52 73 0 37 62 42 12 32 43 56 58 67 74 42 91 57 41 162 0 10 127 4 24 135 21 34 91 83 83 73 103 95 68 37 72 43 30 79 48 0 25 0 18 45 14 59 78 36 49 73 37 67 90 73 53 77 67 50 62 62 60 62 62 62 58 33 37 57 36 19 32 60 49 77 74 32 58 43 55 70 55 65 55 67 50 34 93 46 29 119 45 72 91 40 75 55 38 59 30 63 84 27 27 51 29 30 58 58 23 68 17 29 57 0 40 48 23 49 49 49 65 50 95 72 57 100 102 89 94 90 76 87 69 84 119 73 84 126 47 83 67 64 101 61 53 83 59 51 90 57 37 93 34 52 77 0 59 51 0 71 36 0 58 29 35 41 46 27 38 68 10 35 53 9 52 61 56 45 60 69 36 76 63 29 84 30 17 65 0 34 55 10 39 51 51 52 49 80 67 64 69 73 77 40 66 65 33 63 54 47 45 47 56 35 43 44 29 76 36 46 106 56 89 125 109 131 141 164 141 152 183 159 158 188 174 178 203 165 174 185 177 174 167 180 176 163 174 165 154 175 174 157 147 185 160 113 171 134 147 188 122 162 188 105 157 178 111 158 194 142 169 207 144 181 209 110 162 206 79 138 196 90 131 184 108 164 200 112 173 214 86 159 206 52 138 206 55 149 206 81 166 206 98 172 200 104 152 192 135 146 193 173 119 182 175 126 182 227 146 165 255 147 170 228 145 185 206 129 184 154 120 175 130 110 158 98 113 147 49 61 137 0 58 132 0 97 141 0 107 130 0 130 141 27 118 121 80 94 121 98 124 143 110 135 154 138 125 159 156 108 156 154 108 141 186 114 146 149 139 180 134 171 210 201 168 196 222 155 170 237 140 139 255 121 133 205 226 255 255 235 255 255 245 246 255 219 214 255 115 104 220 122 124 176 105 116 148 83 124 184 10 68 130 31 78 134 95 135 157 106 157 140 91 132 164 82 128 215 94 138 223 105 144 217 137 163 234 122 161 232 95 128 221 61 119 205 66 125 153 63 99 109 96 99 128 87 91 133 25 41 79 20 31 65 45 40 66 129 92 122 195 167 193 161 161 159 133 139 115 68 84 72 100 91 122 110 115 149 92 109 141 74 120 158 61 103 163 90 118 206 108 118 217 62 105 172 35 108 162 26 83 166 28 75 177 43 73 183 46 86 196 43 92 206 46 91 186 63 93 169 59 98 153 84 127 181 108 144 219 117 146 234 143 168 249 160 170 255 175 196 255 197 207 255 
5 0 0 50 24 11 50 44 0 57 52 71 51 48 143 59 58 88 35 44 29 50 65 12 13 65 0 11 59 34 28 69 99 13 41 5 51 53 0 33 27 0 20 50 4 5 36 79 26 55 133 34 70 70 12 62 21 0 60 24 0 49 18 34 67 50 32 61 29 26 63 0 47 45 18 43 7 41 47 18 68 33 43 54 23 53 55 38 50 74 45 39 61 27 34 67 7 45 42 20 71 18 14 58 0 32 39 17 51 31 44 47 37 36 4 83 30 0 90 15 3 56 42 36 30 80 45 8 64 34 34 14 2 53 0 31 35 35 81 32 83 38 47 74 16 76 62 0 67 15 0 66 6 22 45 39 49 47 46 74 70 45 84 79 69 61 74 68 64 65 73 103 75 88 65 53 61 56 56 76 13 53 57 6 38 28 120 28 51 145 13 48 102 37 79 21 49 100 0 60 64 14 45 17 91 46 39 57 58 41 0 97 58 0 95 41 0 77 23 31 74 42 33 39 49 64 58 80 13 62 54 64 111 93 226 237 242 255 245 255 255 234 255 233 255 247 0 164 89 0 72 0 0 71 11 39 112 57 31 104 37 21 107 30 31 3 0 115 0 8 117 5 41 91 22 39 76 51 43 38 60 49 71 76 70 68 65 46 49 83 60 37 45 34 78 74 85 46 55 66 24 29 36 52 55 52 0 7 19 43 63 104 78 72 122 121 109 133 117 121 118 52 76 52 19 19 9 71 28 43 97 70 65 74 74 38 26 66 25 3 91 45 0 23 19 86 65 82 33 81 73 2 76 61 19 80 60 31 64 31 103 52 45 100 43 40 44 67 50 29 63 50 61 50 34 62 36 10 80 73 76 25 45 70 62 94 144 112 109 164 105 73 110 89 74 91 2 31 38 0 17 28 0 15 15 51 68 0 81 109 0 69 103 0 38 91 0 0 45 0 49 68 0 63 47 12 68 62 112 55 43 191 55 25 195 52 5 157 57 17 117 23 30 24 7 84 0 20 110 0 15 68 0 21 60 67 24 57 62 51 69 85 60 44 105 77 50 175 73 44 174 40 28 86 35 73 25 0 57 36 19 61 51 50 68 56 39 67 64 36 74 73 69 93 81 83 71 45 102 36 26 110 18 27 93 1 36 129 5 67 129 22 52 74 35 40 35 46 60 42 77 69 9 94 48 7 126 58 18 192 83 18 199 118 99 169 183 129 123 155 109 98 84 87 89 38 54 79 0 27 61 0 46 51 19 47 63 28 50 65 0 60 72 0 11 37 0 52 51 0 80 56 34 62 59 26 62 72 25 41 54 50 14 42 155 50 59 200 35 52 133 17 54 94 61 57 102 58 27 73 64 44 251 23 33 255 41 31 255 73 32 255 110 28 255 129 47 255 94 74 255 101 123 255 128 138 255 168 184 172 168 192 116 169 183 136 156 188 116 153 175 124 192 163 171 191 160 180 157 168 147 133 199 101 117 210 82 134 212 124 146 209 144 152 197 110 156 183 66 170 180 54 170 178 81 177 192 115 164 219 90 147 219 72 155 225 91 137 205 72 144 204 86 150 206 129 148 193 148 162 202 151 209 214 162 245 247 170 224 243 147 148 204 117 81 142 79 75 107 12 142 171 57 113 194 77 89 204 73 94 210 100 74 148 65 95 127 55 64 126 31 25 108 30 84 122 74 147 137 134 158 116 176 141 120 211 144 147 252 115 124 233 143 132 246 133 137 222 99 140 184 93 171 219 73 130 255 117 135 255 140 130 255 133 113 255 112 81 255 104 71 255 161 111 255 183 126 255 160 153 221 101 135 244 71 129 243 101 159 219 118 152 211 91 130 160 75 128 150 72 99 182 77 79 176 96 88 149 94 103 94 136 180 145 130 170 194 131 161 237 134 171 255 91 140 208 116 159 145 93 140 118 54 94 159 76 101 205 77 88 190 91 75 160 114 89 107 88 81 103 87 79 210 108 106 203 91 112 157 91 117 156 57 109 134 47 108 166 59 106 206 65 102 143 83 112 140 71 84 140 64 88 140 79 95 140 92 107 148 100 104 164 90 89 179 80 90 202 51 85 160 67 99 136 73 106 163 67 86 190 63 87 187 41 76 169 66 92 189 104 109 213 119 111 232 156 131 255 156 138 255 151 179 255 129 182 250 76 140 164 
47 42 24 65 39 26 86 80 34 66 61 80 147 144 239 252 251 255 250 255 244 250 255 212 161 213 127 64 112 87 0 27 57 13 41 5 45 47 0 79 73 23 47 77 31 17 48 91 0 29 107 6 42 42 11 61 20 10 74 38 0 61 30 74 107 90 181 210 178 236 255 207 255 255 230 255 240 255 255 240 255 246 255 255 233 255 255 243 255 255 255 250 255 246 253 255 192 230 227 0 44 0 0 20 0 70 77 55 117 97 110 111 101 100 0 65 12 0 44 0 0 17 3 0 0 42 19 0 38 2 2 0 0 22 0 0 1 1 66 17 68 26 35 62 0 19 5 0 30 0 0 31 0 0 7 1 1 0 0 5 1 0 68 63 53 104 117 111 105 106 114 137 109 122 169 157 165 101 101 121 44 84 88 0 24 14 62 0 0 150 18 53 133 68 110 24 52 103 0 48 52 9 40 12 63 18 11 63 64 47 4 102 63 0 79 25 0 91 37 11 54 22 51 57 67 60 54 76 17 66 58 22 69 51 32 43 48 53 32 61 75 21 57 22 56 36 0 113 38 0 121 46 14 104 44 14 87 32 0 70 3 0 67 0 95 67 50 167 32 60 186 74 110 187 118 135 111 86 78 88 110 99 30 35 29 7 4 0 28 62 39 68 76 65 77 73 84 73 82 93 46 51 58 45 48 45 35 65 77 44 64 105 81 75 125 86 74 98 87 91 88 56 80 56 58 58 48 90 47 62 65 38 33 49 49 13 39 79 38 9 97 51 47 71 67 102 81 98 124 172 164 204 255 255 214 255 255 235 255 235 219 168 161 129 72 69 17 40 23 0 31 18 57 46 30 89 63 37 68 61 64 40 60 85 19 51 101 63 60 115 73 41 78 71 56 73 46 75 82 37 77 88 84 110 110 54 71 0 41 69 0 54 88 0 15 68 0 10 75 0 39 58 0 67 51 16 45 39 89 36 24 172 40 10 180 34 0 139 83 43 143 42 49 43 9 86 0 5 95 0 15 68 0 25 64 71 21 54 59 40 58 74 51 35 96 55 28 153 73 44 174 59 47 105 47 85 37 30 87 66 16 58 48 42 60 48 35 63 60 29 67 66 42 66 54 85 73 47 124 58 48 117 25 34 110 18 53 99 0 37 124 17 47 82 43 48 66 77 91 88 123 115 90 175 129 96 215 147 55 229 120 30 211 130 76 146 160 114 108 140 84 73 59 45 47 0 35 60 0 25 59 0 58 63 31 59 75 40 48 63 0 45 57 0 43 69 0 57 56 0 73 49 27 68 65 32 75 85 38 48 61 57 18 46 159 0 6 147 0 9 90 13 50 90 84 80 125 96 65 111 54 34 241 51 61 255 59 49 255 93 52 255 178 96 255 166 84 255 181 161 255 160 182 255 147 157 255 177 193 181 138 162 86 166 180 133 151 183 111 150 172 121 197 168 176 180 149 169 167 178 157 148 214 116 144 237 109 135 213 125 137 200 135 129 174 87 156 183 66 179 189 63 179 187 90 185 200 123 150 205 76 147 219 72 132 202 68 139 207 74 140 200 82 157 213 136 155 200 155 144 184 133 185 190 138 185 187 110 181 200 104 144 200 113 134 195 132 166 198 103 173 202 88 112 193 76 47 162 31 32 148 38 56 130 47 109 141 69 107 169 74 92 175 97 116 154 106 144 134 131 163 121 181 154 133 224 122 125 230 107 116 225 108 97 211 106 110 195 107 148 192 89 167 215 85 142 255 111 129 255 129 119 255 128 108 255 140 109 255 143 110 255 157 107 255 170 113 255 145 138 206 117 151 255 87 145 255 78 136 196 87 121 180 56 95 125 58 111 133 85 112 195 107 109 206 143 135 196 140 149 140 121 165 130 127 167 191 122 152 228 109 146 239 92 141 209 105 148 134 98 145 123 83 123 188 86 111 215 83 94 196 99 83 168 106 81 99 89 82 104 65 57 188 86 84 181 81 102 147 97 123 162 73 125 150 56 117 175 57 104 204 65 102 143 69 98 126 79 92 148 89 113 165 85 101 146 76 91 132 71 75 135 81 80 170 76 86 198 59 93 168 68 100 137 66 99 156 83 102 206 87 111 211 65 100 193 95 121 218 126 131 235 158 150 255 187 162 255 177 159 255 161 189 255 169 222 255 189 253 255 
17 47 61 15 72 79 6 67 73 13 50 47 46 58 48 25 46 15 56 62 46 64 35 67 75 23 76 70 42 68 37 24 40 51 37 15 61 36 0 48 32 0 4 64 16 13 78 50 15 57 57 22 62 40 6 48 0 0 34 0 0 50 30 3 52 71 47 39 112 45 22 114 53 22 85 29 21 94 25 22 87 38 19 50 76 29 21 78 29 0 63 55 38 42 50 85 53 55 105 36 34 69 33 44 76 8 52 65 0 59 39 29 76 10 67 80 0 62 60 0 46 77 57 0 64 32 12 61 27 39 62 58 35 42 46 54 63 90 28 55 58 32 50 40 73 51 75 72 28 73 64 20 81 62 47 100 49 57 72 23 72 20 14 71 14 9 47 18 43 47 46 52 49 54 53 74 55 0 83 60 0 63 41 47 60 52 38 34 21 52 63 35 24 87 56 3 71 34 53 50 31 67 24 39 71 31 69 67 53 64 45 63 61 45 73 70 77 70 76 69 54 63 66 61 41 32 54 27 39 51 61 47 41 65 50 32 70 63 62 90 126 133 139 255 253 249 255 243 255 255 245 255 232 240 255 57 93 105 10 37 16 15 45 21 17 45 45 34 68 68 17 74 35 14 65 0 74 68 30 76 43 38 66 61 79 29 102 105 0 74 64 27 68 72 82 66 81 66 34 35 71 74 79 32 74 74 41 40 42 84 42 50 93 58 50 73 63 49 16 69 37 0 96 25 65 110 68 190 183 187 255 242 255 255 241 255 235 255 255 158 219 216 50 61 77 71 48 54 97 89 92 79 126 104 11 102 37 0 64 16 0 3 1 30 5 35 24 10 45 16 28 26 72 92 53 52 70 34 75 81 57 41 36 28 29 41 43 2 69 63 0 65 38 47 60 54 68 42 67 63 56 75 42 63 58 13 53 31 22 30 5 64 36 47 66 61 67 49 65 51 78 87 68 58 53 46 56 46 41 62 45 39 65 50 17 45 53 2 43 60 22 41 64 50 24 55 53 41 70 62 53 71 37 67 107 66 92 138 106 98 152 140 133 169 183 107 130 136 97 134 32 55 127 0 11 82 0 37 91 15 43 57 20 61 54 50 45 34 62 31 28 85 34 18 157 36 29 146 53 47 109 39 47 74 22 47 17 32 87 0 27 66 31 52 72 75 71 71 85 26 27 57 48 56 83 34 63 57 58 81 75 94 113 72 75 115 77 83 155 129 105 175 114 127 188 122 159 181 170 153 176 182 145 185 162 146 190 143 157 180 111 156 164 127 167 166 183 154 174 161 137 175 114 142 181 126 151 192 136 174 198 176 198 209 223 209 236 233 200 226 203 163 178 183 110 124 139 55 70 87 122 142 144 145 203 166 139 233 161 117 255 182 99 204 152 132 177 148 197 187 173 170 160 147 194 186 171 192 181 185 220 147 152 247 192 176 173 164 107 248 140 126 245 119 119 255 111 125 255 109 135 255 93 101 255 107 111 255 74 82 255 59 91 255 69 87 255 47 51 198 130 55 84 173 59 69 192 97 75 196 107 145 154 77 190 161 79 142 160 70 130 153 119 123 120 177 108 154 139 147 150 95 154 122 111 112 165 133 120 164 127 133 192 96 86 219 2 121 193 0 181 138 19 114 191 39 105 197 72 101 192 87 103 180 122 147 146 129 177 136 132 98 161 130 68 183 92 91 163 52 128 141 57 163 148 67 162 148 87 152 164 126 114 178 139 121 152 192 131 123 222 115 147 200 80 159 180 81 173 196 88 185 208 74 113 192 94 104 179 37 72 80 6 67 73 33 109 137 25 141 166 16 150 173 33 141 140 50 119 86 69 98 115 103 104 146 142 112 150 134 55 96 156 47 92 159 60 103 86 51 93 70 92 117 51 117 117 13 121 109 1 144 126 0 172 126 0 165 130 0 179 149 0 185 162 0 163 144 0 173 147 0 190 141 0 204 174 0 224 211 0 246 230 0 255 255 1 255 248 14 255 254 0 252 250 0 192 203 0 157 177 0 74 91 0 76 74 0 80 56 0 78 67 0 104 110 0 99 118 0 114 134 0 107 127 0 75 83 0 74 85 0 73 92 0 73 109 0 91 141 0 70 108 0 99 129 0 110 140 0 159 189 0 195 222 0 197 205 0 212 188 0 219 172 0 216 153 0 215 141 
12 42 56 0 45 52 0 57 63 13 50 47 39 51 41 34 55 24 57 63 47 76 47 79 69 17 70 56 28 54 48 35 51 50 36 14 65 40 0 50 34 0 21 81 33 0 58 30 17 59 59 43 83 61 43 85 0 77 129 92 83 154 134 76 125 144 100 92 165 57 34 126 40 9 72 147 139 212 249 246 255 255 245 255 255 241 233 232 183 154 32 24 7 8 16 51 37 39 89 57 55 90 47 58 90 0 31 44 0 52 32 5 52 0 57 70 0 84 82 21 9 40 20 0 45 13 0 47 13 23 46 42 26 33 37 29 38 65 17 44 47 0 13 3 61 39 63 61 17 62 72 28 89 75 60 113 21 29 44 20 69 17 0 47 0 37 75 46 67 71 70 59 56 61 32 53 34 0 54 31 0 70 48 40 53 45 72 68 55 56 67 39 51 114 83 211 255 242 255 255 237 255 240 255 255 238 255 82 68 79 3 21 19 16 44 41 60 53 59 76 61 70 52 47 27 19 41 14 43 55 65 44 38 62 51 33 71 44 43 71 23 30 36 65 59 55 86 60 95 66 48 86 49 57 90 0 30 42 22 49 28 32 62 38 55 83 83 53 87 87 21 78 39 28 79 14 42 36 0 82 49 44 60 55 73 10 83 86 0 93 83 7 48 52 52 36 51 66 34 35 47 50 55 39 81 81 67 66 68 97 55 63 113 78 70 44 34 20 31 84 52 0 80 9 8 53 11 78 71 75 54 22 45 70 38 73 31 58 61 0 56 53 45 56 72 69 46 52 53 45 48 42 89 67 2 93 28 25 95 47 47 58 56 68 43 73 61 47 82 44 56 54 65 85 46 65 83 47 48 54 30 57 52 44 36 48 50 19 86 80 27 95 68 65 78 72 76 50 75 66 59 78 48 69 64 28 68 46 80 88 63 85 57 68 94 89 95 85 101 87 88 97 78 92 87 80 58 48 43 78 61 55 51 36 3 46 54 3 26 43 5 10 33 19 27 58 56 31 60 52 41 59 25 10 50 9 30 76 44 31 85 73 64 100 114 81 104 110 41 78 0 21 93 0 0 35 0 0 33 0 2 16 0 57 50 46 42 31 59 30 27 84 39 23 162 54 47 164 104 98 160 79 87 114 59 84 54 0 54 0 18 57 22 70 90 93 64 64 78 71 72 102 84 92 119 57 86 80 72 95 89 136 155 114 65 105 67 50 122 96 54 124 63 9 70 4 69 91 80 26 49 55 7 47 24 9 53 6 37 60 0 77 85 48 59 58 75 29 49 36 17 55 0 25 64 9 49 90 34 38 62 40 61 72 86 24 51 48 15 41 18 39 54 59 44 58 73 68 83 100 89 109 111 145 203 166 175 255 197 139 255 204 130 235 183 141 186 157 171 161 147 191 181 168 186 178 163 156 145 149 212 139 144 240 185 169 160 151 94 229 121 107 247 121 121 249 96 110 255 116 142 255 99 107 255 104 108 255 110 118 255 94 126 255 117 135 255 87 91 229 161 86 132 221 107 113 236 141 110 231 142 168 177 100 193 164 82 167 185 95 172 195 161 175 172 229 144 190 175 163 166 111 187 155 144 139 192 160 156 200 163 142 201 105 94 227 10 137 209 0 217 174 55 138 215 63 102 194 69 88 179 74 80 157 99 137 136 119 188 147 143 167 230 199 169 255 193 204 255 165 216 229 145 164 149 68 169 155 94 151 163 125 106 170 131 106 137 177 128 120 219 111 143 196 98 177 198 119 211 234 84 181 204 131 170 249 152 162 237 120 155 163 119 180 186 89 165 193 71 187 212 57 191 214 70 178 177 100 169 136 110 139 156 128 129 171 155 125 163 192 113 154 226 117 162 214 115 158 176 141 183 131 153 178 112 178 178 94 202 190 66 209 191 0 188 142 0 155 120 0 172 142 0 188 165 0 248 229 0 234 208 0 192 143 0 232 202 0 211 198 0 194 178 0 175 175 0 107 96 0 127 108 0 172 170 0 180 191 0 170 190 0 144 161 0 170 168 0 186 162 0 178 167 0 193 199 0 196 215 0 218 238 21 255 255 0 210 218 0 190 201 0 180 199 0 192 228 0 222 255 0 202 240 0 235 255 0 225 255 2 253 255 22 255 255 0 254 255 15 255 251 0 252 205 9 255 212 14 255 208 
65 47 59 66 58 67 68 71 64 11 28 24 0 11 11 0 53 47 14 68 64 73 115 103 87 115 88 23 41 29 43 50 44 23 39 24 42 53 51 36 51 60 24 35 40 13 11 44 30 24 84 44 60 147 20 42 235 14 47 255 0 8 255 16 5 255 37 26 255 29 40 255 49 69 255 36 32 255 40 0 255 29 0 184 23 0 108 24 7 87 23 31 56 50 73 59 39 60 0 36 56 0 41 61 37 15 50 8 40 76 62 18 51 36 21 32 12 28 31 52 20 22 83 32 44 98 0 27 64 23 51 25 0 22 0 0 7 0 32 17 26 53 0 26 126 42 90 148 54 76 82 57 23 107 54 60 69 0 8 56 0 0 66 53 0 35 83 0 47 112 0 45 97 36 0 88 76 0 99 92 0 82 110 8 25 117 81 14 141 89 21 131 96 29 112 80 18 9 130 37 0 136 34 0 78 30 40 47 87 62 15 50 32 22 71 63 37 40 35 96 24 94 53 21 108 0 62 24 0 116 35 0 103 62 217 210 216 255 248 255 255 245 255 243 255 255 133 171 168 118 55 88 104 0 25 13 39 42 24 69 84 9 90 89 21 108 69 87 66 21 105 58 16 20 46 21 13 52 33 10 64 42 10 75 45 78 59 49 94 52 86 8 66 115 20 88 139 43 71 86 55 47 32 80 15 7 95 16 51 47 62 79 42 40 67 102 53 133 77 24 144 45 53 140 27 80 98 0 48 34 43 68 60 71 80 65 48 67 0 48 117 0 11 94 0 55 52 0 79 62 100 50 78 139 102 133 189 130 160 184 157 168 147 132 114 178 57 62 142 0 18 39 21 55 45 68 58 18 70 65 23 30 71 49 0 44 41 13 46 33 86 100 112 130 137 144 72 115 117 33 107 92 0 50 61 31 36 129 110 77 144 118 101 107 116 86 72 108 77 47 99 62 68 78 39 56 79 64 47 15 49 11 14 54 0 81 61 20 86 34 24 82 33 12 73 42 25 77 47 61 9 35 10 62 42 17 51 49 22 3 71 6 46 103 70 17 75 73 20 65 58 36 39 18 8 54 32 0 74 62 0 66 78 32 74 98 63 71 69 58 63 0 56 86 0 18 28 0 37 29 0 34 19 0 44 30 41 68 74 114 47 58 128 36 63 184 28 54 153 27 36 57 37 42 36 39 65 52 27 62 7 63 98 43 66 75 68 96 68 78 80 61 77 20 47 42 33 70 15 25 44 0 42 56 21 61 74 43 43 68 48 14 69 23 0 50 24 14 20 46 32 27 53 45 70 60 46 85 54 50 80 34 46 53 59 88 51 134 97 63 112 104 107 114 137 141 131 146 123 121 189 160 176 201 197 197 177 185 130 181 229 61 159 249 0 82 189 0 66 156 21 87 150 81 103 129 96 154 165 134 169 198 208 117 129 251 155 148 255 223 222 242 161 197 85 214 255 110 150 203 49 228 255 177 233 255 219 243 255 205 255 255 224 253 255 242 242 255 207 90 144 36 24 62 0 28 8 0 201 142 74 255 168 173 255 169 226 255 127 255 255 19 255 255 0 255 253 0 255 193 0 240 255 0 255 248 0 255 156 91 255 182 168 255 98 112 223 150 205 90 137 177 0 172 192 0 170 197 56 141 144 149 156 176 155 122 170 108 160 189 137 126 199 96 111 190 123 142 170 232 112 167 54 142 173 94 168 148 135 167 191 187 151 184 241 166 157 255 154 176 204 118 140 142 145 152 182 115 158 186 126 187 219 165 200 232 161 196 216 158 182 204 139 156 188 135 148 192 123 151 200 139 154 205 139 156 177 166 178 190 184 196 248 152 160 210 134 145 176 117 121 137 94 66 67 156 126 164 133 147 222 117 151 174 178 198 201 159 143 191 162 158 205 106 171 213 20 139 169 55 131 141 85 98 144 91 76 181 78 109 188 59 140 156 78 116 133 108 87 142 116 74 162 85 64 157 61 88 129 56 103 107 53 54 132 87 62 211 86 87 205 71 107 182 62 117 162 34 110 148 40 102 163 48 79 156 62 99 166 57 115 190 63 101 212 72 119 237 80 100 225 83 113 225 104 152 246 111 184 238 155 203 255 156 201 255 152 191 255 127 164 246 138 151 231 172 148 214 195 155 229 162 122 207 100 87 144 31 34 63 
28 10 22 41 33 42 60 63 56 56 73 69 45 71 71 0 17 11 0 30 26 0 38 26 68 96 69 95 113 101 63 70 64 31 47 32 0 10 8 8 23 32 63 74 79 54 52 85 47 41 101 25 41 128 0 14 207 0 19 255 13 31 255 9 0 255 8 0 255 9 20 255 0 9 255 24 20 255 63 22 255 68 0 223 70 13 155 41 24 104 28 36 61 14 37 23 35 56 0 55 75 18 41 61 37 110 145 103 231 255 253 233 255 251 249 255 240 233 236 255 32 34 95 0 0 51 14 46 83 37 65 39 34 66 0 41 56 27 25 10 19 63 1 36 107 23 71 103 9 31 67 42 8 77 24 30 80 6 19 86 24 0 61 48 0 36 84 0 17 82 0 17 69 8 0 88 76 0 149 142 0 99 127 48 65 157 63 0 123 58 0 100 74 7 90 77 15 6 134 41 0 125 23 0 93 45 55 22 62 37 27 62 44 29 78 70 43 46 41 100 28 98 67 35 122 0 62 24 0 117 36 0 87 46 73 66 72 72 57 74 62 41 72 35 52 47 7 45 42 104 41 74 171 58 92 196 222 225 221 255 255 198 255 255 140 227 188 84 63 18 37 0 0 0 23 0 16 55 36 33 87 65 38 103 73 93 74 64 120 78 112 38 96 145 24 92 143 33 61 76 55 47 32 83 18 10 81 2 37 27 42 59 62 60 87 98 49 129 86 33 153 68 76 163 86 139 157 75 128 114 137 162 154 68 77 62 21 40 0 0 47 0 0 50 0 93 90 25 131 114 152 58 86 147 0 19 75 42 72 96 64 75 54 67 49 113 30 35 115 0 36 57 14 48 38 84 74 34 65 60 18 26 67 45 20 77 74 43 76 63 36 50 62 41 48 55 4 47 49 2 76 61 0 66 77 51 56 149 114 81 148 103 86 92 125 95 81 118 87 57 87 50 56 99 60 77 84 69 52 25 59 21 30 70 11 55 35 0 93 41 31 82 33 12 68 37 20 67 37 51 22 48 23 96 76 51 55 53 26 5 73 8 3 60 27 0 34 32 48 93 86 163 166 145 225 255 249 186 255 255 204 255 255 179 221 245 62 70 68 30 35 0 31 61 0 96 106 0 114 106 45 85 70 39 43 29 40 0 0 37 0 10 80 0 0 115 33 59 158 43 52 73 64 69 63 57 83 70 0 34 0 39 74 19 46 55 48 65 37 47 68 49 65 37 64 59 34 71 16 60 79 25 48 62 27 37 50 19 20 45 25 0 50 4 13 65 39 63 69 95 49 44 70 19 44 34 9 48 17 43 73 27 77 84 90 99 62 145 116 82 131 88 91 98 137 141 131 174 151 149 187 158 174 176 172 172 157 165 110 149 197 29 133 223 0 119 226 0 131 221 86 129 192 123 149 175 142 166 177 146 136 165 175 151 163 255 154 147 255 169 168 188 157 193 81 171 216 67 173 226 72 164 219 113 151 190 137 146 173 108 163 168 132 187 192 176 172 200 137 149 203 95 151 189 66 192 172 45 230 171 103 255 128 133 255 97 154 255 65 245 255 31 255 255 39 255 255 32 255 255 33 255 255 46 255 255 61 255 194 129 255 147 133 255 157 171 255 157 212 97 158 198 18 176 196 0 144 171 30 153 156 161 69 89 68 87 135 73 142 171 119 165 238 135 207 255 219 167 195 255 144 199 86 144 175 96 203 183 170 161 185 181 138 171 228 178 169 255 170 192 220 224 246 248 192 199 229 130 173 201 104 165 197 63 98 130 137 172 192 156 180 202 115 132 164 152 165 209 125 153 202 149 164 215 185 202 223 153 165 177 158 170 222 152 160 210 146 157 188 159 163 179 166 138 139 178 148 186 139 153 228 118 152 175 136 156 159 145 129 177 137 133 180 85 150 192 36 155 185 57 133 143 100 113 159 116 101 206 88 119 198 18 99 115 53 91 108 86 65 120 103 61 149 112 91 184 59 86 127 68 115 119 79 80 158 68 43 192 58 59 177 24 60 135 57 112 157 63 139 177 62 124 185 87 118 195 63 100 167 47 105 180 65 103 214 57 104 222 40 60 185 76 106 218 103 151 245 84 157 211 129 177 235 92 137 206 101 140 209 124 161 243 173 186 255 215 191 255 194 154 228 213 173 255 160 147 204 229 232 255 
0 44 87 0 53 106 0 76 79 0 100 63 8 98 40 8 52 15 12 71 17 0 54 0 0 103 0 20 90 0 43 65 12 55 42 50 15 0 30 5 0 44 3 3 51 74 67 151 109 112 229 127 135 186 61 53 54 1 39 14 0 46 0 0 40 0 73 92 0 97 52 0 104 18 19 52 20 53 0 49 42 26 59 44 55 43 15 50 3 0 53 21 18 8 46 37 12 114 106 53 84 67 50 72 12 21 58 26 0 32 43 18 63 96 46 57 124 48 23 93 52 2 211 15 0 228 22 0 255 0 16 255 10 28 255 21 34 255 8 15 255 25 15 255 1 33 128 9 40 0 70 13 44 50 11 52 11 18 51 19 44 63 0 44 39 9 20 51 46 0 83 32 6 127 0 12 172 46 64 202 47 62 105 83 53 91 99 53 88 23 22 49 35 58 16 58 62 0 97 86 0 44 45 0 0 51 0 0 43 26 0 60 81 81 138 135 62 94 61 37 102 76 0 57 40 0 19 26 58 59 117 53 41 29 61 65 20 24 62 37 59 73 70 255 241 255 255 234 255 255 251 228 245 255 205 127 137 114 105 117 109 58 73 114 119 133 255 187 185 255 127 153 255 83 117 255 0 0 225 0 18 255 31 56 255 83 110 229 54 77 37 27 43 0 127 89 12 116 41 8 112 39 37 58 0 0 39 33 0 38 71 58 33 72 179 39 64 161 68 47 128 94 87 93 96 130 66 104 130 107 124 122 158 130 122 63 102 86 0 56 99 0 9 54 29 41 41 229 52 46 255 51 18 243 93 29 215 19 2 128 6 45 134 16 59 116 35 95 0 93 96 0 74 55 0 60 101 0 80 155 0 188 214 141 225 233 224 221 196 226 162 114 214 75 42 207 29 17 175 28 0 192 73 12 226 88 63 169 40 80 40 7 98 0 0 73 0 37 71 0 58 55 50 65 69 58 31 40 51 39 9 117 57 30 159 44 41 72 83 93 72 87 116 46 105 145 86 202 234 225 243 255 212 249 255 191 189 199 174 110 124 113 0 12 32 0 0 47 44 55 53 68 78 63 53 65 89 82 68 103 53 30 47 35 42 0 29 65 0 0 25 0 19 54 60 46 59 89 45 81 83 16 87 59 0 64 64 13 45 78 33 33 31 55 43 0 78 74 14 58 52 22 39 40 33 20 23 0 43 45 0 56 85 0 36 94 0 34 95 29 26 70 0 44 64 0 29 58 0 28 38 0 53 32 79 66 33 160 41 33 144 62 79 134 101 128 161 255 247 255 252 252 255 231 255 205 140 215 14 42 69 0 37 9 0 89 44 61 91 49 75 114 98 120 76 93 159 95 99 255 176 157 255 192 201 210 172 233 167 94 192 91 48 152 87 117 142 158 161 145 144 178 164 139 168 168 154 159 163 135 147 157 132 146 136 159 167 164 111 147 173 60 145 200 95 129 209 72 134 223 83 157 209 97 186 211 80 184 207 43 151 185 58 168 213 83 128 193 43 157 224 71 165 221 82 172 226 82 144 204 32 150 193 55 153 177 77 169 169 119 209 183 174 175 150 168 150 189 138 119 189 138 122 198 137 153 215 116 170 224 98 172 229 68 169 238 61 159 202 82 146 176 90 149 180 116 126 163 98 134 191 88 135 214 108 111 196 141 141 195 149 181 195 156 161 144 114 198 155 108 241 134 130 255 65 150 255 88 188 255 62 144 255 65 147 255 85 133 255 67 121 255 69 197 255 49 184 255 70 168 248 133 189 157 163 191 129 209 250 135 172 255 156 177 212 188 171 167 181 172 181 167 178 186 178 169 184 162 172 175 164 159 149 170 178 153 123 178 186 137 177 217 160 166 202 144 172 185 149 171 180 144 184 187 102 193 200 115 179 201 123 161 178 112 149 192 142 155 235 154 132 227 92 105 169 137 161 211 188 185 252 201 189 255 202 177 247 141 113 176 90 103 149 94 156 179 77 127 152 77 106 136 87 124 144 70 128 144 87 154 175 81 139 173 66 73 141 90 78 174 71 66 164 71 69 190 102 78 204 101 67 176 95 59 173 127 88 203 87 62 176 62 83 204 67 100 215 67 89 186 88 112 196 75 113 176 52 101 155 74 118 179 83 87 160 85 68 150 64 65 159 25 72 164 39 82 198 52 78 205 
0 80 123 0 50 103 0 81 84 0 87 50 0 87 29 38 82 45 25 84 30 0 79 0 0 77 0 5 75 0 38 60 7 84 71 79 85 56 100 33 16 72 37 37 85 31 24 108 22 25 142 35 43 94 33 25 26 4 42 17 28 90 21 72 117 28 109 128 34 192 147 50 185 99 100 128 96 129 29 92 85 8 41 26 36 24 0 85 38 18 97 65 62 20 58 49 0 70 62 16 47 30 13 35 0 19 56 24 8 47 58 0 40 73 35 46 113 59 34 104 92 42 251 212 149 255 242 217 255 203 237 255 214 232 255 217 230 255 221 228 255 182 172 255 55 87 182 73 104 61 105 48 79 76 37 78 61 68 101 61 86 105 69 120 115 57 68 99 48 0 85 22 0 117 13 31 191 47 65 203 32 47 90 68 38 76 79 33 68 42 41 68 43 66 24 85 89 0 83 72 0 51 52 0 42 97 8 5 74 57 0 66 87 20 77 74 0 22 0 0 41 15 0 67 50 12 57 64 60 61 119 88 76 64 49 53 8 22 60 35 24 38 35 65 33 70 85 38 96 76 56 33 29 53 0 55 65 42 56 68 60 51 66 107 25 39 175 0 0 196 0 3 249 23 57 255 64 112 255 74 107 255 28 53 255 27 54 173 62 85 45 68 84 0 97 59 0 65 0 0 57 0 0 109 49 47 72 66 2 76 109 96 19 58 165 40 65 162 49 28 109 54 47 53 12 46 0 52 78 55 86 84 120 62 54 0 85 69 0 22 65 0 52 97 72 68 68 255 45 39 255 2 0 194 80 16 202 44 27 153 16 55 144 51 94 151 2 62 0 68 71 0 77 58 0 22 63 0 15 90 0 36 62 0 54 62 53 70 45 75 65 17 117 65 32 197 29 17 175 67 23 231 65 4 218 30 5 111 18 58 18 0 80 0 14 107 0 50 84 9 54 51 46 53 57 46 38 47 58 64 34 142 72 45 174 36 33 64 43 53 32 23 52 0 12 52 0 58 90 81 198 223 167 249 255 191 250 255 235 246 255 249 135 158 178 37 55 103 12 23 21 24 34 19 47 59 83 72 58 93 73 50 67 0 7 0 0 28 0 18 57 22 57 92 98 108 121 151 22 58 60 0 56 28 0 36 36 11 43 76 63 63 61 77 65 13 54 50 0 29 23 0 53 54 47 48 51 28 44 46 0 25 54 0 12 70 0 13 74 8 49 93 22 47 67 0 22 51 0 41 51 13 40 19 66 49 16 143 39 31 142 13 30 85 27 54 87 67 59 105 59 59 83 46 91 20 27 102 0 58 85 0 80 52 26 91 46 63 121 79 105 125 109 131 127 144 210 152 156 255 166 147 255 173 182 191 142 203 137 111 209 108 94 198 133 142 167 183 175 159 158 174 160 135 168 168 154 163 167 139 159 169 144 177 167 190 177 174 121 163 189 76 139 194 89 127 207 70 124 213 73 162 214 102 190 215 84 190 213 49 169 203 76 152 197 67 135 200 50 149 216 63 161 217 78 144 198 54 143 203 31 162 205 67 171 195 95 189 189 139 195 169 160 191 166 184 146 185 134 124 194 143 127 203 142 130 192 93 160 214 88 173 230 69 143 212 35 143 186 66 138 168 82 99 130 66 126 163 98 106 163 60 101 180 74 108 193 138 125 179 133 160 174 135 187 170 140 198 155 108 230 123 119 255 58 143 255 63 163 255 82 164 255 95 177 255 100 148 255 87 141 255 84 212 255 85 220 255 91 189 239 124 180 153 159 187 111 191 232 138 175 255 154 175 210 163 146 142 166 157 166 162 173 181 175 166 181 166 176 179 171 166 156 161 169 144 130 185 193 127 167 207 157 163 199 146 174 187 136 158 167 117 157 160 78 169 176 106 170 192 125 163 180 114 151 194 117 130 210 128 106 201 85 98 162 84 108 158 128 125 192 172 160 230 196 171 241 180 152 215 137 150 196 99 161 184 95 145 170 46 75 105 6 43 63 66 124 140 88 155 176 199 255 255 180 187 255 99 87 183 103 98 196 60 58 179 66 42 168 77 43 152 77 41 155 113 74 189 100 75 189 60 81 202 56 89 204 59 81 178 82 106 190 71 109 172 28 77 131 52 96 157 94 98 171 73 56 138 115 116 210 70 117 209 75 118 234 119 145 255 
34 14 73 0 0 88 44 34 119 63 64 10 87 60 0 87 49 35 69 37 90 125 75 152 111 67 130 133 110 150 130 102 113 86 103 125 45 76 92 0 34 0 0 61 5 26 58 35 105 70 62 53 42 46 0 28 10 7 77 3 0 72 23 44 75 58 78 75 72 12 67 57 0 71 39 11 71 31 15 44 10 40 32 15 36 36 12 0 36 4 5 65 18 74 90 58 99 91 76 72 59 90 10 20 60 0 3 28 0 2 12 45 37 22 87 59 46 43 42 60 0 12 13 3 42 0 0 39 0 90 122 89 99 111 121 53 74 109 14 46 57 0 10 0 0 27 0 31 37 37 59 54 80 36 41 23 22 42 19 12 21 48 58 30 100 80 18 141 101 2 158 110 15 85 53 7 55 60 33 74 37 45 43 40 90 41 18 127 30 0 121 0 0 118 0 0 83 0 0 68 0 45 68 0 90 68 0 78 30 0 81 38 0 73 49 35 43 53 56 25 72 110 30 37 105 46 39 107 45 45 111 49 47 96 30 70 92 16 48 83 102 53 70 55 24 7 15 64 21 0 74 25 0 86 40 5 69 48 48 12 10 79 53 53 0 21 25 38 70 97 83 70 112 172 114 143 216 143 177 114 81 114 29 69 56 12 56 35 66 68 69 70 73 70 89 117 132 100 144 165 63 107 86 61 64 41 21 0 0 9 0 0 16 27 35 46 44 53 91 87 61 41 52 8 62 96 73 37 79 69 26 54 51 31 40 33 35 51 26 21 48 29 28 69 77 60 98 115 44 58 73 41 52 68 32 61 68 28 55 50 2 35 18 46 63 58 52 42 41 53 53 41 51 72 53 34 51 23 54 59 23 63 57 19 57 48 53 48 38 63 55 47 46 68 55 33 59 58 28 33 52 34 12 48 74 29 51 78 38 44 20 67 78 58 11 56 65 0 34 56 0 40 45 0 18 5 55 56 38 79 86 66 63 89 66 59 75 43 34 47 5 5 19 0 26 38 38 36 61 54 80 100 85 255 254 253 255 249 255 255 245 255 255 240 255 143 98 141 49 26 0 27 27 0 17 73 0 18 96 32 21 79 77 42 79 102 13 32 52 22 31 62 20 39 130 27 42 147 39 36 77 40 46 8 35 62 0 37 79 0 33 61 34 57 55 82 57 44 60 47 15 26 29 16 11 16 23 0 14 32 22 38 73 47 62 83 36 34 48 9 40 82 32 17 56 41 30 35 113 55 39 115 49 25 27 3 73 15 0 92 1 0 88 55 0 55 108 41 54 76 122 58 44 96 25 31 76 23 57 126 0 85 136 0 89 149 35 59 134 75 19 66 113 45 15 156 100 74 159 139 165 147 149 210 172 175 145 142 113 114 130 105 133 165 168 178 177 169 254 223 181 201 205 142 140 194 120 135 198 133 134 207 142 177 226 146 185 183 69 189 182 62 168 213 83 121 182 57 148 215 72 162 218 59 161 187 42 164 202 71 140 197 106 167 198 135 189 204 135 210 189 98 255 98 108 255 83 137 255 77 147 255 82 116 255 96 102 255 96 94 255 109 125 255 102 142 229 161 86 147 207 59 135 186 59 129 205 111 114 186 124 168 187 109 190 210 83 162 238 126 86 183 80 64 192 81 84 207 40 149 148 0 232 169 26 196 96 33 226 94 68 255 103 102 255 79 97 255 71 116 255 85 168 255 135 189 216 166 207 229 152 206 255 176 234 230 155 210 168 173 219 81 176 186 52 163 158 194 200 228 183 162 189 145 159 171 118 180 173 51 176 148 88 202 181 196 155 203 124 150 189 116 180 204 142 204 207 115 177 178 189 197 230 246 130 205 175 146 188 126 209 213 105 173 172 126 191 199 179 186 216 210 159 212 171 165 223 78 137 183 75 103 162 139 132 188 168 142 191 174 142 213 146 159 226 113 162 206 121 142 183 158 136 170 104 84 105 72 143 151 59 222 207 59 224 204 95 215 217 63 147 162 67 137 151 68 127 147 133 88 167 243 41 191 252 67 221 191 59 191 170 84 181 73 44 136 1 42 134 11 101 173 0 136 155 7 144 166 72 122 169 48 77 147 79 73 157 92 73 169 85 86 182 99 97 184 80 81 160 39 71 140 71 99 174 52 98 188 62 108 195 138 87 180 149 31 157 175 41 186 
59 39 98 16 13 108 35 25 110 64 65 11 66 39 0 118 80 66 76 44 97 81 31 108 73 29 92 11 0 28 25 0 8 0 16 38 0 16 32 0 22 0 0 29 0 2 34 11 70 35 27 63 52 56 26 69 51 9 79 5 27 101 52 23 54 37 43 40 37 1 56 46 0 75 43 7 67 27 28 57 23 54 46 29 44 44 20 23 69 37 13 73 26 33 49 17 45 37 22 37 24 55 20 30 70 17 37 62 27 39 49 48 40 25 64 36 23 52 51 69 27 59 60 15 54 1 1 44 0 7 39 6 9 21 31 24 45 80 3 35 46 22 49 28 15 43 6 44 50 50 38 33 59 34 39 21 30 50 27 22 31 58 71 43 113 66 4 127 106 7 163 102 7 77 78 32 80 72 45 86 42 50 48 2 52 3 0 89 0 0 123 0 0 129 0 0 124 16 0 77 0 33 56 0 80 58 0 93 45 0 83 40 0 53 29 15 28 38 41 10 57 95 39 46 114 67 60 128 35 35 101 45 43 92 6 46 68 36 68 103 87 38 55 68 37 20 40 89 46 0 47 0 0 98 52 8 72 51 59 23 21 102 76 76 37 73 77 45 77 104 80 67 109 104 46 75 121 48 82 92 59 92 38 78 65 16 60 39 51 53 54 43 46 43 38 66 81 32 76 97 28 72 51 52 55 32 80 50 48 61 48 43 50 61 69 61 59 68 53 49 23 58 69 25 30 64 41 41 83 73 48 76 73 48 57 50 22 38 13 16 43 24 7 48 56 22 60 77 53 67 82 37 48 64 46 75 82 10 37 32 0 31 14 38 55 50 65 55 54 116 116 104 66 87 68 29 46 18 37 42 6 57 51 13 70 61 66 56 46 71 20 12 11 54 41 19 55 54 24 41 60 42 13 49 75 0 15 42 36 42 18 48 59 39 39 84 93 4 51 73 0 41 46 0 28 15 33 34 16 42 49 29 29 55 32 38 54 22 20 33 0 35 49 28 30 42 42 21 46 39 40 60 45 50 48 47 53 42 60 50 28 55 73 40 83 65 20 63 75 52 22 53 53 0 9 65 0 14 92 28 4 62 60 30 67 90 8 27 47 21 30 61 25 44 135 19 34 139 43 40 81 41 47 9 42 69 0 29 71 0 25 53 26 30 28 55 27 14 30 57 25 36 44 31 26 42 49 20 46 64 54 38 73 47 52 73 26 51 65 26 30 72 22 19 58 43 35 40 118 53 37 113 66 42 44 4 74 16 0 100 9 0 83 50 5 60 113 49 62 84 94 30 16 107 36 42 103 50 84 154 28 113 181 44 134 183 69 93 184 125 69 137 184 116 87 228 172 122 207 187 164 146 148 194 156 159 168 165 136 151 167 142 140 172 175 159 158 150 195 164 122 191 195 132 146 200 126 147 210 145 140 213 148 146 195 115 184 182 68 180 173 53 156 201 71 157 218 93 162 229 86 161 217 58 174 200 55 152 190 59 132 189 98 157 188 125 166 181 112 202 181 90 255 105 115 255 99 153 255 114 184 255 125 159 255 129 135 255 109 107 255 74 90 255 57 97 213 145 70 139 199 51 135 186 59 131 207 113 130 202 140 165 184 106 182 202 75 110 186 74 64 161 58 57 185 74 66 189 22 180 179 0 231 168 25 226 126 63 255 126 100 255 103 102 255 108 126 255 94 139 255 95 178 255 153 207 223 173 214 234 157 211 241 140 198 183 108 163 139 144 190 107 202 212 95 206 201 164 170 198 205 184 211 150 164 176 128 190 183 97 222 194 63 177 156 203 162 210 154 180 219 52 116 140 104 166 169 131 193 194 199 207 240 255 184 255 189 160 202 89 172 176 97 165 164 138 203 211 162 169 199 178 127 180 159 153 211 101 160 206 111 139 198 170 163 219 164 138 187 131 99 170 146 159 226 95 144 188 151 172 213 160 138 172 133 113 134 77 148 156 4 167 152 6 171 151 22 142 144 28 112 127 58 128 142 45 104 124 106 61 140 223 21 171 203 18 172 193 61 193 149 63 160 100 71 163 72 113 205 16 106 178 0 157 176 0 130 152 39 89 136 66 95 165 68 62 146 86 67 163 77 78 174 141 139 226 245 246 255 224 255 255 226 254 255 212 255 255 50 96 183 70 19 112 172 54 180 206 72 217 
39 0 87 57 0 33 87 25 14 91 49 0 141 96 0 114 76 0 84 79 0 0 85 0 0 113 0 0 122 0 0 99 38 15 79 79 12 58 70 2 56 68 0 33 12 17 26 9 37 32 25 45 52 0 37 92 38 27 89 26 40 63 5 8 50 42 20 59 116 39 55 118 21 45 83 101 59 87 123 29 67 53 59 87 22 61 80 0 0 35 18 8 65 65 10 177 94 29 255 0 20 255 0 24 255 21 2 255 48 0 255 64 0 255 9 0 239 11 7 255 0 44 115 35 69 22 34 30 43 9 18 27 24 49 42 11 60 44 17 78 59 50 59 80 51 40 34 19 31 19 0 51 44 0 73 45 34 67 50 64 49 44 52 42 3 13 14 5 13 26 22 47 39 4 52 26 15 63 52 38 29 58 16 35 69 66 20 59 86 29 55 58 48 58 46 41 37 24 59 65 53 45 49 74 41 52 84 53 57 54 29 35 19 29 42 38 12 39 32 16 46 50 35 60 52 48 58 19 86 90 61 255 249 255 255 247 255 250 255 233 247 255 148 90 117 0 31 24 0 52 15 179 58 51 221 56 63 228 34 48 171 16 5 201 44 19 255 28 24 211 21 54 49 38 71 0 19 63 0 42 57 0 61 62 55 32 39 20 28 55 48 45 69 65 33 52 72 42 60 110 35 77 101 32 73 25 25 65 0 0 52 5 0 61 30 0 80 50 36 92 77 71 70 27 61 67 43 49 41 76 60 0 63 93 22 80 107 13 36 107 67 17 23 82 28 11 60 91 34 54 95 30 48 48 71 53 27 50 30 0 46 46 56 57 52 120 38 65 70 66 103 48 68 66 29 34 72 33 23 62 55 32 45 65 37 53 38 66 46 5 87 27 23 22 40 32 20 54 44 26 50 30 26 50 26 70 35 41 93 15 76 59 40 108 18 67 86 0 43 31 19 65 43 39 49 62 44 55 52 11 76 30 0 47 0 50 53 30 63 49 71 51 30 83 42 35 64 0 32 26 0 42 50 46 61 68 61 57 41 55 61 23 18 63 8 6 56 17 25 53 42 52 46 46 71 46 38 58 46 36 43 18 61 47 7 55 64 36 39 39 43 7 37 76 25 1 70 29 0 53 40 16 80 57 18 71 29 29 54 46 13 37 49 40 24 46 86 46 42 88 71 33 58 63 27 30 48 20 11 65 25 14 76 27 27 72 30 29 73 59 12 31 62 53 34 88 59 46 86 63 53 92 63 41 94 45 26 76 21 37 62 58 91 97 89 149 137 51 112 93 61 102 84 3 24 3 30 56 20 73 80 60 144 123 114 189 142 146 211 149 156 229 151 161 210 146 130 253 146 152 253 132 159 255 105 167 255 84 191 242 94 228 216 114 255 221 116 255 195 128 255 190 140 255 145 150 255 112 172 255 115 149 255 152 136 255 143 123 255 146 168 204 137 234 45 145 227 53 194 211 155 189 184 228 172 181 200 150 183 126 148 203 113 156 196 122 197 192 123 186 197 169 134 207 166 128 225 108 137 217 108 186 213 130 197 198 108 168 179 123 129 185 126 133 189 0 157 194 43 162 202 91 161 199 100 160 201 144 150 206 123 132 198 14 128 190 13 123 187 43 161 184 54 165 182 62 138 175 94 131 163 128 132 141 168 155 155 153 151 175 125 124 193 98 134 204 143 124 146 111 156 148 69 245 177 116 255 98 176 255 102 221 255 99 234 255 71 202 255 64 172 255 77 204 255 51 216 255 65 230 255 151 196 206 145 138 154 176 175 114 208 220 107 170 215 172 158 221 176 151 179 161 163 190 134 168 243 97 173 237 163 167 209 191 145 177 160 184 174 123 168 161 110 166 175 110 172 185 148 154 168 187 164 196 178 198 219 147 184 191 133 162 182 133 128 182 145 65 140 213 123 197 166 156 207 91 147 184 80 156 194 61 136 189 85 134 178 94 152 165 42 127 144 30 105 148 69 93 143 106 96 135 129 98 117 150 115 133 117 118 158 77 116 161 98 108 157 96 72 136 91 86 164 55 107 194 7 101 177 0 71 150 47 79 166 19 66 132 30 113 141 44 149 166 50 112 145 109 117 170 93 80 145 60 55 107 106 84 145 93 61 146 125 107 195 101 107 183 60 107 165 63 106 170 49 77 155 99 88 176 
71 1 119 87 30 63 100 38 27 82 40 0 149 104 0 204 166 0 255 255 28 222 255 28 166 255 60 105 255 104 0 88 27 0 19 19 17 63 75 64 118 130 116 160 139 152 161 144 81 76 69 94 101 46 63 118 64 91 153 90 95 118 60 14 56 48 0 22 79 0 6 69 0 2 40 69 27 55 250 156 194 193 199 227 225 255 255 243 253 255 255 245 255 255 219 255 161 96 255 0 20 255 0 0 225 5 0 247 96 27 255 111 42 255 77 40 255 163 159 255 199 254 255 219 253 206 170 166 179 81 90 99 111 136 129 183 232 216 214 255 255 189 198 219 108 97 91 31 43 31 0 17 10 0 36 8 34 67 50 99 84 79 95 85 46 82 83 74 24 37 33 46 38 3 57 31 20 51 40 26 49 78 36 32 66 63 28 67 94 36 62 65 20 30 18 37 33 20 45 51 39 42 46 71 64 75 107 52 56 53 36 42 26 36 49 45 38 65 58 67 97 101 74 99 91 52 62 23 20 24 0 25 10 19 45 30 57 64 75 47 61 93 0 40 67 0 69 62 30 196 159 255 240 233 255 231 238 255 231 245 255 240 229 255 196 171 255 52 48 235 0 10 5 0 21 0 0 37 0 127 142 61 102 103 96 85 92 73 0 8 1 0 19 15 33 52 72 65 83 133 60 102 126 15 56 8 3 43 0 13 73 26 46 127 96 75 198 168 84 140 125 53 52 9 0 4 0 24 16 51 84 23 87 108 37 95 129 35 58 86 46 0 30 89 35 32 81 112 18 38 79 37 55 55 35 17 0 54 34 0 78 78 88 43 38 106 42 69 74 44 81 26 34 32 0 0 36 0 20 59 52 76 89 109 99 115 100 169 149 108 107 47 43 6 24 16 0 21 11 0 9 0 63 87 63 108 73 79 96 18 79 84 65 133 0 35 54 8 54 42 17 63 41 25 35 48 42 53 50 3 68 22 16 77 24 30 33 10 75 61 83 46 25 78 32 25 54 20 57 51 0 23 31 32 47 54 52 48 32 39 45 7 36 81 26 13 63 24 47 75 64 88 82 82 94 69 61 83 71 61 60 35 78 62 22 70 49 21 24 41 45 9 24 63 12 0 56 15 3 69 56 12 76 53 22 75 33 56 81 73 25 49 61 55 39 61 65 25 21 70 53 15 65 70 34 41 59 31 17 71 31 0 54 5 1 46 4 2 46 32 28 47 78 71 52 106 74 61 101 77 67 106 96 74 127 39 20 70 44 60 85 25 58 64 0 55 43 27 88 69 12 53 35 66 87 66 77 103 67 109 116 96 148 127 118 178 131 135 212 150 157 221 143 153 221 157 141 255 164 170 255 150 177 255 160 222 255 141 248 255 115 249 234 132 255 219 114 255 136 69 255 169 119 255 162 167 255 109 169 255 157 191 255 189 173 255 146 126 255 160 182 218 131 228 39 117 199 25 172 189 133 199 194 238 175 184 203 177 210 153 187 242 152 201 241 167 243 238 169 176 187 159 106 179 138 48 145 28 116 196 87 163 190 107 165 166 76 197 208 152 131 187 128 155 211 14 169 206 55 136 176 65 150 188 89 167 208 151 129 185 102 138 204 20 155 217 40 150 214 70 181 204 74 137 154 34 113 150 69 122 154 119 154 163 190 178 178 176 147 171 121 131 200 105 114 184 123 183 205 170 203 195 116 239 171 110 255 74 152 255 54 173 255 66 201 255 69 200 255 106 214 255 103 230 255 67 232 255 53 218 223 90 135 170 109 102 166 188 187 104 198 210 126 189 234 183 169 232 193 168 196 179 181 208 104 138 213 106 182 246 142 146 188 176 130 162 169 193 183 104 149 142 115 171 180 116 178 191 148 154 168 177 154 186 134 154 175 131 168 175 116 145 165 159 154 208 194 114 189 198 108 182 156 146 197 98 154 191 95 171 209 100 175 228 77 126 170 58 116 129 45 130 147 46 121 164 112 136 186 131 121 160 113 82 101 131 96 114 103 104 144 96 135 180 124 134 183 125 101 165 99 94 172 57 109 196 11 105 181 34 109 188 71 103 190 66 113 179 45 128 156 5 110 127 20 82 115 85 93 146 119 106 171 113 108 160 114 92 153 109 77 162 116 98 186 124 130 206 66 113 171 32 75 139 50 78 156 92 81 169 
128 41 72 181 52 68 195 122 129 153 95 124 96 47 52 28 5 0 1 14 0 22 95 20 6 98 37 4 65 35 109 20 30 212 0 41 222 0 102 248 0 144 221 0 105 218 0 66 232 0 36 197 0 8 212 0 34 173 0 30 10 22 30 16 55 46 18 25 23 67 51 73 64 25 44 60 19 41 43 37 53 0 47 10 0 72 24 27 57 33 56 52 36 50 24 50 46 19 58 9 60 31 0 89 16 89 41 41 104 25 60 40 26 65 14 56 68 0 76 35 0 68 20 88 21 44 82 52 64 37 116 83 15 84 43 16 54 0 19 0 0 40 0 5 40 0 45 45 63 97 24 85 102 59 54 60 86 84 93 49 84 136 34 74 121 9 74 56 4 67 0 64 46 0 93 75 49 31 94 79 33 79 54 0 52 0 0 50 13 21 24 57 20 34 75 18 116 77 0 87 22 67 51 24 78 14 27 117 23 69 123 57 83 97 88 67 100 81 73 63 38 58 12 69 72 0 97 67 0 82 52 46 80 70 52 22 42 61 36 64 38 30 65 45 36 53 75 59 71 80 33 51 51 35 23 1 41 0 0 46 0 10 77 38 45 89 84 73 59 96 66 47 115 28 31 138 33 17 255 37 4 255 75 0 255 85 0 255 91 1 255 57 24 255 40 26 255 59 49 255 21 19 205 58 71 161 37 75 48 7 87 0 30 106 0 27 72 0 44 68 48 43 68 76 26 51 60 48 64 67 52 32 73 81 38 129 77 60 124 29 65 51 38 77 22 26 39 0 49 55 67 39 58 138 29 59 83 16 60 49 0 24 29 42 31 61 51 41 102 64 73 120 75 73 38 81 59 0 21 41 0 0 58 0 0 62 30 0 68 34 36 96 46 24 47 5 60 48 56 52 23 65 93 0 70 127 17 64 89 15 28 73 41 66 17 29 65 0 15 38 0 18 21 27 8 0 66 23 0 116 96 93 77 80 109 44 80 108 8 62 50 0 33 0 11 76 46 0 64 76 8 40 73 0 1 49 16 1 88 64 13 156 131 79 202 135 117 223 50 61 157 103 129 217 111 113 176 130 101 94 119 108 6 0 25 0 5 46 0 63 63 77 70 48 72 61 54 32 35 54 0 24 64 5 39 46 53 76 39 58 58 43 10 43 71 11 46 70 30 22 46 58 10 22 30 43 44 0 33 63 0 26 104 32 150 244 195 224 255 255 252 250 255 250 249 255 74 100 211 0 24 133 0 64 79 69 109 71 64 93 49 62 76 39 63 39 41 108 70 97 162 102 126 224 136 208 212 136 230 199 144 255 159 133 255 107 129 255 99 132 255 136 111 255 167 121 255 159 134 255 158 136 255 151 135 255 137 167 255 143 218 113 103 228 88 111 227 82 154 195 113 152 182 144 160 199 96 186 167 79 195 152 108 194 179 100 212 216 89 198 243 126 183 240 89 168 198 86 150 188 127 115 206 97 124 223 92 132 215 135 132 203 145 156 200 77 175 214 85 165 222 105 126 225 120 122 193 149 137 178 124 159 185 108 158 203 116 150 205 133 143 198 109 167 186 93 190 175 106 181 170 128 176 183 135 191 189 136 184 179 123 159 163 98 145 158 93 137 161 85 123 167 66 137 175 75 143 192 96 133 192 100 126 210 126 105 194 140 100 172 148 150 174 186 162 155 193 169 155 190 148 168 183 157 183 186 171 193 192 169 177 175 146 144 151 103 124 133 125 174 182 171 216 225 182 216 232 176 191 222 144 176 211 130 179 206 131 194 187 151 185 172 155 150 156 151 138 180 151 163 227 143 150 216 168 163 215 185 162 220 149 143 205 150 172 244 129 160 229 137 145 195 156 150 176 155 133 160 174 154 191 161 143 191 139 155 184 122 155 174 130 162 171 134 165 181 104 161 184 113 199 200 101 187 196 108 143 187 120 122 182 125 98 139 182 89 104 255 52 78 255 35 73 255 25 84 255 47 127 255 44 177 255 1 184 255 17 241 255 0 207 217 0 196 178 24 210 127 56 200 127 134 218 68 178 202 23 179 192 74 127 191 98 107 180 112 95 153 89 74 101 43 56 58 112 104 129 255 227 247 252 255 255 246 255 255 224 255 235 168 230 241 105 124 212 78 76 127 155 146 179 129 130 200 67 109 209 59 95 255 
95 8 39 129 0 16 89 16 23 89 31 60 87 38 43 60 37 7 62 75 18 30 103 28 44 136 75 172 233 203 255 227 237 255 132 232 255 35 196 211 0 107 178 0 62 190 0 38 255 1 71 238 0 49 249 0 71 150 0 7 11 23 31 0 30 21 26 33 31 37 21 43 59 20 39 132 91 113 72 66 82 30 88 51 0 76 28 225 255 231 255 255 239 255 244 255 255 242 255 56 107 78 0 64 0 60 12 12 124 45 80 119 105 144 224 255 255 187 255 249 211 255 233 255 232 255 97 67 79 0 29 0 0 41 0 12 50 0 93 72 31 86 24 51 44 0 49 34 52 86 0 48 65 63 58 64 93 91 100 25 60 112 13 53 100 10 75 57 0 55 0 57 39 0 48 30 4 2 65 50 19 65 40 16 77 14 25 87 50 32 35 68 46 60 101 0 93 54 0 69 4 56 40 13 105 41 54 121 27 73 128 62 88 79 70 49 91 72 64 106 81 101 23 80 83 0 98 68 0 69 39 17 51 41 91 61 81 63 38 66 69 61 96 38 29 46 29 13 25 72 25 43 27 11 0 32 72 13 40 92 32 11 78 39 27 71 66 54 40 77 48 29 97 31 34 141 39 23 255 36 3 255 106 9 255 111 0 255 79 0 255 41 8 255 10 0 255 33 23 255 56 54 240 42 55 145 38 76 49 4 84 0 4 80 0 13 58 0 45 69 49 34 59 67 57 82 91 73 89 92 59 39 80 52 9 100 45 28 92 23 59 45 33 72 17 49 62 4 42 48 60 8 27 107 23 53 77 0 43 32 26 53 58 58 47 77 57 47 108 44 53 100 52 50 15 84 62 0 38 58 0 0 77 3 0 60 28 0 74 40 34 94 44 37 60 18 59 47 55 22 0 35 87 0 64 102 0 39 100 26 39 68 36 61 35 47 83 0 52 75 0 42 45 45 26 0 82 39 8 65 45 42 48 51 80 13 49 77 9 63 51 9 60 15 9 74 44 0 64 76 9 41 74 27 51 99 39 24 111 80 29 172 85 33 156 73 55 161 73 84 180 82 108 196 113 115 178 130 101 94 114 103 1 45 79 0 8 49 3 41 41 55 43 21 45 65 58 36 76 95 28 80 120 61 98 105 112 141 104 123 84 69 36 22 50 0 16 40 0 0 5 17 55 67 75 80 81 0 53 83 0 0 70 0 0 59 10 4 48 43 59 57 90 96 95 141 67 93 204 92 178 255 106 204 219 198 238 200 152 181 137 149 163 126 118 94 96 139 101 128 228 168 192 221 133 205 236 160 254 166 111 255 146 120 255 136 158 255 96 129 255 146 121 255 150 104 255 146 121 255 162 140 255 147 131 255 144 174 255 143 218 113 105 230 90 122 238 93 168 209 127 157 187 149 160 199 96 212 193 105 206 163 119 209 194 115 203 207 80 173 218 101 182 239 88 215 245 133 222 255 199 154 245 136 115 214 83 93 176 96 92 163 105 150 194 71 145 184 55 82 139 22 49 148 43 122 193 149 219 255 206 237 255 186 161 206 119 170 225 153 130 185 96 178 197 104 198 183 114 130 119 77 156 163 115 195 193 140 172 167 111 186 190 125 142 155 90 118 142 66 141 185 84 134 172 72 122 171 75 92 151 59 98 182 98 156 245 191 148 220 196 163 187 199 181 174 212 157 143 178 155 175 190 157 183 186 151 173 172 164 172 170 203 201 208 156 177 186 127 176 184 140 185 194 118 152 168 163 178 209 140 172 207 121 170 197 114 177 170 126 160 147 184 179 185 179 166 208 172 184 248 154 161 227 144 139 191 162 139 197 153 147 209 134 156 228 126 157 226 145 153 203 162 156 182 169 147 174 172 152 189 172 154 202 154 170 199 142 175 194 126 158 167 111 142 158 105 162 185 86 172 173 101 187 196 140 175 219 153 155 215 205 178 219 255 177 192 255 108 134 255 80 118 255 0 56 209 0 22 195 0 52 255 0 162 255 25 249 255 28 255 255 19 247 168 14 200 119 48 192 106 113 197 58 168 192 0 150 163 72 125 189 89 98 171 78 61 119 91 76 103 63 76 78 83 75 100 128 97 117 134 137 144 145 157 159 158 208 169 190 252 255 205 224 255 193 191 242 178 169 202 170 171 241 149 191 255 197 233 255 
56 29 84 65 28 86 54 54 32 23 81 0 79 120 0 255 255 99 255 246 255 238 249 255 225 255 255 87 97 110 44 1 77 22 0 128 5 19 130 20 64 53 10 70 0 17 67 10 13 46 17 17 41 67 13 49 75 5 44 51 21 45 69 23 31 46 51 43 29 2 0 1 0 11 0 16 28 30 31 23 58 105 98 138 67 66 94 39 78 73 0 53 14 0 19 0 11 53 43 31 56 64 30 70 81 43 85 95 21 53 46 23 26 23 89 64 73 83 62 67 71 95 91 43 82 77 1 20 2 6 9 2 0 9 14 28 70 72 15 58 44 13 41 4 52 73 0 38 61 0 33 64 37 21 34 26 26 29 0 32 49 9 46 55 24 38 41 46 20 29 50 40 80 84 47 79 88 72 85 105 107 92 121 72 60 84 76 86 99 38 46 47 22 2 0 44 39 6 142 55 50 96 54 46 113 72 56 120 43 45 99 11 24 115 53 64 80 68 56 0 88 27 0 108 27 31 151 114 152 255 255 182 255 255 217 255 255 255 245 255 152 102 139 71 32 49 37 18 0 27 67 8 0 85 6 48 99 54 10 76 42 20 45 28 0 62 52 0 77 62 0 86 82 38 51 81 52 49 78 60 30 67 8 26 28 38 49 46 198 118 141 255 210 247 255 232 237 245 255 255 148 245 216 0 87 29 0 72 30 97 85 77 72 86 83 45 54 65 16 14 3 35 48 17 79 29 50 131 31 91 70 67 106 34 43 72 35 52 58 28 69 64 38 40 53 56 53 58 41 79 78 2 57 50 19 49 35 56 34 25 84 11 18 39 44 36 0 65 36 17 71 35 53 44 13 95 35 15 102 21 24 82 28 48 74 34 57 105 18 57 74 6 41 59 42 48 0 36 27 0 71 59 0 104 101 27 47 58 77 52 70 53 20 49 34 25 42 16 53 47 4 38 28 38 32 28 37 56 50 14 41 22 46 77 31 0 37 0 48 13 31 109 22 65 36 12 22 50 76 59 26 58 57 22 52 72 79 46 103 78 24 74 43 78 88 28 74 60 66 85 80 67 86 78 90 94 84 80 101 70 22 105 25 8 78 2 18 41 0 42 43 23 53 40 35 63 63 51 43 73 27 36 72 0 46 71 0 43 58 0 38 59 14 8 49 19 25 45 48 50 41 74 36 25 69 43 41 128 33 44 114 34 58 72 66 63 68 86 75 70 131 130 122 179 179 193 153 147 161 230 240 253 255 248 255 255 246 255 255 246 255 239 237 255 178 188 193 201 215 214 117 124 122 115 140 112 165 207 183 109 148 113 198 239 161 221 255 186 132 166 101 107 142 64 84 105 74 140 164 164 187 227 170 219 255 152 225 255 139 170 231 114 236 255 194 238 255 162 246 255 113 235 255 141 167 204 136 122 143 126 185 200 149 164 202 103 134 182 108 181 230 178 122 165 90 170 218 120 179 237 112 100 185 56 120 189 95 136 214 150 146 208 171 184 228 243 134 158 200 105 105 181 161 153 255 187 208 255 209 222 255 156 152 255 178 179 255 146 186 255 73 209 235 78 255 241 71 195 155 147 158 54 221 159 10 202 103 11 210 109 91 222 141 159 186 122 134 213 156 149 174 160 138 144 186 116 117 198 79 109 194 113 122 190 119 164 166 117 180 175 139 152 165 134 139 192 212 132 189 255 130 195 247 106 179 207 115 162 168 130 174 153 99 215 192 135 198 203 172 177 195 134 182 172 140 175 155 161 170 187 149 158 213 241 109 204 237 139 204 136 176 198 147 173 199 172 173 205 147 143 179 193 132 185 136 157 192 103 182 209 166 176 225 170 145 188 167 137 159 166 143 159 150 158 172 115 178 183 60 203 187 31 213 187 75 192 196 94 190 216 98 177 206 130 153 173 149 145 168 198 130 205 255 101 221 231 124 218 153 146 214 137 146 239 121 160 255 105 156 251 154 125 177 135 126 79 109 110 92 139 90 159 160 94 182 163 120 178 158 142 177 77 155 169 0 137 198 0 118 179 0 158 169 16 190 175 121 143 181 75 117 171 71 117 155 231 214 255 249 248 255 236 255 255 255 244 255 156 218 195 111 121 83 88 73 66 111 123 121 106 113 153 133 123 250 154 133 248 180 131 244 167 199 255 115 180 246 70 123 189 
83 56 111 111 74 132 58 58 36 101 159 0 131 172 0 112 118 0 94 77 105 0 0 70 54 93 112 246 255 255 255 233 255 255 225 255 169 183 255 86 130 119 24 84 0 31 81 24 0 31 2 10 34 60 18 54 80 38 77 84 34 58 82 0 7 22 49 41 27 32 28 31 14 28 7 37 49 51 26 18 53 21 14 54 26 25 53 5 44 39 0 51 12 26 81 51 29 71 61 26 51 59 45 85 96 0 33 43 6 38 31 49 52 49 57 32 41 65 44 49 9 33 29 0 27 22 12 31 13 52 55 48 53 64 69 15 57 59 11 54 40 9 37 0 27 48 0 31 54 0 39 70 43 59 72 64 56 59 30 23 40 0 12 21 0 31 34 39 27 36 57 37 77 81 24 56 65 21 34 54 59 44 73 44 32 56 46 56 69 50 58 59 68 48 33 47 42 9 100 13 8 73 31 23 79 38 22 122 45 47 120 32 45 96 34 45 50 38 26 0 88 27 0 104 23 0 97 60 0 97 73 0 84 64 18 74 61 73 51 76 75 25 62 52 13 30 53 34 13 13 53 0 2 87 8 26 77 32 6 72 38 27 52 35 12 76 66 0 117 102 56 157 153 164 177 207 190 187 216 159 129 166 71 89 91 28 39 36 57 0 0 149 15 52 133 59 64 68 82 79 21 118 89 0 136 78 26 101 59 80 68 60 62 76 73 28 37 48 44 42 31 59 72 41 79 29 50 136 36 96 58 55 94 28 37 66 22 39 45 27 68 63 52 54 67 76 73 78 30 68 67 7 62 55 24 54 40 60 38 29 86 13 20 24 29 21 10 78 49 7 61 25 64 55 24 89 29 9 96 15 18 73 19 39 71 31 54 93 6 45 75 7 42 51 34 40 18 56 47 0 94 82 0 88 85 29 49 60 60 35 53 38 5 34 45 36 53 14 51 45 22 56 46 57 51 47 27 46 40 10 37 18 3 34 0 9 54 12 67 32 50 112 25 68 63 39 49 41 67 50 30 62 61 17 47 67 61 28 85 38 0 34 15 50 60 12 58 44 46 65 60 70 89 81 66 70 60 49 70 39 0 81 1 0 68 0 37 60 17 60 61 41 69 56 51 62 62 50 46 76 30 32 68 0 27 52 0 23 38 0 17 38 0 15 56 26 44 64 67 70 61 94 58 47 91 46 44 131 20 31 101 16 40 54 44 41 46 57 46 41 60 59 51 41 41 55 52 46 60 39 49 62 37 28 61 89 68 87 161 145 180 185 183 232 183 193 198 159 173 172 158 165 163 157 182 154 149 191 167 135 174 139 125 166 88 159 202 124 176 210 145 146 181 103 177 198 167 159 183 183 161 201 144 158 231 91 155 222 69 164 225 108 160 199 118 171 207 95 155 195 22 164 216 70 166 203 135 177 198 181 202 217 166 178 216 117 174 222 148 160 209 157 168 211 136 158 206 108 156 214 89 124 209 80 146 215 121 131 209 145 150 212 175 148 192 207 145 169 211 159 159 235 166 158 255 163 184 255 149 162 255 136 132 255 147 148 255 117 157 230 73 209 235 47 239 210 80 204 164 167 178 74 227 165 16 215 116 24 183 82 64 176 95 113 195 131 143 236 179 172 210 196 174 147 189 119 119 200 81 108 193 112 111 179 108 148 150 101 162 157 121 167 180 149 145 198 218 139 196 255 132 197 249 139 212 240 123 170 176 141 185 164 67 183 160 121 184 189 169 174 192 135 183 173 149 184 164 146 155 172 151 160 215 234 102 197 216 118 183 137 177 199 114 140 166 140 141 173 155 151 187 197 136 189 168 189 224 119 198 225 155 165 214 186 161 204 181 151 173 163 140 156 148 156 170 111 174 179 74 217 201 44 226 200 76 193 197 68 164 190 30 109 138 121 144 164 177 173 196 255 188 255 255 136 255 217 110 204 145 138 206 139 148 241 117 156 255 100 151 246 135 106 158 125 116 69 123 124 106 129 80 149 153 87 175 164 121 179 131 115 150 59 137 151 0 130 191 3 125 186 12 174 185 14 188 173 126 148 186 76 118 172 63 109 147 86 69 125 73 72 126 71 94 114 112 89 121 72 134 111 79 89 51 99 84 77 101 113 111 107 114 154 128 118 245 148 127 242 177 128 241 147 179 255 139 204 255 163 216 255 
47 17 215 57 41 128 38 19 37 7 32 6 14 37 20 68 30 77 123 50 151 81 56 144 65 57 191 19 41 198 0 10 162 16 0 240 69 0 255 49 3 255 32 0 255 30 0 255 0 15 195 17 0 232 46 18 238 2 13 255 0 0 244 37 0 255 43 0 255 49 0 255 60 0 255 16 0 251 14 0 243 70 4 0 132 37 0 107 20 0 105 31 6 83 34 42 56 0 100 76 0 154 39 41 130 0 73 92 12 93 126 79 23 182 117 0 225 99 0 218 85 0 229 66 0 224 46 7 180 46 33 99 11 88 0 3 118 0 49 86 0 25 77 0 37 98 0 113 159 0 242 255 28 255 255 28 255 255 28 174 255 0 35 130 0 48 128 0 107 204 0 233 254 17 255 187 100 151 164 160 68 99 97 15 27 39 0 0 54 19 0 90 77 5 127 18 71 15 83 156 0 142 160 0 94 89 0 81 96 0 21 72 0 0 83 0 0 130 0 12 111 0 23 116 0 0 114 0 12 120 0 33 111 0 47 89 0 72 88 0 69 85 0 58 104 0 37 66 0 21 28 68 20 4 239 35 25 255 24 10 255 33 8 255 41 16 255 15 19 105 43 46 175 33 23 131 36 31 11 54 39 8 58 57 40 48 49 91 48 43 95 50 34 57 40 40 0 68 84 52 70 100 150 81 119 146 50 84 82 34 53 47 37 70 0 45 97 0 58 79 48 58 53 9 47 36 0 49 31 39 59 66 125 43 47 184 28 18 255 32 30 213 13 73 0 27 80 14 20 61 91 26 62 38 32 59 18 46 62 13 49 61 25 39 28 59 40 42 131 20 48 35 15 37 3 50 50 48 31 28 23 58 45 43 56 53 6 31 51 0 38 68 10 31 47 58 22 40 74 44 57 53 27 44 14 29 41 69 28 27 115 48 16 77 72 40 39 77 52 0 92 84 34 41 49 66 18 59 93 0 46 5 0 18 0 11 23 57 9 17 76 56 78 106 58 100 108 55 92 53 73 80 74 54 45 80 15 26 23 18 40 0 7 21 0 33 39 49 43 47 62 42 48 22 46 56 7 17 20 0 32 42 19 30 51 48 17 60 44 94 121 78 59 73 60 43 51 101 0 22 51 0 35 24 43 95 43 53 69 11 79 64 31 36 29 22 11 29 0 35 56 3 38 28 15 82 48 95 59 25 107 68 55 123 65 61 185 18 0 255 27 1 255 29 4 255 17 12 255 81 80 255 153 154 255 235 221 255 255 209 255 255 233 255 255 255 233 210 196 171 169 162 140 97 155 92 49 167 97 87 228 148 90 231 141 182 255 195 177 208 67 182 195 16 185 173 87 171 147 85 209 163 135 182 144 107 201 216 103 158 246 120 133 235 163 191 254 177 194 181 88 230 196 85 190 188 37 179 193 92 168 221 215 116 214 201 151 211 151 152 219 151 160 235 164 157 223 163 160 239 208 158 207 163 220 196 120 192 184 99 152 174 101 156 181 127 141 199 153 165 208 166 208 164 139 184 147 116 146 173 116 142 215 138 118 227 124 139 217 119 172 180 119 172 186 121 140 203 126 134 192 122 134 180 119 140 144 71 154 144 81 131 151 76 97 188 96 109 217 117 127 186 108 150 157 125 158 169 166 130 170 173 129 197 194 137 184 178 173 162 180 194 176 202 182 176 192 174 166 175 178 155 189 174 135 188 169 143 195 153 172 216 151 186 220 142 195 225 126 168 222 137 164 231 144 173 190 158 196 149 154 178 104 148 169 142 144 149 191 149 154 208 136 167 207 101 146 187 107 147 230 134 149 255 136 153 244 156 167 207 150 149 203 133 113 173 169 125 190 219 160 238 221 156 208 180 123 190 127 97 169 93 177 219 212 168 239 255 170 220 246 144 182 208 125 193 204 163 243 196 150 255 240 107 200 195 130 114 140 137 130 214 141 206 145 119 181 151 96 168 170 116 140 100 97 68 115 112 145 85 130 211 5 144 185 152 116 194 107 118 158 87 118 124 123 111 195 56 80 194 0 81 110 139 32 96 0 78 58 25 109 85 131 185 199 93 170 166 156 206 147 182 110 74 95 98 39 42 122 45 106 137 91 97 117 80 102 92 68 137 98 103 101 94 132 104 139 191 126 132 194 111 101 176 182 192 255 158 189 245 
18 0 186 44 28 115 62 43 61 26 51 25 50 73 56 67 29 76 99 26 127 61 36 124 29 21 155 5 27 184 0 18 170 39 0 255 161 79 255 255 210 255 250 213 255 249 214 255 149 172 255 42 25 255 0 0 186 0 0 249 26 10 255 51 10 255 32 0 255 15 0 225 24 0 237 70 41 255 103 75 255 159 93 57 103 8 0 64 0 0 61 0 0 98 49 57 99 33 143 105 26 183 50 52 141 0 84 103 11 92 125 82 26 185 113 0 221 94 0 213 131 29 255 95 7 253 41 2 175 4 0 57 0 36 0 0 108 0 62 99 0 135 187 0 62 123 0 55 101 0 0 50 0 13 50 0 80 99 0 15 125 0 20 115 0 2 82 0 0 89 0 60 81 0 96 28 0 35 48 44 26 57 55 42 54 66 78 76 137 67 20 138 77 5 127 31 84 28 0 58 0 77 95 0 94 89 0 77 92 0 49 100 0 0 99 0 0 113 0 0 97 0 20 113 0 0 121 0 2 110 0 33 111 0 40 82 0 74 90 0 72 88 0 44 90 0 46 75 0 31 38 78 29 13 248 14 4 255 25 11 255 26 1 255 44 19 255 28 32 118 0 0 129 35 25 133 41 36 16 81 66 35 77 76 59 54 55 97 70 65 117 57 41 64 47 47 7 31 47 15 25 55 105 30 68 95 51 85 83 119 138 132 242 255 184 239 255 107 243 255 233 233 228 184 93 82 24 28 10 18 47 54 113 37 41 178 42 32 255 37 35 218 0 55 0 23 76 10 4 45 75 31 67 43 40 67 26 49 65 16 48 60 24 44 33 64 9 11 100 19 47 34 57 79 45 35 35 33 51 48 43 41 28 26 35 32 0 46 66 0 57 87 29 112 128 139 185 203 237 246 255 255 246 255 233 243 255 255 162 161 249 83 51 112 44 12 11 35 10 0 37 29 0 48 56 73 30 71 105 14 64 23 57 93 35 28 40 74 16 24 83 49 71 99 24 66 74 59 96 57 93 100 94 30 21 56 20 31 28 78 100 40 66 80 43 51 57 67 27 31 46 27 33 7 32 42 0 57 60 31 44 54 31 11 32 29 16 59 43 45 72 29 69 83 70 44 52 102 18 57 86 3 53 42 0 42 0 47 63 5 65 50 17 49 42 35 55 73 39 38 59 6 65 55 42 64 30 77 57 23 105 50 37 105 38 34 158 53 31 255 36 10 255 57 32 255 45 40 255 85 84 255 131 132 255 158 144 255 196 148 255 184 151 252 164 157 135 173 159 134 178 171 149 146 204 141 108 226 156 100 241 161 93 234 144 117 212 130 135 166 25 216 229 50 255 243 157 255 254 192 255 211 183 227 189 152 181 196 83 153 241 115 154 255 184 148 211 134 225 212 119 255 222 111 173 171 20 218 232 131 146 199 193 115 213 200 165 225 165 135 202 134 150 225 154 136 202 142 144 223 192 140 189 145 212 188 112 186 178 93 175 197 124 172 197 143 66 124 78 145 188 146 195 151 126 218 181 150 199 226 169 132 205 128 114 223 120 147 225 127 212 220 159 160 174 109 145 208 131 127 185 115 109 155 94 172 176 103 170 160 97 155 175 100 115 206 114 99 207 107 139 198 120 172 179 147 164 175 172 147 187 190 114 182 179 146 193 187 169 158 176 167 149 175 173 167 183 183 175 184 195 172 206 196 157 210 177 151 203 131 150 194 143 178 212 120 173 203 129 171 225 140 167 234 122 151 168 121 159 112 126 150 76 132 153 126 152 157 199 181 186 240 167 198 238 134 179 220 120 160 243 129 144 255 127 144 235 156 167 207 172 171 225 171 151 211 215 171 236 197 138 216 186 121 173 201 144 211 155 125 197 94 178 220 198 154 225 211 115 165 236 134 172 209 126 194 174 133 213 185 139 255 255 124 217 221 156 140 166 163 156 231 158 223 151 124 187 134 79 151 112 58 82 31 28 0 76 73 106 99 144 225 11 150 191 118 82 160 27 38 78 0 21 27 78 66 150 84 108 222 89 182 211 227 120 184 101 208 188 88 172 148 66 120 134 29 106 102 63 113 54 150 78 42 126 129 70 51 131 54 90 121 75 129 149 112 159 149 125 207 168 173 181 174 212 163 198 250 188 194 255 186 176 251 175 185 255 189 220 255 
54 87 58 0 111 66 0 93 106 0 60 188 14 93 39 48 55 9 31 31 27 34 24 37 82 0 73 119 0 112 120 35 55 46 3 0 2 59 36 0 63 24 0 59 17 44 75 32 45 51 11 48 52 41 31 53 55 0 39 47 20 38 26 60 26 29 51 36 79 44 51 81 53 85 52 6 55 1 5 0 0 33 0 15 0 0 58 19 131 131 74 193 115 81 162 118 51 61 100 12 0 46 0 15 19 44 90 31 105 92 9 121 52 32 103 44 78 82 51 68 50 77 44 44 116 82 49 90 106 43 48 90 52 63 97 6 32 41 0 29 32 0 60 48 31 77 52 35 51 0 41 73 0 97 149 99 75 119 108 83 139 126 12 79 48 8 12 11 0 7 10 3 16 47 37 29 67 31 35 51 81 77 80 65 41 53 66 47 65 34 43 60 43 36 55 42 38 49 49 44 60 60 70 73 53 56 25 60 76 0 41 53 0 33 59 0 31 84 0 0 79 0 0 93 6 0 77 34 0 72 70 6 48 100 13 47 146 13 49 139 28 38 88 62 54 81 35 13 21 54 17 47 37 19 81 17 39 67 58 74 75 64 65 56 50 60 21 7 44 5 0 58 60 0 68 27 11 82 16 74 96 62 35 57 20 22 52 74 32 44 132 12 24 50 48 67 49 51 59 50 48 63 48 25 64 71 30 51 96 25 52 19 29 56 0 48 71 13 50 58 5 76 77 60 87 87 111 82 86 83 111 137 114 101 99 109 135 98 130 122 73 140 79 40 109 57 47 88 14 23 52 19 29 76 30 50 89 63 55 93 111 116 126 69 90 71 77 103 68 9 48 3 0 25 0 0 24 0 0 46 0 19 96 32 37 85 57 21 79 43 11 55 18 48 55 26 37 29 5 26 33 40 44 62 88 16 59 64 47 77 89 42 23 41 33 5 6 23 27 26 26 37 42 45 64 46 31 46 19 79 54 48 70 45 75 43 45 116 69 87 185 74 99 180 108 136 172 77 91 87 44 61 29 0 46 0 0 60 0 15 68 0 37 69 0 55 77 14 24 59 53 16 64 65 2 41 32 22 28 14 44 48 12 64 56 19 58 60 7 72 69 38 52 59 29 51 71 32 45 66 45 52 59 91 54 77 105 35 73 98 16 53 47 10 38 2 18 34 37 12 30 44 37 85 73 20 64 50 17 51 38 64 60 34 62 49 44 65 58 61 55 82 63 60 89 49 94 139 71 141 173 122 140 174 163 141 190 217 138 194 207 138 177 168 148 162 177 158 145 203 168 144 206 175 166 201 156 157 140 159 169 95 175 188 105 167 193 116 148 211 116 136 213 97 145 222 68 174 233 57 203 254 79 227 255 127 195 255 104 186 252 54 144 182 0 150 176 3 146 186 85 142 186 139 162 206 161 169 176 154 210 178 203 238 200 235 217 178 197 239 208 178 170 192 97 175 197 128 182 206 160 132 160 133 137 217 160 101 215 131 102 228 140 131 209 122 135 193 147 162 198 202 156 172 157 188 206 132 180 198 112 174 193 116 181 188 166 180 180 158 160 194 86 135 205 58 124 200 88 132 173 95 144 181 141 146 187 185 166 208 180 146 189 131 148 179 126 127 141 102 154 161 167 171 161 208 155 139 138 155 160 126 151 165 177 140 158 206 144 186 255 143 180 255 99 170 164 139 200 144 141 173 166 165 175 212 193 177 199 151 133 99 206 209 92 197 189 100 193 184 219 157 167 243 151 165 190 144 176 166 159 189 191 200 196 233 144 141 222 166 162 250 166 176 239 116 144 196 157 172 213 158 179 220 126 176 213 145 204 255 135 167 255 164 170 216 164 155 174 152 167 202 157 177 198 155 169 184 172 184 218 135 176 145 133 184 127 130 171 143 130 157 162 135 164 194 129 150 207 148 156 191 149 141 176 148 150 223 143 150 232 132 135 182 129 129 175 100 114 113 96 137 9 79 142 1 91 134 58 88 149 104 49 93 116 74 100 163 49 80 146 55 95 222 73 94 255 71 80 173 103 103 139 97 105 132 105 128 148 110 114 140 85 73 111 104 76 121 75 67 138 49 78 166 77 112 218 88 138 209 120 188 203 115 192 214 144 202 255 145 202 255 157 179 243 166 184 202 162 174 140 142 143 149 129 112 153 66 51 104 
235 255 239 0 130 85 0 65 78 0 11 139 0 71 17 69 76 30 41 41 37 53 43 56 90 0 81 101 0 94 108 23 43 68 25 5 0 36 13 0 78 39 0 59 17 34 65 22 58 64 24 48 52 41 24 46 48 0 36 44 20 38 26 75 41 44 48 33 76 19 26 56 21 53 20 19 68 14 47 42 26 94 40 76 12 33 92 0 79 79 0 78 0 0 56 12 8 18 57 39 11 73 31 54 58 31 77 18 92 79 0 89 20 0 78 19 53 44 13 30 34 61 28 0 70 36 0 38 54 21 26 68 19 30 64 24 50 59 18 50 53 0 59 47 2 48 23 36 52 0 34 66 0 18 70 20 13 57 46 9 65 52 0 54 23 40 44 43 31 41 44 35 48 79 40 32 70 36 40 56 42 38 41 62 38 50 54 35 53 23 32 49 51 44 63 30 26 37 61 56 72 43 53 56 44 47 16 59 75 0 34 46 0 59 85 0 24 77 0 19 110 3 0 87 0 0 84 41 0 68 66 0 28 80 6 40 139 0 15 105 44 54 104 54 46 73 63 41 49 69 32 62 46 28 90 40 62 90 38 54 55 54 55 46 32 42 3 13 50 11 10 70 72 0 61 20 24 95 29 35 57 23 45 67 30 21 51 73 13 25 113 34 46 72 26 45 27 58 66 57 49 64 49 17 56 63 31 52 97 35 62 29 53 80 17 45 68 10 38 46 0 18 19 2 38 38 62 62 66 63 69 95 72 73 71 81 85 48 80 83 34 101 53 14 83 49 39 80 31 40 69 39 49 96 105 125 164 255 248 255 250 255 255 242 255 244 240 255 231 67 106 61 0 43 0 0 34 0 0 73 0 27 104 40 39 87 59 2 60 24 4 48 11 52 59 30 106 98 74 200 207 214 239 255 255 224 255 255 232 255 255 190 171 189 81 53 54 61 65 64 112 123 128 164 183 165 199 214 187 180 155 149 82 57 87 19 21 92 3 21 119 102 127 208 127 155 191 115 129 125 78 95 63 5 64 0 0 62 0 32 85 0 57 89 0 32 54 0 19 54 48 0 39 40 22 61 52 31 37 23 72 76 40 78 70 33 41 43 0 57 54 23 38 45 15 57 77 38 59 80 59 83 90 122 57 80 108 40 78 103 45 82 76 37 65 29 37 53 56 27 45 59 24 72 60 24 68 54 28 62 49 68 64 38 46 33 28 61 54 57 41 68 49 66 95 55 73 118 50 93 125 74 114 148 137 108 157 184 127 183 196 152 191 182 160 174 189 164 151 209 173 149 211 156 147 182 164 165 148 168 178 104 161 174 91 156 182 105 144 207 112 151 228 112 158 235 81 164 223 47 160 211 36 150 196 50 135 222 44 162 228 30 189 227 30 200 226 53 186 226 125 170 214 167 163 207 162 183 190 168 208 176 201 211 173 208 209 170 189 218 187 157 204 226 131 220 242 173 226 250 204 218 246 219 139 219 162 111 225 141 114 240 152 133 211 124 140 198 152 148 184 188 153 169 154 177 195 121 192 210 124 160 179 102 182 189 167 181 181 159 165 199 91 149 219 72 139 215 103 168 209 131 124 161 121 94 135 133 128 170 142 147 190 132 190 221 168 162 176 137 162 169 175 166 156 203 190 174 173 186 191 157 140 154 166 141 159 207 112 154 254 104 141 255 114 185 179 148 209 153 152 184 177 172 182 219 172 156 178 183 165 131 183 186 69 183 175 86 185 176 211 144 154 230 168 182 207 145 177 167 144 174 176 165 161 198 173 170 251 178 174 255 154 164 227 140 168 220 135 150 191 147 168 209 133 183 220 129 188 240 144 176 255 163 169 215 188 179 198 163 178 213 155 175 196 157 171 186 159 171 205 142 183 152 135 186 129 121 162 134 157 184 189 176 205 235 157 178 235 152 160 195 121 113 148 108 110 183 149 156 238 140 143 190 152 152 198 144 158 157 107 148 20 100 163 22 76 119 43 44 105 60 61 105 128 88 114 177 72 103 169 84 124 251 68 89 255 62 71 164 92 92 128 78 86 113 71 94 114 78 82 108 64 52 90 85 57 102 106 98 169 74 103 191 85 120 226 79 129 200 64 132 147 93 170 192 107 165 225 114 171 228 147 169 233 174 192 210 188 200 166 183 184 190 187 170 211 179 164 217 
71 37 60 59 42 34 45 33 23 24 18 30 11 35 47 0 53 46 0 42 23 27 67 16 26 54 7 36 54 46 36 54 26 5 30 2 30 37 31 53 48 30 14 15 45 8 32 108 19 38 46 16 35 19 77 94 53 39 72 13 31 59 33 20 51 47 18 37 0 37 58 3 14 45 17 0 47 49 0 25 61 31 44 74 25 45 47 36 65 31 27 61 59 20 45 61 43 42 44 50 22 33 43 37 23 24 41 3 25 34 19 24 24 24 27 33 21 28 64 52 15 64 31 0 56 9 0 39 18 0 37 21 0 85 54 17 122 70 45 82 40 72 52 13 46 18 5 27 0 9 28 0 8 51 0 16 97 39 65 67 68 76 8 75 79 0 41 59 0 22 44 23 34 65 59 60 68 28 75 35 26 82 33 0 51 0 11 56 27 18 46 35 5 52 12 18 80 43 36 55 75 42 43 73 52 21 40 131 66 72 156 111 102 164 151 157 138 140 166 4 96 71 0 86 4 0 41 0 17 82 64 53 51 60 132 36 59 162 0 51 160 0 42 227 0 81 197 0 63 157 0 65 99 14 23 43 47 18 0 110 48 0 75 26 36 62 37 12 51 34 19 61 49 13 45 44 47 88 86 123 159 143 201 248 226 214 255 239 222 255 226 246 255 231 157 147 146 30 44 57 0 34 57 0 93 58 0 132 63 0 113 80 0 77 57 0 64 14 45 71 0 74 66 0 105 46 4 141 0 49 158 0 101 131 17 127 65 22 98 5 50 101 0 63 111 39 55 128 78 38 87 63 73 35 37 68 0 3 67 0 17 67 80 59 15 54 76 33 48 12 78 46 16 67 12 45 60 43 42 18 58 61 13 0 43 11 0 33 67 31 28 74 13 46 69 52 41 71 121 2 49 71 27 65 54 19 63 42 47 75 38 56 50 50 48 34 71 25 2 0 39 23 0 15 34 18 33 56 42 35 45 66 7 21 60 7 51 38 21 85 46 0 76 26 24 106 54 31 69 34 37 57 20 51 76 50 30 44 43 28 34 64 11 26 67 38 50 74 24 46 45 42 87 78 18 58 33 31 41 20 40 43 12 35 45 0 62 68 28 77 52 46 63 35 45 44 27 57 36 54 82 25 88 81 58 106 80 64 84 69 29 43 40 6 47 43 0 42 29 12 59 39 55 75 51 55 55 41 61 69 67 54 57 90 54 56 91 87 61 94 62 45 37 102 116 29 108 158 36 138 176 76 175 194 101 143 176 109 150 183 140 178 193 138 176 169 175 193 142 209 187 131 218 156 158 171 161 182 77 203 177 6 231 162 19 225 160 56 181 184 115 120 192 94 120 206 69 128 206 118 108 231 155 59 255 152 15 255 136 39 255 113 130 245 116 213 230 192 237 215 177 234 228 164 208 216 163 189 175 150 160 148 114 98 230 117 53 255 115 47 255 84 138 255 182 137 222 169 134 201 144 211 225 178 255 149 161 255 144 167 255 152 202 210 133 187 156 155 149 126 162 100 159 181 112 108 187 90 142 192 119 202 194 133 200 181 111 214 217 126 183 204 123 149 194 107 142 180 115 119 149 135 101 133 142 120 169 153 123 216 150 190 246 213 189 170 201 143 107 155 106 85 116 107 130 126 122 203 184 132 182 207 187 159 245 181 143 242 121 134 226 133 194 253 82 166 178 127 163 173 177 155 206 159 143 202 139 188 196 126 189 176 166 191 183 194 179 206 175 152 221 178 177 248 168 206 231 159 192 211 187 157 203 144 116 152 91 129 128 145 210 180 171 223 189 133 151 151 153 135 173 144 149 182 102 191 185 162 242 245 154 168 219 180 152 238 196 176 255 151 164 220 150 189 206 155 175 180 176 140 166 213 168 213 169 153 202 169 164 209 160 155 183 147 155 169 145 158 180 150 161 203 160 185 229 137 164 203 116 171 187 66 144 135 57 126 133 98 135 175 114 121 187 138 137 208 96 98 168 84 101 169 83 87 173 68 67 173 89 75 184 70 68 163 66 96 182 72 133 202 50 105 174 60 90 176 67 73 161 64 80 169 50 88 163 34 95 136 51 99 117 90 124 124 135 156 153 92 119 122 107 162 152 153 197 184 180 200 177 210 219 210 195 192 205 155 176 175 140 191 164 148 210 161 130 178 130 99 126 155 
255 225 248 255 250 242 255 252 242 252 246 255 126 150 162 113 170 163 200 255 250 232 255 221 219 247 200 160 178 170 118 136 108 46 71 43 113 120 114 82 77 59 7 8 38 15 39 115 30 49 57 35 54 38 11 28 0 19 52 0 11 39 13 13 44 40 60 79 38 13 34 0 34 65 37 9 61 63 14 44 80 16 29 59 19 39 41 15 44 10 14 48 46 68 93 109 39 38 40 52 24 35 23 17 3 0 11 0 44 53 38 51 51 51 43 49 37 24 60 48 1 50 17 6 66 19 0 49 28 0 67 51 0 72 41 0 72 20 29 66 24 38 18 0 50 22 9 60 32 42 53 14 33 100 45 65 79 21 47 22 23 31 0 62 66 0 49 67 13 73 95 51 62 93 46 47 55 5 52 12 4 60 11 16 75 23 68 113 84 75 103 92 73 120 80 27 89 52 0 3 23 0 0 26 19 0 7 44 0 0 145 100 91 81 68 74 111 113 139 0 79 54 0 110 28 0 104 43 10 75 57 14 12 21 81 0 8 163 0 52 196 9 78 255 0 112 206 0 72 149 0 57 70 0 0 13 17 0 0 113 51 0 85 36 72 98 73 66 105 88 40 82 70 56 88 87 0 39 37 14 50 34 17 64 42 3 67 28 7 61 11 55 65 40 77 67 66 66 80 93 39 73 96 0 66 31 0 86 17 0 80 47 0 74 54 12 78 28 53 79 0 85 77 0 88 29 0 148 0 56 151 0 94 105 0 101 91 48 124 7 52 103 0 83 131 33 49 122 83 43 92 51 61 23 31 62 0 0 59 0 0 48 61 69 25 64 79 36 51 2 68 36 7 58 3 28 43 26 63 39 79 88 40 22 75 43 18 38 72 36 13 59 0 41 64 47 16 46 96 0 11 33 0 29 18 0 33 12 39 67 30 101 95 95 82 68 105 70 47 43 42 26 1 10 29 13 55 78 64 42 52 73 40 54 93 6 50 37 2 66 27 0 80 30 0 70 18 21 59 24 14 34 0 43 68 42 36 50 49 25 31 61 25 40 81 35 47 71 40 62 61 32 77 68 29 69 44 36 46 25 34 37 6 38 48 1 39 45 5 63 38 32 68 40 50 52 35 65 20 38 66 0 59 52 0 38 12 20 40 25 46 60 57 22 63 59 34 97 84 33 80 60 27 47 23 66 66 52 56 64 62 61 64 97 103 105 140 128 102 135 164 147 139 179 193 106 156 206 84 156 194 94 155 174 81 140 173 106 143 176 133 154 169 114 160 153 159 191 140 207 202 146 233 185 187 200 181 202 97 215 189 18 235 166 23 234 169 65 175 178 109 131 203 105 139 225 88 150 228 140 129 252 176 66 255 159 13 255 134 30 255 104 128 243 114 181 198 160 206 184 146 197 191 127 193 201 148 213 199 174 197 185 151 106 238 125 48 255 110 43 255 80 79 245 123 128 213 160 142 209 152 193 207 160 255 147 159 255 131 154 255 158 208 255 185 239 255 255 249 229 255 203 143 165 96 104 183 86 127 177 104 165 157 96 185 166 96 118 121 30 140 161 80 99 144 57 140 178 113 126 156 142 102 134 143 155 204 188 115 208 142 105 161 128 164 145 176 181 145 193 160 139 170 152 175 171 111 192 173 113 163 188 176 148 234 191 153 252 138 151 243 119 180 239 96 180 192 128 164 174 177 155 206 170 154 213 141 190 198 142 205 192 163 188 180 183 168 195 186 163 232 166 165 236 96 134 159 101 134 153 189 159 205 214 186 222 158 196 195 128 193 163 142 194 160 154 172 172 191 173 211 174 179 212 84 173 167 119 199 202 179 193 244 151 123 209 175 155 238 168 181 237 135 174 191 163 183 188 193 157 183 186 141 186 164 148 197 173 168 213 153 148 176 162 170 184 157 170 192 133 144 186 121 146 190 94 121 160 62 117 133 67 145 136 74 143 150 89 126 166 100 107 173 85 84 155 70 72 142 66 83 151 82 86 172 102 101 207 116 102 211 107 105 200 71 101 187 41 102 171 32 87 156 57 87 173 88 94 182 93 109 198 72 110 185 59 120 161 71 119 137 113 147 147 146 167 164 152 179 182 139 194 184 141 185 172 170 190 167 173 182 173 184 181 194 181 202 201 165 216 189 177 239 190 191 239 191 232 255 255 
47 54 78 25 41 44 27 44 40 12 14 23 30 11 45 62 42 79 41 38 31 70 66 27 42 44 9 46 53 21 53 59 17 23 48 0 19 62 4 0 57 2 16 76 52 39 74 66 43 51 50 22 33 28 25 46 41 19 30 44 58 52 84 46 28 62 29 27 54 32 39 61 32 21 51 73 39 88 66 35 55 41 47 25 25 61 29 0 49 4 0 78 45 0 64 29 0 75 15 23 104 41 118 153 135 218 221 228 250 224 255 211 177 213 114 106 115 39 39 25 0 11 0 0 27 16 28 57 41 35 57 20 50 62 24 27 18 0 28 55 60 27 46 57 45 44 61 32 52 63 0 27 39 21 66 81 17 74 81 0 0 7 42 0 12 36 3 6 25 37 27 87 110 106 45 73 64 28 47 14 0 21 0 0 50 8 18 85 66 16 70 66 36 66 44 56 56 32 35 38 31 51 62 59 101 145 132 221 255 235 233 255 226 243 255 237 167 224 217 43 83 97 0 4 37 49 23 49 74 42 65 78 62 76 59 75 61 33 37 27 68 58 45 26 51 25 15 71 48 7 64 33 7 69 44 18 53 61 21 34 54 21 39 55 7 53 31 49 86 44 38 65 46 40 41 49 65 61 72 75 78 81 113 121 109 133 131 128 132 134 137 97 103 107 94 114 125 54 97 92 25 93 68 0 83 49 0 50 13 13 77 65 23 64 62 33 61 61 36 63 70 28 36 50 54 45 36 85 56 49 106 55 60 79 44 60 51 47 60 42 42 38 45 35 11 55 36 25 71 67 70 37 54 52 28 60 50 38 52 30 48 58 7 96 109 51 240 255 230 233 255 251 228 255 249 225 255 247 86 128 94 28 48 27 2 0 1 30 32 0 51 73 0 51 89 0 41 86 0 38 73 5 36 68 31 23 56 41 14 47 66 5 26 97 16 20 129 62 43 149 49 39 96 39 42 63 42 68 68 18 53 69 9 37 88 45 58 76 33 51 15 58 77 43 38 48 27 19 26 22 0 0 8 0 9 0 46 68 15 20 44 24 97 136 121 60 111 116 32 65 96 24 55 51 9 44 0 41 72 27 63 88 45 234 237 232 255 247 255 255 255 237 246 255 224 122 147 140 30 50 71 24 32 59 182 187 207 236 255 246 197 255 207 183 255 203 125 204 124 4 64 0 4 28 0 89 80 61 139 136 149 190 142 230 255 195 255 223 156 255 169 121 211 127 128 188 55 121 133 91 179 153 140 202 151 152 198 147 150 187 165 125 155 131 155 172 154 152 168 143 182 161 92 215 198 106 158 191 100 196 223 143 159 201 116 131 195 86 150 215 65 127 211 88 119 225 151 126 224 137 129 221 96 119 225 85 158 255 126 158 217 137 171 213 185 167 205 168 176 185 116 201 195 133 197 172 127 229 194 152 191 171 132 175 164 122 228 204 128 250 227 169 255 208 188 255 167 171 255 134 161 255 77 124 255 93 166 255 118 130 255 123 36 255 162 68 255 187 116 170 172 119 144 217 175 160 222 173 155 188 145 176 140 218 169 112 215 116 105 136 83 97 50 64 87 0 49 98 0 72 140 43 51 140 96 55 165 104 102 168 142 118 153 143 157 150 154 193 123 223 157 122 213 154 170 217 165 171 221 159 166 190 192 165 206 179 155 229 131 228 225 64 205 149 134 211 173 181 177 161 184 130 178 205 164 246 161 181 222 185 165 206 223 155 216 198 162 224 110 164 224 100 216 255 88 218 202 113 174 157 181 169 203 140 142 179 141 158 188 154 176 188 140 172 171 174 173 201 162 154 218 135 175 225 145 195 218 131 196 214 125 186 201 153 155 181 171 154 176 145 172 177 153 195 205 157 200 228 154 184 206 172 145 164 177 144 151 158 169 185 136 170 196 132 175 196 134 169 187 168 161 191 174 159 204 144 166 220 106 159 205 90 140 181 134 150 198 191 182 227 247 249 255 221 255 255 171 247 255 87 130 220 75 80 186 84 84 192 89 111 208 69 97 195 40 75 179 82 92 194 91 92 184 110 117 209 94 104 206 101 110 219 133 147 250 135 134 222 137 131 205 158 130 216 138 118 195 146 156 203 141 187 222 156 188 221 141 190 211 140 197 220 140 199 207 133 205 179 146 216 158 139 172 95 122 146 46 96 108 12 
34 41 65 27 43 46 38 55 51 42 44 53 69 50 84 37 17 54 37 34 27 49 45 6 58 60 25 65 72 40 39 45 3 4 29 0 0 25 0 0 50 0 6 66 42 55 90 82 69 77 76 65 76 71 27 48 43 34 45 59 58 52 84 30 12 46 37 35 62 5 12 34 39 28 58 78 44 93 53 22 42 40 46 24 25 61 29 12 67 22 3 90 57 0 76 41 0 66 6 0 74 11 33 68 50 24 27 34 53 27 60 71 37 73 46 38 47 40 40 26 0 32 19 0 20 9 0 21 5 14 36 0 26 38 0 39 30 11 36 63 68 39 58 69 52 51 68 29 49 60 5 47 59 23 68 83 182 239 246 255 253 255 255 237 255 255 244 247 119 131 121 56 79 75 14 42 33 3 22 0 36 67 24 11 76 34 0 62 43 4 58 54 15 45 23 54 54 30 43 46 39 27 38 35 0 34 21 5 59 19 32 70 25 56 77 50 21 78 71 32 72 86 32 39 72 51 25 51 73 41 64 62 46 60 29 45 31 57 61 51 56 46 33 38 63 37 47 103 80 0 40 9 2 64 39 2 37 45 12 25 45 37 55 71 41 87 65 42 79 37 61 88 69 28 29 37 25 21 32 41 44 47 37 45 33 66 64 61 30 32 35 53 59 63 52 72 83 36 79 74 13 81 56 0 59 25 0 54 17 7 71 59 19 60 58 41 69 69 47 74 81 39 47 61 66 57 48 64 35 28 80 29 34 86 51 67 66 62 75 68 68 64 60 50 26 61 42 31 55 51 54 29 46 44 21 53 43 14 28 6 41 51 0 51 64 6 42 68 32 21 54 39 5 46 26 14 60 36 25 67 33 52 72 51 66 62 65 86 88 55 119 141 54 112 150 40 125 170 79 72 107 39 44 76 39 34 67 52 0 7 26 103 124 195 138 142 251 138 119 225 159 149 206 13 16 37 0 18 18 0 31 47 22 50 101 52 65 83 61 79 43 20 39 5 40 50 29 36 43 39 63 68 76 69 83 38 32 54 1 40 64 44 12 51 36 12 63 68 10 43 74 40 71 67 21 56 12 14 45 0 53 78 35 27 30 25 53 34 49 60 55 37 11 30 0 33 58 51 20 40 61 53 61 88 60 65 85 36 66 46 0 84 0 0 72 0 0 70 0 20 80 6 48 72 10 76 67 48 68 65 78 116 68 156 174 86 212 172 105 207 178 130 220 153 154 214 115 181 193 119 207 181 141 203 152 145 191 140 158 195 173 151 181 157 140 157 139 165 181 156 237 216 147 238 221 129 183 216 125 145 172 92 93 135 50 136 200 91 142 207 57 120 204 81 130 236 162 125 223 136 160 252 127 163 255 129 128 227 96 190 249 169 173 215 187 126 164 127 108 117 48 67 61 0 96 71 26 187 152 110 227 207 168 210 199 157 247 223 147 201 178 120 232 167 147 255 181 185 255 106 133 255 123 170 255 99 172 255 117 129 255 136 49 255 156 62 255 180 109 193 195 142 145 218 176 138 200 151 117 150 107 133 97 175 122 65 168 58 47 78 83 97 50 128 151 46 157 206 66 142 210 113 86 175 131 53 163 102 115 181 155 127 162 152 181 174 178 189 119 219 157 122 213 160 176 223 134 140 190 155 162 186 193 166 207 168 144 218 110 207 204 76 217 161 145 222 184 205 201 185 227 173 221 220 179 255 148 168 209 255 244 255 255 207 255 213 177 239 171 225 255 69 185 224 81 211 195 198 255 242 170 158 192 157 159 196 215 232 255 82 104 116 138 170 169 186 185 213 129 121 185 174 214 255 141 191 214 108 173 191 112 173 188 175 177 203 154 137 159 145 172 177 183 225 235 88 131 159 160 190 212 171 144 163 162 129 136 179 190 206 116 150 176 127 170 191 123 158 176 171 164 194 255 245 255 233 255 255 212 255 255 215 255 255 163 179 227 95 86 131 85 87 139 109 148 203 47 123 187 64 107 197 70 75 181 68 68 176 85 107 204 63 91 189 63 98 202 95 105 207 88 89 181 94 101 193 103 113 215 118 127 236 121 135 238 142 141 229 160 154 228 193 165 251 178 158 235 163 173 220 125 171 206 137 169 202 143 192 213 134 191 214 133 192 200 137 209 183 159 229 171 202 235 158 227 251 151 242 254 158 
38 20 58 35 19 41 28 35 42 26 52 63 50 27 59 69 37 46 15 32 0 16 57 0 27 80 20 15 59 36 84 73 75 37 14 22 0 26 7 12 69 46 6 50 45 71 107 93 48 46 43 26 19 15 0 27 0 0 63 20 50 77 70 58 53 71 55 35 82 38 11 66 35 23 49 63 0 17 136 0 30 161 0 30 196 0 70 208 0 60 217 0 47 208 0 26 224 0 47 208 0 70 196 24 96 170 46 108 162 80 116 107 62 69 102 41 35 83 22 5 14 0 0 16 14 1 41 28 23 55 51 51 60 52 53 74 63 68 21 42 47 25 52 29 7 31 19 0 38 21 20 42 8 44 34 31 26 38 40 24 41 37 5 51 53 0 59 63 30 64 64 56 29 70 42 16 49 68 63 55 8 46 19 4 73 93 41 52 112 40 0 70 40 39 95 0 65 72 0 70 54 0 48 51 15 6 0 45 15 0 31 72 24 21 95 56 45 80 70 45 41 62 43 40 37 34 55 34 39 70 51 48 91 60 39 36 31 88 51 46 31 22 0 3 38 32 40 76 90 47 62 95 140 131 208 255 246 255 243 255 247 221 255 251 224 255 246 107 103 126 40 30 87 0 15 20 35 72 17 8 96 34 9 93 53 13 65 57 0 44 26 0 73 5 0 99 3 0 97 35 0 59 50 35 41 55 71 34 63 84 50 62 82 69 51 100 55 62 77 18 50 57 20 42 39 53 50 0 110 89 0 111 71 0 101 73 19 71 60 37 60 44 87 83 67 62 54 40 72 28 16 127 0 0 157 0 16 67 32 38 36 76 64 0 79 43 0 58 15 41 29 17 47 29 15 57 63 51 54 53 55 60 71 76 61 64 71 114 32 86 101 64 83 18 69 6 31 90 0 2 77 0 11 69 0 66 41 32 42 38 51 32 83 78 26 58 95 22 45 127 6 8 122 27 1 94 31 24 56 12 72 16 24 82 0 60 89 45 57 55 46 43 30 26 47 41 39 4 35 5 26 73 17 62 68 68 87 92 112 231 255 253 221 255 240 226 255 219 245 255 228 79 62 100 29 13 64 24 54 40 19 64 22 39 73 37 26 46 35 57 53 118 90 71 139 134 127 120 223 214 193 255 251 251 250 252 255 240 255 255 149 193 172 205 255 187 210 255 217 217 255 255 242 254 255 168 127 155 226 125 143 255 89 148 255 38 120 255 59 198 255 157 255 255 160 255 255 158 255 255 159 255 255 158 255 255 202 255 170 169 199 154 196 186 157 210 194 145 239 177 112 195 119 137 194 129 149 178 126 150 178 105 170 251 144 116 226 89 164 226 111 147 207 121 166 226 153 167 230 151 126 208 122 183 219 135 215 190 109 204 230 143 166 214 126 195 222 131 179 201 102 220 199 130 244 190 152 194 188 174 194 213 197 199 201 166 194 229 159 166 206 155 173 210 171 167 222 179 157 230 162 153 224 134 150 227 127 151 198 140 168 213 160 165 202 136 168 185 101 181 192 120 184 179 135 182 174 159 199 214 207 207 206 223 178 153 209 121 101 255 29 0 255 86 61 255 87 100 255 88 62 255 149 70 255 155 109 255 154 159 255 194 231 255 120 177 255 132 162 224 163 140 208 106 129 187 100 163 210 95 141 204 146 172 217 211 210 255 129 135 209 126 179 237 76 183 215 87 173 176 149 185 187 146 147 189 149 165 203 149 162 229 173 179 255 166 177 193 160 156 131 161 171 146 143 165 154 170 174 225 173 170 227 158 190 157 164 197 158 174 179 215 165 161 250 136 135 217 145 146 202 133 150 146 156 160 157 168 149 219 145 151 215 134 179 198 121 165 188 125 164 175 140 149 180 154 148 210 134 171 194 142 181 166 152 160 161 147 139 140 140 161 156 97 178 175 90 195 203 125 193 226 147 160 216 137 123 188 146 128 192 125 126 194 161 179 239 232 255 255 236 252 255 219 255 255 197 255 255 126 226 255 43 143 219 6 51 130 106 94 178 100 88 200 90 86 210 80 84 195 83 84 180 77 74 159 81 78 179 64 86 209 65 86 187 132 130 189 148 157 204 168 220 255 176 243 255 152 198 246 147 183 232 109 166 199 112 203 216 101 189 203 120 150 174 154 145 152 227 197 183 223 164 118 194 124 51 139 119 18 
68 50 88 95 79 101 41 48 55 23 49 60 32 9 41 40 8 17 43 60 20 22 63 0 13 66 6 7 51 28 39 28 30 50 27 35 15 52 33 12 69 46 8 52 47 19 55 41 41 39 36 49 42 38 23 56 27 8 71 28 32 59 52 52 47 65 39 19 66 49 22 77 46 34 60 75 8 29 153 0 47 166 0 35 168 0 42 203 0 55 199 0 29 214 0 32 219 0 42 170 0 32 156 0 56 128 4 66 98 16 52 74 29 36 75 14 8 45 0 0 39 21 5 35 33 20 32 19 14 46 42 42 37 29 30 63 52 57 51 72 77 26 53 30 11 35 23 14 59 42 28 50 16 53 43 40 35 47 49 31 48 44 8 54 56 0 63 67 32 66 66 83 56 97 89 63 96 121 116 108 48 86 59 51 120 140 68 79 139 52 0 82 4 3 59 0 23 30 0 64 48 5 55 58 68 59 40 82 52 12 28 69 21 0 72 33 25 60 50 45 41 62 39 36 33 47 68 47 50 81 62 20 63 32 75 72 67 79 42 37 36 27 0 30 65 59 29 65 79 36 51 84 53 44 121 65 51 86 27 46 31 14 65 44 12 60 34 21 17 40 40 30 87 30 45 50 29 66 11 8 96 34 0 84 44 18 70 62 23 72 54 0 82 14 0 97 1 0 98 36 0 67 58 37 43 57 83 46 75 69 35 47 67 54 36 77 32 39 82 23 55 118 81 103 67 81 78 0 101 80 0 104 64 0 49 21 0 43 32 17 40 24 91 87 71 71 63 49 89 45 33 129 0 0 139 0 0 85 50 56 23 63 51 0 82 46 0 61 18 64 52 40 64 46 32 49 55 43 42 41 43 41 52 57 89 92 99 130 48 102 111 74 93 43 94 31 16 75 0 20 95 0 20 78 0 66 41 32 48 44 57 0 44 39 17 49 86 15 38 120 32 34 148 45 19 112 44 37 69 31 91 35 24 82 0 29 58 14 19 17 8 17 4 0 5 0 0 7 38 8 33 80 24 73 79 79 58 63 83 0 30 16 0 48 14 0 47 0 48 68 31 52 35 73 37 21 72 15 45 31 8 53 11 18 52 16 17 37 26 33 29 94 58 39 107 72 65 58 81 72 51 111 99 99 80 82 108 67 82 117 26 70 49 0 60 0 0 67 0 32 84 93 63 75 109 84 43 71 145 44 62 255 12 71 255 15 97 255 40 179 255 18 151 255 35 147 255 84 209 255 59 181 255 65 193 255 125 215 162 161 191 156 198 188 160 213 197 128 222 160 125 208 132 158 215 150 153 182 130 178 206 133 148 229 122 106 216 79 150 212 97 148 208 122 150 210 137 167 230 151 164 246 160 193 229 145 231 206 125 183 209 122 167 215 127 181 208 117 194 216 117 214 193 124 246 192 154 214 208 194 198 217 201 214 216 181 190 225 155 184 224 173 191 228 189 162 217 174 139 212 144 139 210 120 140 217 117 163 210 152 176 221 168 176 213 147 197 214 130 198 209 137 178 173 129 159 151 136 131 146 139 135 134 151 145 120 176 116 96 255 111 76 255 116 91 255 104 117 255 135 109 255 181 102 255 131 85 255 118 123 255 123 160 255 103 160 255 144 174 236 171 148 216 134 157 215 117 180 227 134 180 243 140 166 211 154 153 199 156 162 236 95 148 206 67 174 206 108 194 197 124 160 162 179 180 222 164 180 218 157 170 237 164 170 255 162 173 189 194 190 165 159 169 144 158 180 169 157 161 212 158 155 212 154 186 153 131 164 125 142 147 183 165 161 250 175 174 255 154 155 211 156 173 169 147 151 148 162 143 213 157 163 227 101 146 165 108 152 175 116 155 166 126 135 166 154 148 210 133 170 193 140 179 164 161 169 170 166 158 159 146 167 162 107 188 185 85 190 198 105 173 206 131 144 200 150 136 201 127 109 173 98 99 167 103 121 181 73 96 150 110 126 187 92 133 193 41 113 175 50 150 216 26 126 202 61 106 185 90 78 162 68 56 168 69 65 189 71 75 186 108 109 205 101 98 183 101 98 199 77 99 222 90 111 212 132 130 189 145 154 201 144 196 234 133 200 239 147 193 241 134 170 219 121 178 211 103 194 207 112 200 214 167 197 221 193 184 191 209 179 165 243 184 138 255 193 120 242 222 121 
51 0 255 49 0 255 62 0 255 57 0 255 41 0 246 37 0 239 39 13 255 22 31 206 25 44 122 30 37 96 20 31 89 45 62 127 47 32 123 55 34 91 46 40 14 36 54 0 28 62 0 0 40 18 2 37 115 9 27 141 19 52 95 10 75 5 4 84 0 24 65 0 38 64 0 54 73 0 60 96 0 38 97 0 6 58 0 20 66 0 33 85 0 53 111 0 55 81 216 2 19 247 0 0 233 4 5 162 24 17 23 72 70 0 60 83 0 17 99 0 19 109 0 15 80 0 18 66 0 35 84 0 0 66 0 0 77 0 16 84 0 32 57 0 49 82 0 52 94 0 31 98 0 30 89 0 40 77 0 53 46 0 43 46 0 38 55 0 20 71 4 0 52 0 20 51 94 24 16 209 50 78 0 28 68 0 5 46 0 53 75 41 20 5 110 98 66 217 73 88 0 40 64 0 35 50 31 0 5 33 55 65 104 49 72 56 33 102 0 3 80 0 2 37 45 21 46 101 17 51 41 31 58 15 27 54 21 49 51 52 65 55 112 26 31 77 30 59 9 43 69 18 39 65 68 54 74 99 28 49 54 45 59 48 20 40 17 29 55 40 38 60 53 44 65 36 58 77 25 49 52 23 34 32 57 54 48 80 43 54 52 59 56 63 41 48 88 8 26 84 33 47 108 26 35 66 53 69 54 41 62 61 21 68 72 20 70 57 22 58 0 39 81 0 11 81 0 32 89 24 45 71 56 67 62 72 87 83 94 101 95 119 192 193 209 255 252 253 255 255 210 240 255 91 191 244 78 112 125 94 17 19 4 17 14 31 71 71 117 56 69 117 49 57 203 0 0 160 12 32 17 100 129 49 233 255 187 232 255 210 238 255 255 245 255 255 105 132 103 0 16 0 0 12 4 65 56 65 69 42 97 66 59 63 61 82 25 18 43 0 20 64 27 10 59 51 0 45 99 4 58 70 21 68 10 72 82 57 12 16 13 5 2 33 14 19 65 24 37 33 85 105 56 59 79 55 31 57 40 0 10 7 0 0 5 49 26 22 66 35 29 75 47 57 55 72 76 16 63 59 0 49 35 21 70 37 7 57 0 2 48 0 4 61 18 0 32 9 40 59 51 46 45 62 47 51 77 36 34 93 6 27 84 23 50 83 47 81 79 72 105 102 83 117 114 87 116 110 32 63 44 44 69 52 85 105 116 88 102 151 107 102 154 105 99 95 134 141 59 153 164 86 172 195 135 173 197 151 143 162 128 171 176 166 155 152 191 145 141 255 141 182 255 120 185 255 177 210 255 180 197 201 152 199 159 143 221 131 140 246 36 157 241 11 185 205 60 186 203 111 153 196 118 181 222 130 165 223 72 172 214 126 178 183 216 196 208 216 187 231 192 177 245 174 168 229 148 174 208 170 179 192 188 176 204 157 199 218 164 200 206 158 217 211 149 194 192 155 188 204 171 187 202 175 185 212 179 169 221 161 158 220 149 165 209 164 174 203 159 182 198 150 193 214 157 160 189 113 154 165 97 139 147 73 100 108 19 111 125 36 120 135 58 90 154 80 147 169 135 143 136 130 138 117 98 147 150 109 117 165 127 105 197 148 136 174 163 96 156 142 75 171 145 83 198 179 99 191 226 149 162 228 182 169 224 137 157 194 131 166 222 150 178 255 153 161 240 173 171 233 148 186 213 123 190 221 134 167 224 155 151 196 213 147 181 253 127 186 250 149 217 210 174 226 220 217 255 223 226 255 218 209 255 161 200 255 58 211 238 10 231 209 29 217 191 101 195 209 124 140 177 161 143 187 154 149 191 120 136 163 157 160 189 156 157 197 120 162 190 134 181 203 103 154 189 94 160 196 129 152 197 152 145 203 171 145 241 183 129 255 176 121 255 110 111 255 101 122 255 119 135 255 98 112 255 122 124 255 107 112 241 63 121 145 64 159 91 61 129 104 58 103 170 76 91 186 87 105 191 71 124 182 69 131 166 98 120 183 94 106 206 105 119 202 80 104 154 70 106 120 62 98 108 89 88 160 123 103 224 86 98 220 88 126 221 97 151 203 114 166 220 155 178 255 151 143 242 132 142 218 138 158 183 165 159 145 185 176 147 183 184 156 172 196 160 156 209 141 144 231 148 135 206 114 126 170 105 83 116 73 
5 0 225 12 0 225 36 0 230 83 10 255 115 44 255 56 4 255 1 0 238 0 0 169 27 46 124 39 46 105 49 60 118 8 25 90 45 30 121 41 20 77 41 35 9 60 78 0 16 50 0 25 65 43 19 54 132 17 35 149 22 55 98 27 92 22 0 70 0 22 63 0 41 67 0 52 71 0 39 75 0 43 102 0 22 74 0 31 77 0 43 95 0 16 74 0 28 54 189 12 29 255 5 16 255 19 20 177 35 28 34 40 38 0 50 73 0 8 90 0 14 104 0 36 101 0 39 87 0 28 77 0 0 71 0 0 67 0 10 78 0 102 127 0 190 223 0 255 255 28 203 255 0 143 202 0 81 118 0 26 19 0 19 22 0 40 57 0 39 90 23 73 142 47 228 255 255 238 230 255 245 255 187 238 255 178 140 181 114 42 64 30 22 7 112 54 22 173 58 73 0 52 76 0 34 49 30 34 40 68 26 36 75 19 42 26 0 59 0 0 59 0 24 59 67 36 61 116 41 75 65 29 56 13 40 67 34 55 57 58 59 49 106 23 28 74 7 36 0 16 42 0 0 24 27 66 86 111 56 77 82 68 82 71 49 69 46 1 27 12 26 48 41 31 52 23 51 70 18 47 50 21 55 53 78 48 42 74 47 58 56 63 60 67 33 40 80 24 42 100 38 52 113 35 44 75 47 63 48 40 61 60 14 61 65 5 55 42 44 80 20 42 84 0 20 90 0 36 93 28 35 61 46 71 66 76 79 75 86 84 78 102 70 71 87 72 64 65 52 58 6 22 75 0 28 81 0 25 38 7 55 57 42 57 54 71 42 42 88 52 65 113 77 85 231 242 230 255 242 255 247 243 255 192 233 255 187 90 133 68 35 58 64 23 35 45 58 85 56 61 88 65 52 70 62 50 41 50 62 35 90 62 55 59 19 40 0 0 22 0 0 31 0 0 31 23 61 120 174 24 78 90 50 97 39 30 40 15 2 6 3 39 36 67 36 41 87 37 50 46 27 47 0 29 49 25 13 39 22 30 44 41 41 39 46 61 38 34 84 53 47 62 34 44 31 48 52 0 38 34 0 51 37 23 72 39 0 49 0 38 84 36 11 68 25 21 61 38 46 65 57 47 46 63 44 48 74 43 41 100 28 49 106 26 53 86 45 79 77 35 68 65 63 97 94 75 104 98 73 104 85 90 115 98 82 102 113 105 119 168 108 103 155 102 96 92 99 106 24 117 128 50 141 164 104 150 174 128 149 168 134 156 161 151 162 159 198 161 157 255 136 177 255 131 196 255 162 195 240 183 200 204 150 197 157 125 203 113 134 240 30 149 233 3 186 206 61 191 208 116 170 213 135 168 209 117 179 237 86 174 216 128 204 209 242 198 210 218 163 207 168 144 212 141 159 220 139 180 214 176 199 212 208 184 212 165 176 195 141 194 200 152 215 209 147 207 205 168 175 191 158 163 178 151 161 188 155 160 212 152 168 230 159 172 216 171 196 225 181 191 207 159 194 215 158 185 214 138 159 170 102 143 151 77 129 137 48 82 96 7 102 117 40 82 146 72 109 131 97 137 130 124 123 102 83 114 117 76 89 137 99 86 178 129 132 170 159 112 172 158 90 186 160 80 195 176 82 174 209 135 148 214 167 154 209 148 168 205 144 179 235 148 176 253 189 197 255 179 177 239 141 179 206 90 157 188 68 101 158 142 138 183 210 144 178 248 122 181 249 148 216 188 152 204 162 159 202 177 180 233 161 152 221 118 157 226 30 183 210 0 197 175 34 222 196 99 193 207 159 175 212 174 156 200 147 142 184 156 172 199 152 155 184 165 166 206 128 170 198 113 160 182 135 186 221 77 143 179 117 140 185 152 145 203 149 123 219 202 148 255 161 106 255 96 97 255 86 107 255 78 94 243 119 133 255 233 235 255 236 241 255 211 255 255 196 255 223 164 232 207 99 144 211 55 70 165 94 112 198 76 129 187 61 123 158 102 124 187 62 74 174 73 87 170 101 125 175 77 113 127 104 140 150 153 152 224 144 124 245 154 166 255 139 177 255 133 187 239 141 193 247 142 165 247 167 159 255 160 170 246 151 171 196 175 169 155 182 173 144 187 188 160 176 200 164 163 216 148 135 222 139 157 228 136 174 218 153 180 213 170 
36 49 54 32 56 0 57 86 10 38 50 12 117 74 90 146 69 111 145 101 122 110 105 97 38 45 75 4 22 72 0 17 45 24 60 62 23 91 42 6 85 5 0 51 0 8 48 23 30 45 38 34 48 45 35 57 46 15 42 35 20 39 47 33 57 71 25 42 46 37 49 39 59 69 57 49 61 51 34 52 42 34 72 45 12 39 20 16 32 35 30 35 53 39 51 77 26 55 63 30 68 39 26 41 14 34 29 45 36 41 57 16 60 37 15 62 0 29 63 0 37 46 11 22 44 20 10 39 5 23 58 6 37 50 18 43 49 49 42 43 83 7 10 65 22 23 81 24 34 71 44 53 62 48 60 60 38 42 57 38 48 51 17 42 22 5 50 0 31 41 16 47 39 40 49 29 53 61 56 49 5 70 16 0 100 15 11 130 62 23 104 57 59 100 80 74 80 84 37 21 33 59 43 55 57 15 41 77 8 43 92 33 73 28 34 38 0 75 34 0 89 27 0 67 40 55 48 51 135 103 100 253 255 228 243 255 235 239 255 253 223 226 249 131 122 155 58 77 98 35 77 65 0 15 8 20 29 40 70 78 92 41 64 66 9 72 65 0 40 36 0 31 28 24 62 53 26 50 46 32 56 44 50 65 36 81 98 32 71 90 12 43 61 15 27 34 30 49 42 36 46 39 35 54 56 65 53 38 67 43 37 49 63 76 70 32 62 48 14 57 62 4 60 63 27 65 38 41 72 27 62 97 69 53 87 74 73 87 86 79 86 82 45 55 43 59 66 73 34 49 68 37 46 73 41 39 72 34 37 60 31 55 67 32 69 65 50 89 74 36 79 22 38 84 7 30 66 0 0 20 0 12 61 9 40 75 31 149 132 102 232 160 185 175 124 181 121 120 166 82 58 104 125 31 69 187 10 68 165 0 38 131 0 25 139 18 45 141 0 19 124 0 1 77 3 0 22 20 7 0 64 40 12 111 79 27 60 47 70 41 47 69 49 64 40 45 55 1 39 38 0 51 38 45 36 41 42 18 22 36 54 46 29 61 54 5 67 56 21 59 60 86 46 68 68 25 56 23 32 51 19 49 69 0 30 32 40 50 53 69 26 41 58 40 26 10 55 0 0 73 4 2 72 14 32 55 21 70 50 39 36 38 23 0 41 22 18 60 68 57 68 99 110 110 130 132 148 159 132 186 184 182 255 225 217 255 219 222 208 160 138 117 76 47 72 54 54 108 130 99 107 206 139 110 255 157 127 255 109 136 255 98 175 255 140 194 252 149 148 230 177 184 242 134 179 186 131 185 207 146 198 210 155 192 196 182 214 215 164 200 150 151 205 133 135 175 255 171 178 255 189 160 255 178 137 255 175 156 255 151 154 255 166 176 255 203 177 255 191 175 255 178 181 255 166 216 255 181 205 255 223 192 255 203 181 208 194 200 160 184 207 63 217 214 123 217 200 168 196 209 144 166 226 170 137 216 136 158 204 130 168 172 231 162 175 255 159 225 103 177 214 120 184 210 97 195 210 105 172 182 196 142 164 200 102 161 49 95 135 24 93 128 38 71 111 27 68 110 86 75 119 106 76 129 0 103 139 65 83 125 123 87 138 147 100 144 183 120 144 202 123 145 172 129 149 196 119 148 230 140 156 243 156 162 224 165 160 215 156 157 223 149 149 225 143 153 229 131 151 202 128 149 166 104 149 184 97 145 205 110 163 207 136 174 209 141 165 189 131 167 181 127 178 222 138 175 242 154 175 232 157 164 204 158 169 200 140 167 196 145 166 211 162 161 217 145 135 196 156 148 196 150 168 204 122 154 181 121 167 194 114 155 199 112 151 204 132 162 200 132 158 193 131 157 202 118 153 205 124 149 204 133 154 187 148 165 173 127 165 166 98 148 163 88 138 177 77 108 151 87 119 152 81 114 143 83 126 155 78 135 174 82 140 174 81 128 158 78 105 164 69 89 174 58 92 167 65 105 170 83 94 172 110 83 176 86 69 162 82 90 166 56 96 144 83 99 160 117 99 173 148 100 188 206 158 230 197 175 238 191 194 247 181 183 246 156 170 247 142 193 255 111 197 255 81 202 233 107 197 220 148 172 196 155 173 171 150 170 133 123 156 81 115 174 82 139 192 114 134 208 125 137 220 118 141 184 83 113 171 49 
23 36 41 23 47 0 13 42 0 33 45 7 65 22 38 82 5 47 65 21 42 51 46 38 38 45 75 25 43 93 27 45 73 6 42 44 0 68 19 7 86 6 3 60 3 25 65 40 26 41 34 23 37 34 36 58 47 23 50 43 41 60 68 10 34 48 30 47 51 28 40 30 56 66 54 51 63 53 33 51 41 20 58 31 9 36 17 36 52 55 45 50 68 40 52 78 17 46 54 3 41 12 35 50 23 56 51 67 44 49 65 17 61 38 1 48 0 18 52 0 56 65 30 36 58 34 28 57 23 13 48 0 29 42 10 44 50 50 47 48 88 36 39 94 31 32 90 41 51 88 21 30 39 37 49 49 45 49 64 140 150 153 239 255 244 229 255 219 250 255 235 179 171 172 79 59 83 21 16 9 7 72 18 0 118 33 8 127 59 43 124 77 16 57 37 50 56 60 37 21 33 87 71 83 70 28 54 79 10 45 68 9 49 0 6 10 0 67 26 0 93 31 0 95 68 56 49 52 76 44 41 75 82 50 43 64 35 41 65 55 28 31 54 24 15 48 27 46 67 7 49 37 32 54 47 47 56 67 52 60 74 36 59 61 22 85 78 20 74 70 22 60 57 36 74 65 21 45 41 38 62 50 49 64 35 30 47 0 41 60 0 39 57 11 42 49 45 77 70 64 47 40 36 49 51 60 54 39 68 43 37 49 51 64 58 28 58 44 25 68 73 21 77 80 30 68 41 41 72 27 31 66 38 34 68 55 50 64 63 61 68 64 59 69 57 53 60 67 35 50 69 35 44 71 47 45 78 47 50 73 46 70 82 33 70 66 40 79 64 43 86 29 51 97 20 28 64 0 22 59 0 4 53 1 10 45 1 64 47 17 88 16 41 89 38 95 40 39 85 70 46 92 85 0 29 146 0 27 161 0 34 137 0 31 150 29 56 159 15 37 150 9 27 84 10 0 37 35 22 0 62 38 0 73 41 28 61 48 58 29 35 53 33 48 35 40 50 0 26 25 0 40 27 44 35 40 64 40 44 51 69 61 13 45 38 2 64 53 25 63 64 89 49 71 106 63 94 88 97 116 90 120 140 127 179 181 132 142 145 145 102 117 84 66 52 1 46 0 0 35 0 0 39 0 40 63 29 69 49 38 78 80 65 40 91 72 39 81 89 82 93 124 108 108 128 96 112 123 115 169 167 204 255 247 226 255 228 255 255 208 255 253 212 184 209 191 59 113 135 90 98 197 179 150 255 190 160 255 160 187 255 104 181 255 74 128 186 166 165 247 167 174 232 112 157 164 173 227 249 159 211 223 143 180 184 197 229 230 154 190 140 155 209 137 161 201 255 151 158 255 197 168 255 167 126 255 173 154 255 164 167 255 160 170 255 201 175 255 170 154 255 174 177 255 144 194 255 172 196 255 228 197 255 224 202 229 204 210 170 206 229 85 211 208 117 206 189 157 199 212 147 163 223 167 153 232 152 173 219 145 173 177 236 164 177 255 161 227 105 181 218 124 194 220 107 175 190 85 151 161 175 131 153 189 103 162 50 108 148 37 95 130 40 87 127 43 76 118 94 63 107 94 77 130 0 93 129 55 103 145 143 106 157 166 117 161 200 120 144 202 141 163 190 131 151 198 115 144 226 125 141 228 141 147 209 157 152 207 137 138 204 149 149 225 134 144 220 111 131 182 122 143 160 103 148 183 94 142 202 116 169 213 114 152 187 121 145 169 139 175 189 115 166 210 126 163 230 142 163 220 159 166 206 170 181 212 160 187 216 147 168 213 159 158 214 163 153 214 160 152 200 135 153 189 120 152 179 113 159 186 120 161 205 120 159 212 125 155 193 116 142 177 115 141 186 105 140 192 112 137 192 115 136 169 129 146 154 108 146 147 97 147 162 86 136 175 84 115 158 85 117 150 95 128 157 91 134 163 97 154 193 79 137 171 73 120 150 72 99 158 51 71 156 54 88 163 57 97 162 75 86 164 111 84 177 101 84 177 93 101 177 71 111 159 80 96 157 114 96 170 141 93 181 191 143 215 182 160 223 170 173 226 176 178 241 155 169 246 133 184 255 92 178 243 63 184 215 85 175 198 119 143 167 125 143 141 107 127 90 96 129 54 95 154 62 119 172 94 126 200 117 142 225 123 182 225 124 182 240 118 
53 26 155 48 28 111 91 53 116 133 114 148 107 126 111 100 136 114 10 68 40 0 24 0 22 8 0 67 64 57 99 129 117 58 80 89 34 60 87 0 4 37 0 10 21 0 34 31 0 28 16 38 75 69 41 63 64 56 68 60 65 61 38 63 23 22 72 37 31 49 38 24 31 52 21 37 49 21 51 51 31 58 56 53 23 33 36 8 41 46 21 70 78 34 55 88 42 35 73 37 58 65 0 52 13 6 74 11 35 81 30 13 21 0 19 38 4 7 61 23 0 76 35 28 75 71 56 48 83 42 23 54 19 18 38 18 20 57 3 9 49 56 34 59 89 42 44 75 49 38 28 76 30 5 75 34 0 64 7 38 61 21 42 45 12 43 46 39 36 53 48 36 45 54 45 43 52 62 44 46 66 47 54 58 56 53 21 68 64 0 70 51 0 73 43 41 70 61 49 56 50 52 67 60 2 73 45 0 47 33 35 49 45 41 21 32 33 39 25 35 51 54 4 46 54 0 41 67 43 61 95 34 63 73 28 71 66 23 64 60 3 40 37 28 51 35 57 50 28 97 74 54 121 96 80 80 58 69 79 69 92 37 26 44 45 36 53 59 54 82 18 36 50 53 85 78 10 62 0 27 90 0 17 78 12 10 76 42 52 116 95 175 231 196 229 255 244 235 255 255 249 250 255 149 150 180 39 46 42 7 27 0 35 56 13 49 74 30 61 63 28 75 62 40 51 59 24 29 46 18 50 50 46 68 68 78 59 68 85 63 73 94 34 46 72 44 38 86 26 15 62 62 67 83 69 74 66 52 47 31 73 77 66 12 42 28 33 66 49 24 40 26 40 41 49 37 64 57 0 58 29 32 79 37 32 51 7 35 47 0 34 63 19 6 56 35 25 66 70 23 32 51 39 38 68 42 47 80 20 39 68 39 65 78 35 50 23 49 46 1 49 50 22 49 51 28 57 60 37 37 61 23 27 56 22 1 46 19 0 43 23 7 45 34 32 43 41 39 53 40 16 61 36 10 63 29 25 46 41 44 47 50 36 53 49 27 73 48 43 87 73 89 91 102 107 81 104 90 67 65 67 52 33 49 32 11 69 48 51 40 65 73 4 58 56 13 64 45 18 51 34 32 67 49 39 77 78 38 82 95 59 83 97 86 93 117 102 93 148 103 98 176 114 106 169 120 97 140 110 115 133 110 125 108 104 140 82 95 150 37 85 137 15 88 146 48 93 165 103 92 196 131 103 195 158 114 186 186 149 181 214 166 179 207 167 198 214 116 212 212 122 204 212 162 187 222 180 177 220 192 168 234 165 174 255 151 176 255 169 163 255 175 180 255 169 207 224 169 190 225 169 177 255 171 187 255 203 198 243 212 221 164 221 211 136 215 176 183 195 170 162 177 199 87 184 212 87 164 240 57 153 255 18 165 240 47 185 229 104 190 214 168 204 215 194 192 235 160 166 212 136 188 189 255 197 179 255 187 188 255 180 209 191 140 233 115 136 243 139 177 218 234 193 196 199 160 166 168 139 154 129 116 140 94 97 100 97 117 92 112 106 95 77 111 123 61 104 136 25 73 139 17 69 145 48 103 162 84 135 168 113 122 153 97 116 161 80 113 160 92 126 162 114 149 171 98 136 171 93 107 175 102 82 187 106 61 187 89 53 177 77 83 167 83 70 140 117 50 146 175 56 167 200 93 158 202 136 148 234 163 127 255 157 128 255 149 148 255 161 157 230 180 138 198 196 131 247 186 137 255 143 151 227 133 176 230 127 174 230 147 157 243 160 113 239 104 82 168 98 131 162 139 167 228 171 202 255 171 172 255 173 134 229 138 141 206 98 163 195 88 163 198 177 241 255 135 172 195 173 170 201 105 143 180 17 89 113 79 124 165 119 133 192 101 104 151 143 112 168 130 137 169 54 119 127 95 143 179 89 133 192 60 78 126 103 120 100 63 106 92 18 75 143 40 73 214 47 62 205 81 91 219 96 108 206 107 109 244 88 104 230 40 94 155 63 112 130 83 114 131 118 148 170 102 129 172 162 190 251 160 171 255 188 171 255 190 182 255 146 160 255 100 155 207 75 139 178 53 113 189 59 105 204 73 98 215 99 121 210 115 160 205 226 254 255 240 245 255 252 240 255 240 247 255 103 188 203 0 70 52 
4 0 106 23 3 86 63 25 88 81 62 96 70 89 74 17 53 31 0 47 19 0 14 0 44 30 18 26 23 16 45 75 63 9 31 40 0 7 34 35 62 95 19 59 70 55 112 109 49 109 97 21 58 52 7 29 30 14 26 18 44 40 17 79 39 38 94 59 53 41 30 16 30 51 20 37 49 21 28 28 8 57 55 52 40 50 53 46 79 84 47 96 104 20 41 74 37 30 68 19 40 47 0 53 14 5 73 10 37 83 32 32 40 11 47 66 32 0 53 15 0 47 6 23 70 66 23 15 50 70 51 82 48 47 67 28 30 67 39 45 85 38 16 41 81 34 36 75 49 38 29 77 31 5 75 34 0 70 13 28 51 11 43 46 13 40 43 36 24 41 36 36 45 54 40 38 47 57 39 41 52 33 40 38 36 33 14 61 57 0 71 52 0 85 55 35 64 55 26 33 27 33 48 41 0 58 30 21 91 77 56 70 66 60 40 51 29 35 21 0 9 12 4 46 54 0 42 68 45 63 97 35 64 74 15 58 53 7 48 44 11 48 45 31 54 38 57 50 28 78 55 35 74 49 33 85 63 74 80 70 93 51 40 58 52 43 60 8 3 31 2 20 34 17 49 42 52 104 31 62 125 33 46 107 41 25 91 57 22 86 65 20 76 41 40 80 55 27 52 68 37 38 80 60 61 91 40 47 43 52 72 25 23 44 1 52 77 33 59 61 26 54 41 19 54 62 27 22 39 11 46 46 42 43 43 53 34 43 60 27 37 58 63 75 101 47 41 89 66 55 102 53 58 74 23 28 20 61 56 40 40 44 33 29 59 45 27 60 43 27 43 29 51 52 60 51 78 71 45 103 74 74 121 79 66 85 41 50 62 10 31 60 16 24 74 53 65 106 110 100 109 128 84 83 113 38 43 76 0 12 41 0 21 34 28 43 16 76 73 28 68 69 41 31 33 10 51 54 31 22 46 8 38 67 33 29 74 47 0 31 11 6 44 33 40 51 49 28 42 29 9 54 29 5 58 24 40 61 56 175 178 181 243 255 255 225 255 246 225 255 255 163 165 176 66 40 63 16 0 0 31 16 0 81 64 43 82 61 64 74 99 107 67 121 119 30 81 62 49 82 65 41 76 58 11 49 50 27 71 84 16 40 54 40 47 71 41 32 87 50 45 123 80 72 135 65 42 85 83 88 106 73 88 71 67 103 45 110 165 52 81 133 11 40 98 0 14 86 24 44 148 83 99 191 154 117 189 189 107 139 172 63 76 104 111 142 158 104 200 200 110 192 200 149 174 209 146 143 186 190 166 232 180 189 255 142 167 255 163 157 255 139 144 255 152 190 207 169 190 225 162 170 255 174 190 255 172 167 212 189 198 141 215 205 130 232 193 200 220 195 187 177 199 87 174 202 77 144 220 37 146 255 11 168 243 50 176 220 95 180 204 158 192 203 182 169 212 137 174 220 144 180 181 255 180 162 255 178 179 247 183 212 194 152 245 127 143 250 146 174 215 231 200 203 206 202 208 210 200 215 190 185 209 163 195 198 195 203 178 198 181 170 152 169 181 119 135 167 56 111 177 55 91 167 70 73 132 54 101 134 79 99 130 74 89 134 53 79 126 58 51 87 39 83 105 32 79 114 36 90 158 85 96 201 120 62 188 90 73 197 97 103 187 103 98 168 145 102 198 227 76 187 220 123 188 232 111 123 209 123 87 225 97 68 200 45 44 160 104 100 173 154 112 172 168 103 219 176 127 255 138 146 222 108 151 205 119 166 222 147 157 243 165 118 244 172 150 236 133 166 197 165 193 254 195 226 255 151 152 254 190 151 246 78 81 146 34 99 131 86 161 196 94 158 198 136 173 196 165 162 193 123 161 198 95 167 191 126 171 212 112 126 185 122 125 172 166 135 191 109 116 148 96 161 169 101 149 185 69 113 172 101 119 167 103 120 100 82 125 111 66 123 191 65 98 239 92 107 250 66 76 204 89 101 199 87 89 224 68 84 210 60 114 175 48 97 115 56 87 104 55 85 107 66 93 136 77 105 166 90 101 195 106 89 215 109 101 234 103 117 227 111 166 218 131 195 234 128 188 255 133 179 255 163 188 255 179 201 255 166 211 255 135 163 241 98 103 199 73 61 157 69 76 160 24 109 124 24 157 139 
15 9 95 10 6 78 88 36 45 18 55 0 17 36 30 34 31 64 12 49 80 60 50 91 108 0 46 1 56 0 0 52 1 19 59 60 14 65 18 64 46 20 85 16 0 12 60 0 0 63 85 0 69 143 0 72 41 30 64 41 44 27 21 43 67 45 2 65 108 0 66 92 105 62 44 145 4 6 140 0 24 101 0 29 115 0 69 133 0 45 194 8 43 153 1 61 51 34 90 30 44 101 0 43 63 15 58 53 56 36 23 77 61 14 32 39 19 26 32 180 0 34 191 0 52 224 0 52 255 0 46 255 0 0 239 0 0 238 19 14 128 89 42 98 169 57 117 134 39 57 34 31 12 0 26 15 0 62 51 30 66 78 92 35 66 48 31 37 49 72 92 179 200 199 239 255 224 255 253 235 255 224 244 134 149 140 0 53 40 0 10 0 30 41 0 87 67 54 104 65 56 1 64 23 0 60 52 1 38 35 37 61 39 32 45 47 29 34 44 1 28 23 13 40 35 57 64 32 36 60 10 54 73 65 38 55 61 3 46 40 7 58 39 31 72 67 50 83 78 56 51 69 72 56 88 34 26 35 37 36 28 61 75 88 42 59 99 80 95 102 64 84 60 42 70 23 52 85 46 52 54 65 74 35 68 62 16 28 0 36 27 0 87 74 0 75 68 48 83 89 23 61 49 6 59 19 4 95 32 13 67 55 74 34 74 55 26 58 47 49 34 71 62 33 84 55 47 68 37 54 47 40 34 52 57 41 0 32 26 0 67 50 0 25 39 46 66 71 52 111 105 46 81 117 30 59 89 0 29 22 105 57 56 163 100 107 42 189 149 51 212 164 25 166 83 9 145 21 91 121 23 116 37 8 16 17 0 37 6 0 65 0 0 102 9 0 119 22 0 116 43 51 0 79 54 0 91 49 44 62 26 45 4 0 51 18 33 48 22 58 11 45 60 0 106 75 0 125 71 6 59 55 0 42 24 22 54 19 29 57 31 46 49 44 134 22 50 212 0 32 107 20 40 0 88 46 0 65 25 0 57 42 43 25 51 71 20 64 60 60 70 38 62 52 46 50 47 38 39 71 55 26 68 40 35 51 0 66 50 0 52 19 29 51 16 42 44 31 71 44 49 82 63 42 52 100 38 56 124 37 58 120 49 68 131 100 82 91 110 100 86 107 87 104 110 42 114 106 82 132 133 117 117 163 142 108 180 112 89 157 71 109 160 56 114 173 116 127 205 154 140 239 156 141 254 136 142 250 136 173 255 135 182 248 162 188 235 188 198 237 163 176 222 136 196 200 107 182 130 115 159 94 154 194 120 192 225 170 206 243 188 193 242 164 193 217 133 179 197 107 161 199 125 171 233 146 163 209 133 177 233 146 192 238 144 164 207 103 171 206 124 133 183 110 156 194 133 163 192 142 178 202 152 175 216 170 140 203 170 160 233 176 158 199 142 179 188 143 184 190 150 167 211 146 186 241 170 191 218 138 204 194 144 193 174 145 202 193 140 123 220 119 79 229 108 116 205 113 134 176 116 136 164 127 139 152 120 123 130 82 130 99 43 187 74 42 178 74 51 123 86 53 99 130 87 62 125 84 28 124 101 56 105 150 102 80 177 126 99 198 119 92 195 105 100 214 75 95 222 114 106 253 144 128 248 105 135 211 83 125 197 69 130 199 53 123 196 102 124 195 112 101 155 98 122 162 102 147 190 83 138 193 83 149 235 125 140 233 173 128 207 147 155 216 99 159 205 109 164 219 120 159 230 141 128 186 152 125 168 106 144 177 97 188 205 136 181 222 137 147 220 125 145 218 97 167 230 74 167 210 107 168 201 146 146 196 170 157 215 148 156 209 110 136 185 123 129 177 128 124 171 121 141 192 89 129 192 65 103 166 65 110 155 73 112 133 87 120 125 82 117 127 71 117 144 80 116 152 70 102 137 65 103 138 72 108 156 63 100 166 73 105 191 84 87 178 95 84 174 79 79 179 60 85 189 43 94 187 49 104 185 65 120 189 61 113 175 81 125 184 95 136 204 128 151 245 170 162 255 175 167 255 178 178 255 154 180 255 143 183 255 119 176 217 111 156 171 106 131 137 93 108 99 86 93 63 93 94 40 69 102 47 73 128 83 81 136 80 76 132 55 75 106 27 53 93 19 31 115 33 
40 34 120 37 33 105 50 0 7 3 40 0 8 27 21 67 64 97 25 62 93 57 47 88 110 2 48 0 36 0 11 73 22 0 31 32 0 51 4 65 47 21 85 16 0 27 75 15 0 52 74 0 43 117 0 78 47 41 75 52 77 60 54 54 78 56 0 62 105 0 59 85 80 37 19 142 1 3 140 0 24 124 9 52 122 0 76 135 0 47 185 0 34 123 0 31 55 38 94 69 83 140 47 90 110 92 135 130 95 75 62 61 45 0 22 29 9 0 3 151 0 53 210 0 84 255 0 54 255 0 42 255 3 16 255 22 3 255 52 47 161 61 14 70 110 0 58 96 1 19 59 56 37 7 65 54 0 74 63 21 57 69 66 9 40 81 64 70 66 89 109 51 72 71 37 66 22 26 15 0 88 0 14 16 31 22 14 77 64 53 79 54 56 67 20 78 58 45 31 0 0 4 67 26 0 57 49 0 37 34 39 63 41 8 21 23 41 46 56 21 48 43 33 60 55 49 56 24 48 72 22 32 51 43 6 23 29 8 51 45 6 57 38 34 75 70 55 88 83 48 43 61 50 34 66 55 47 56 55 54 46 68 82 95 52 69 109 82 97 104 73 93 69 50 78 31 35 68 29 20 22 33 74 35 68 94 48 60 11 50 41 0 84 71 0 44 37 21 56 62 47 85 73 34 87 47 3 94 31 0 37 25 52 12 52 44 15 47 77 79 64 104 95 66 79 50 42 96 65 82 64 57 51 51 56 40 92 127 121 31 140 123 61 99 113 83 103 108 0 54 48 7 42 78 18 47 77 39 78 71 113 65 64 134 71 78 0 138 98 0 123 75 0 139 56 0 130 6 50 80 0 122 43 14 33 34 14 64 33 17 83 1 0 119 26 5 125 28 5 90 17 25 0 81 56 0 73 31 45 63 27 69 28 14 69 36 51 40 14 50 5 39 54 0 104 73 0 127 73 9 62 58 16 63 45 24 56 21 18 46 20 61 64 59 110 0 26 212 0 32 106 19 39 0 54 12 0 88 48 0 54 39 60 42 68 82 31 75 26 26 36 16 40 30 35 39 36 32 33 65 71 42 84 55 50 66 8 84 68 19 75 42 40 62 27 41 43 30 43 16 21 74 55 34 58 106 44 81 149 62 90 152 81 83 146 115 86 95 114 105 91 112 68 85 91 32 104 96 56 106 107 116 116 162 92 58 130 85 62 130 55 93 144 104 162 221 194 205 255 185 171 255 167 152 255 171 177 255 146 183 255 165 212 255 168 194 241 144 154 193 164 177 223 109 169 173 122 197 145 178 222 157 174 214 140 189 222 167 158 195 140 163 212 134 192 216 132 199 217 127 167 205 131 130 192 105 162 208 132 160 216 129 178 224 130 169 212 108 182 217 135 164 214 141 177 215 154 179 208 158 148 172 122 165 206 160 149 212 179 137 210 153 167 208 151 173 182 137 176 182 142 159 203 138 141 196 125 170 197 117 200 190 140 204 185 156 202 193 140 122 219 118 75 225 104 120 209 117 134 176 116 107 135 98 103 116 84 80 87 39 129 98 42 203 90 58 197 93 70 166 129 96 94 125 82 70 133 92 44 140 117 47 96 141 117 95 192 95 68 167 93 66 169 72 67 181 67 87 214 105 97 244 117 101 221 93 123 199 65 107 179 50 111 180 53 123 196 78 100 171 134 123 177 109 133 173 87 132 175 91 146 201 71 137 223 131 146 239 174 129 208 133 141 202 110 170 216 120 175 230 119 158 229 156 143 201 154 127 170 109 147 180 81 172 189 116 161 202 144 154 227 141 161 234 111 181 244 85 178 221 92 153 186 123 123 173 129 116 174 121 129 182 109 135 184 111 117 165 114 110 157 95 115 166 89 129 192 78 116 179 75 120 165 64 103 124 77 110 115 81 116 126 70 116 143 75 111 147 65 97 132 69 107 142 67 103 151 52 89 155 56 88 174 80 83 174 97 86 176 100 100 200 65 90 194 49 100 193 57 112 193 53 108 177 53 105 167 77 121 180 113 154 222 142 165 255 168 160 255 157 149 255 137 137 249 127 153 242 108 148 221 69 126 167 88 133 148 88 113 119 95 110 101 131 138 108 110 111 57 93 126 71 70 125 80 80 135 79 97 153 76 114 145 66 134 174 100 134 218 136 
46 9 39 82 35 53 114 70 55 102 74 57 144 124 181 102 125 173 56 98 96 23 90 51 0 34 1 68 92 82 115 118 137 59 70 65 24 42 6 0 2 0 1 0 26 24 23 51 56 72 73 70 115 96 52 107 77 72 136 115 61 103 103 85 118 121 89 108 90 40 71 25 0 29 1 31 60 54 4 16 8 0 6 0 0 3 0 0 3 8 0 4 23 6 26 41 50 61 41 61 79 51 39 47 46 40 40 40 40 49 32 25 50 33 31 60 42 32 63 70 27 49 87 2 31 48 14 55 27 21 41 18 40 50 29 59 71 69 18 37 31 39 53 16 51 55 26 33 42 37 10 38 53 0 37 48 12 38 38 45 46 52 73 53 90 74 60 99 50 56 66 22 69 47 40 77 55 27 48 45 31 42 39 21 34 28 14 43 37 22 66 55 34 60 47 33 48 39 7 33 20 38 65 58 166 205 164 219 255 223 221 255 239 231 255 255 139 156 162 32 20 46 34 16 42 49 54 61 73 61 71 93 54 61 95 17 44 231 0 54 224 0 37 231 0 38 222 0 42 221 0 67 224 0 54 220 0 29 214 0 24 89 17 17 55 85 47 20 100 51 0 68 5 45 57 23 63 36 31 69 66 73 47 60 80 60 46 68 24 26 39 73 17 68 83 36 90 0 61 68 22 77 67 29 52 45 53 60 64 74 41 74 37 16 43 12 40 37 41 9 20 79 25 45 52 83 53 37 76 31 61 97 47 26 65 34 16 66 53 0 62 53 0 65 54 29 55 90 59 37 74 69 63 79 45 51 51 49 55 39 30 51 20 28 60 9 23 59 0 36 61 31 35 54 64 14 44 44 17 70 40 0 61 13 14 43 34 53 35 63 63 26 58 55 20 48 68 51 73 31 36 43 30 50 71 36 51 82 27 56 66 34 77 63 14 78 30 31 71 49 32 33 49 21 13 22 9 0 15 31 25 73 33 41 120 75 60 229 27 2 255 0 0 240 0 0 225 0 0 225 38 5 255 110 58 255 152 111 255 105 87 255 40 82 32 0 13 0 20 27 23 106 134 123 148 213 207 138 213 205 79 141 150 14 34 59 72 74 83 173 176 181 206 218 216 138 129 122 35 0 21 21 0 14 0 7 21 0 50 88 80 138 135 103 140 108 76 102 89 97 118 127 62 84 137 85 84 176 134 124 173 66 65 93 56 76 140 45 85 169 32 91 195 97 155 243 115 169 209 151 173 227 161 179 255 145 173 255 147 190 234 152 181 209 155 178 206 140 169 187 142 185 188 136 197 168 117 191 142 125 187 150 142 185 130 148 198 111 170 215 128 177 216 149 162 211 115 167 201 100 179 196 103 193 205 130 186 199 118 183 200 118 154 184 124 172 187 162 185 183 157 180 180 130 164 192 121 146 189 131 160 202 164 179 210 164 165 210 123 135 231 120 134 236 151 144 221 155 163 193 137 170 184 95 157 203 80 140 215 74 170 211 123 177 179 117 187 180 124 194 196 99 177 182 88 189 153 91 227 77 75 255 31 60 255 38 36 255 26 9 255 28 26 255 23 69 255 23 86 255 24 64 255 34 61 179 64 91 45 114 123 91 128 148 73 102 109 90 123 129 86 112 151 70 79 132 101 93 141 74 102 119 55 113 128 96 115 170 97 122 192 80 121 201 84 119 222 75 113 224 82 85 200 133 92 220 95 106 225 67 129 242 101 146 255 81 133 231 83 122 214 136 111 217 103 122 213 57 134 198 93 135 207 103 120 214 138 119 233 163 128 216 110 150 127 75 154 149 118 147 229 128 118 255 144 120 255 117 119 233 83 119 227 76 115 255 97 113 255 119 121 255 100 128 223 54 127 184 38 140 167 36 125 153 58 122 162 91 110 165 98 89 166 100 117 234 70 143 234 63 130 186 96 117 186 72 80 192 43 78 216 25 103 243 30 91 185 70 80 129 115 88 177 92 69 197 97 85 231 110 92 224 50 64 149 64 104 190 37 85 233 35 71 219 59 123 222 24 91 173 37 90 172 57 77 178 40 60 161 59 106 148 54 97 125 71 91 155 64 73 142 39 61 86 77 83 97 97 70 73 138 65 83 161 47 146 138 36 131 135 71 119 111 110 137 90 132 158 69 142 171 69 152 198 47 161 183 4 154 157 
59 22 52 78 31 49 55 11 0 53 25 8 37 17 74 39 62 110 29 71 69 6 73 34 24 73 40 15 39 29 41 44 63 44 55 50 34 52 16 48 55 51 48 41 73 42 41 69 20 36 37 24 69 50 16 71 41 24 88 67 29 71 71 10 43 46 6 25 7 0 14 0 4 35 7 8 37 31 57 69 61 82 90 79 54 63 56 51 66 71 0 20 39 1 21 36 43 54 34 35 53 25 53 61 60 44 44 44 44 53 36 27 52 35 23 52 34 23 54 61 18 40 78 38 67 84 21 62 34 21 41 18 41 51 30 39 51 49 36 55 49 29 43 6 31 35 6 28 37 32 18 46 61 27 77 88 23 49 49 45 46 52 54 34 71 47 33 72 56 62 72 14 61 39 37 74 52 29 50 47 37 48 45 38 51 45 8 37 31 18 62 51 1 27 14 5 20 11 29 55 42 11 38 31 60 99 58 39 99 43 18 72 36 38 72 70 0 15 21 12 0 26 56 38 64 49 54 61 65 53 63 78 39 46 76 0 25 206 0 29 232 0 45 222 0 29 193 0 13 210 0 56 232 0 62 255 9 85 255 44 99 119 47 47 1 31 0 0 29 0 1 75 12 59 71 37 92 65 60 57 54 61 23 36 56 47 33 55 40 42 55 101 45 96 76 29 83 40 101 108 7 62 52 35 58 51 44 51 55 50 17 50 51 30 57 19 47 44 44 12 23 100 46 66 49 80 50 61 100 55 97 133 83 51 90 59 32 82 69 0 30 21 0 43 32 32 58 93 75 53 90 85 79 95 50 56 56 37 43 27 27 48 17 38 70 19 21 57 0 45 70 40 32 51 61 18 48 48 19 72 42 13 77 29 55 84 75 60 42 70 53 16 48 61 26 54 40 23 45 41 46 53 28 48 69 29 44 75 25 54 64 23 66 52 11 75 27 51 91 69 90 91 107 100 92 101 79 61 85 58 52 100 47 55 134 35 20 189 36 11 255 2 1 255 9 10 255 0 0 229 0 0 225 35 0 255 58 17 255 92 74 255 41 83 33 25 54 12 72 79 75 158 186 175 210 255 255 203 255 255 210 255 255 152 172 197 43 45 54 0 0 5 56 68 66 78 69 62 107 65 93 100 65 93 11 41 55 36 96 134 72 130 127 94 131 99 83 109 96 64 85 94 78 100 153 110 109 201 121 111 160 113 112 140 74 94 158 30 70 154 43 102 206 39 97 185 96 150 190 138 160 214 164 182 255 167 195 255 160 203 247 151 180 208 139 162 190 136 165 183 131 174 177 136 197 168 123 197 148 127 189 152 148 191 136 168 218 131 166 211 124 171 210 143 164 213 117 167 201 100 182 199 106 180 192 117 179 192 111 174 191 109 170 200 140 186 201 176 205 203 177 187 187 137 150 178 107 101 144 86 104 146 108 124 155 109 136 181 94 111 207 96 104 206 121 117 194 128 135 165 109 150 164 75 120 166 43 96 171 30 98 139 51 124 126 64 139 132 76 145 147 50 168 173 79 186 150 88 231 81 79 255 34 63 255 24 22 255 20 3 255 27 25 255 7 53 255 14 77 255 71 111 255 174 201 255 217 244 205 255 255 226 255 255 89 118 125 72 105 111 104 130 169 106 115 168 107 99 147 71 99 116 63 121 136 79 98 153 92 117 187 64 105 185 69 104 207 94 132 243 85 88 203 124 83 211 86 97 216 35 97 210 70 115 228 69 121 219 86 125 217 156 131 237 98 117 208 67 144 208 85 127 199 97 114 208 139 120 234 132 97 185 92 132 109 60 139 134 85 114 196 156 146 255 183 159 255 141 143 255 72 108 216 28 67 242 35 51 255 123 125 255 101 129 224 58 131 188 21 123 150 34 123 151 64 128 168 107 126 181 110 101 178 90 107 224 63 136 227 60 127 183 85 106 175 87 95 207 67 102 240 13 91 231 34 95 189 69 79 128 108 81 170 108 85 213 91 79 225 97 79 211 75 89 174 66 106 192 68 116 255 65 101 249 71 135 234 60 127 209 59 112 194 82 102 203 81 101 202 80 127 169 92 135 163 103 123 187 95 104 173 81 103 128 94 100 114 124 97 100 151 78 96 172 58 157 170 68 163 153 89 137 112 111 138 78 120 146 4 77 106 47 130 176 97 211 233 111 255 255 
59 0 17 62 14 76 45 28 130 20 53 172 49 57 230 36 8 219 33 34 154 14 41 158 31 69 120 29 87 51 51 75 27 56 34 84 17 42 110 9 41 78 14 26 2 22 43 0 44 38 54 78 52 88 63 84 65 29 70 26 24 69 0 10 62 0 30 55 27 44 46 49 24 22 83 15 29 103 17 58 28 70 119 75 154 174 161 144 162 152 134 156 158 56 105 89 4 55 2 4 41 1 78 68 83 152 113 154 156 138 162 123 149 123 48 65 35 32 28 12 10 4 20 0 24 33 32 109 77 20 74 52 59 53 87 53 22 65 16 33 37 0 91 58 0 80 36 0 56 25 0 71 31 9 68 28 25 75 38 12 67 50 60 30 68 113 32 63 123 47 61 143 111 100 236 255 235 217 255 237 233 255 255 215 237 228 53 68 41 0 4 0 39 27 25 57 53 72 57 67 78 45 49 49 32 25 28 26 28 41 27 46 64 15 59 56 33 32 36 73 27 51 65 41 43 39 79 31 18 89 25 0 65 20 6 55 21 31 39 28 7 33 16 16 79 66 10 59 54 40 62 71 41 51 72 51 43 88 39 52 83 26 69 74 49 60 76 64 12 49 84 32 66 48 36 48 49 60 42 56 67 23 54 57 0 47 61 0 20 82 23 0 76 41 25 66 48 47 73 38 24 47 7 25 45 48 27 27 73 20 30 67 61 72 90 71 69 79 73 69 88 45 61 88 15 43 58 42 56 43 62 57 21 52 66 19 17 73 12 16 67 14 28 36 9 62 49 57 71 69 78 12 46 59 32 61 78 26 23 40 38 48 53 53 62 71 31 42 56 33 69 79 16 49 52 53 68 85 39 42 63 31 38 34 9 29 0 25 33 0 59 55 0 45 61 0 56 93 12 21 74 0 63 94 64 53 54 86 59 72 128 42 66 114 40 73 116 105 138 161 120 132 142 120 117 132 72 72 92 79 120 128 117 181 161 202 253 232 230 235 242 194 172 183 104 107 74 0 56 0 0 28 0 0 33 0 67 82 13 50 91 0 17 118 0 0 82 0 0 49 0 65 74 83 33 39 89 71 75 152 5 2 107 0 0 125 25 2 167 48 14 122 158 122 154 150 139 82 66 103 0 54 103 10 89 99 100 92 85 89 100 125 118 48 111 106 36 119 121 63 114 209 65 115 213 48 101 121 97 121 169 95 116 177 70 97 200 81 105 253 61 102 204 71 96 174 69 80 176 118 143 237 168 190 255 190 212 255 150 194 217 154 158 207 157 135 204 158 163 215 129 180 215 87 157 169 140 181 176 235 236 253 189 214 233 160 216 183 148 211 118 159 187 80 205 218 124 177 205 145 137 193 140 128 186 98 150 224 91 103 208 102 86 207 126 82 192 119 66 122 60 109 130 37 113 114 6 112 104 28 145 115 95 138 93 86 115 98 68 91 128 37 51 110 30 61 86 76 101 89 115 92 65 84 109 98 102 82 83 66 94 108 133 82 130 190 127 152 170 148 172 162 91 162 142 96 149 133 108 122 144 94 71 127 131 87 132 94 83 129 47 112 158 85 119 169 80 103 151 73 122 133 101 113 113 102 92 79 113 116 87 93 109 86 99 116 86 86 119 88 80 113 72 63 120 99 27 117 121 61 113 200 72 94 227 62 103 225 63 95 218 75 94 211 66 74 210 72 105 210 53 100 192 74 123 201 90 118 193 101 123 220 93 105 227 76 115 232 60 103 220 80 112 211 89 118 200 84 137 205 66 134 183 58 121 176 66 104 181 85 102 202 96 115 232 80 116 206 94 123 192 103 99 210 94 86 211 78 91 217 90 103 213 112 123 199 136 119 209 128 84 207 126 90 200 77 107 181 82 142 206 83 115 188 84 90 196 59 79 190 31 116 161 7 105 142 82 119 178 105 102 171 94 103 182 94 109 188 72 88 159 87 72 177 100 92 203 62 105 196 55 99 208 71 99 223 63 99 205 74 108 220 96 130 241 103 142 251 111 151 255 140 184 255 155 184 240 105 140 184 90 131 191 39 88 159 47 93 154 106 117 174 115 105 162 118 117 170 103 96 162 103 99 146 77 108 65 89 118 48 87 112 32 96 90 42 98 83 76 108 113 107 73 119 146 91 94 255 89 73 255 91 66 255 52 41 255 16 36 255 
92 26 50 71 23 85 46 29 131 2 35 154 15 23 196 68 40 251 46 47 167 36 63 180 34 72 123 25 83 47 32 56 8 65 43 93 0 25 93 6 38 75 53 65 41 43 64 17 64 58 74 60 34 70 16 37 18 7 48 4 36 81 0 21 73 0 56 81 53 57 59 62 28 26 87 30 44 118 1 42 12 0 38 0 26 46 33 23 41 31 29 51 53 30 79 63 38 89 36 50 87 47 69 59 74 50 11 52 16 0 22 9 35 9 6 23 0 60 56 40 55 49 65 2 41 50 0 64 32 11 65 43 47 41 75 74 43 86 37 54 58 0 69 36 0 80 36 11 92 61 0 64 24 17 76 36 20 70 33 0 55 38 67 37 75 97 16 47 105 29 43 68 36 25 44 76 43 14 74 34 20 52 43 24 46 37 22 37 10 27 33 7 58 46 44 26 22 41 29 39 50 47 51 51 50 43 46 47 49 62 24 43 61 6 50 47 42 41 45 77 31 55 50 26 28 28 68 20 9 80 16 15 90 45 25 74 40 42 50 39 25 51 34 9 72 59 18 67 62 35 57 66 39 49 70 43 35 80 42 55 86 12 55 60 84 95 111 250 198 235 255 235 255 255 250 255 249 255 242 127 138 94 39 42 0 23 37 0 20 82 23 16 102 67 45 86 68 37 63 28 31 54 14 35 55 58 46 46 92 72 82 119 37 48 66 60 58 68 42 38 57 26 42 69 18 46 61 55 69 56 63 58 22 35 49 2 12 68 7 0 42 0 48 56 29 56 43 51 77 75 84 16 50 63 23 52 69 42 39 56 37 47 52 72 81 90 51 62 76 38 74 84 44 77 80 19 34 51 41 44 65 11 18 14 24 44 0 35 43 0 48 44 0 51 67 6 17 54 0 24 77 1 21 52 22 44 45 77 45 58 114 39 63 111 49 82 125 80 113 136 104 116 126 125 122 137 112 112 132 61 102 110 33 97 77 2 53 32 41 46 53 42 20 31 28 31 0 13 69 0 0 48 0 12 45 0 27 42 0 27 68 0 9 110 0 0 93 0 9 68 0 20 29 38 40 46 96 23 27 104 16 13 118 34 22 168 33 10 175 85 51 159 87 51 83 88 77 20 61 98 0 71 120 27 88 98 99 106 99 103 89 114 107 57 120 115 46 129 131 65 116 211 60 110 208 66 119 139 96 120 168 97 118 179 77 104 207 81 105 253 52 93 195 72 97 175 87 98 194 69 94 188 88 110 208 101 123 210 113 157 180 144 148 197 165 143 212 150 155 207 124 175 210 131 201 213 144 185 180 179 180 197 172 197 216 139 195 162 156 219 126 162 190 83 164 177 83 160 188 128 129 185 132 137 195 107 143 217 84 111 216 110 68 189 108 41 151 78 65 121 59 88 109 16 104 105 0 115 107 31 112 82 62 152 107 100 125 108 78 83 120 29 49 108 28 40 65 55 98 86 112 81 54 73 97 86 90 93 94 77 80 94 119 63 111 171 96 121 139 124 148 138 123 194 174 143 196 180 140 154 176 131 108 164 132 88 133 94 83 129 64 129 175 77 111 161 95 118 166 70 119 130 91 103 103 113 103 90 105 108 79 92 108 85 102 119 89 77 110 79 78 111 70 59 116 95 36 126 130 75 127 214 67 89 222 50 91 213 55 87 210 82 101 218 136 144 255 132 165 255 126 173 255 119 168 246 69 97 172 77 99 196 80 92 214 95 134 251 79 122 239 71 103 202 67 96 178 60 113 181 70 138 187 83 146 201 71 109 186 116 133 233 114 133 250 98 134 224 112 141 210 107 103 214 107 99 224 102 115 241 80 93 203 94 105 181 105 88 178 122 78 201 82 46 156 90 120 194 197 255 255 224 255 255 238 244 255 228 248 255 136 221 255 28 126 163 57 94 153 97 94 163 109 118 197 72 87 166 78 94 165 96 81 186 79 71 182 63 106 197 65 109 218 56 84 208 75 111 217 55 89 201 88 122 233 105 144 253 112 152 255 133 177 255 134 163 219 141 176 220 106 147 207 78 127 198 81 127 188 88 99 156 123 113 170 112 111 164 111 104 170 114 110 157 82 113 70 83 112 42 78 103 23 78 72 24 94 79 72 78 83 77 48 94 121 84 87 255 64 48 255 81 56 255 85 74 255 90 110 255 
40 82 84 27 65 79 2 55 57 4 56 66 0 16 43 10 29 49 31 37 47 53 44 25 106 83 51 109 81 84 109 102 121 114 93 110 65 45 60 52 45 65 49 37 87 59 35 161 49 22 125 73 48 91 45 54 63 0 33 11 65 107 79 36 80 9 70 126 0 48 105 0 0 55 0 0 38 0 0 65 26 22 90 53 22 55 40 45 65 67 7 51 48 13 52 71 49 60 57 62 33 51 59 33 50 49 48 42 37 48 45 52 39 55 48 24 48 50 26 90 46 34 58 37 42 23 10 41 57 0 40 125 0 47 126 4 57 123 34 77 82 18 65 23 26 73 35 57 70 13 69 55 0 75 65 0 49 65 0 12 62 0 35 83 11 29 67 55 32 64 75 28 72 69 0 49 38 32 56 52 24 42 58 39 45 109 37 56 64 18 56 8 12 59 31 30 42 32 47 28 62 44 28 102 27 49 40 30 56 7 41 46 14 36 32 19 39 57 59 9 53 65 22 67 22 45 54 0 25 41 0 32 54 19 32 56 54 20 39 59 0 25 24 6 61 16 11 65 27 73 122 107 70 111 125 41 69 86 21 38 16 13 10 0 74 53 22 66 64 74 54 73 94 52 48 61 51 24 29 64 46 48 50 63 81 17 61 84 27 60 81 57 52 62 34 13 32 83 111 102 78 154 132 115 179 167 118 162 139 41 46 10 23 21 12 17 35 27 30 71 49 64 93 59 63 63 43 66 54 66 49 57 94 61 56 108 68 47 74 110 42 0 175 0 0 188 20 0 167 34 29 150 21 56 138 22 99 90 12 50 51 29 98 0 46 126 0 89 130 0 75 87 63 68 58 96 34 11 98 15 0 62 14 26 47 36 54 70 29 59 71 35 48 32 60 0 0 70 30 0 91 70 0 91 42 0 65 38 18 64 42 67 60 53 66 22 105 48 39 118 16 53 21 55 70 45 66 82 50 64 112 64 91 94 87 16 101 55 0 91 0 0 47 0 12 41 7 31 30 24 102 30 66 20 34 47 0 73 20 0 62 19 9 46 42 41 56 61 56 35 36 37 58 37 5 81 49 0 31 48 43 32 88 32 11 54 58 34 48 51 71 56 0 67 55 25 58 63 61 45 59 83 66 86 60 77 73 62 116 128 42 99 164 68 83 150 59 37 106 70 45 125 101 105 180 140 147 229 143 145 241 116 101 178 85 62 166 127 102 241 81 105 227 57 132 211 57 115 193 70 92 190 78 96 206 53 100 200 21 98 164 20 109 163 83 120 187 70 100 164 73 112 157 77 117 139 93 135 127 145 186 158 180 212 151 199 225 148 183 209 136 165 201 127 147 194 110 135 176 70 156 184 77 139 193 60 144 206 91 155 207 108 159 202 100 145 195 82 119 166 64 84 126 41 60 76 27 85 97 71 91 123 100 110 143 149 111 126 179 81 87 177 76 71 165 102 100 195 98 89 208 115 99 210 122 111 199 93 111 173 103 128 172 67 115 177 47 97 146 72 114 88 93 110 90 101 99 158 152 123 255 148 122 255 166 147 255 153 138 255 121 112 255 103 107 255 93 91 178 83 87 76 76 97 70 65 98 117 98 121 175 87 102 169 103 107 193 72 94 218 51 93 241 67 107 253 89 103 224 84 83 189 79 73 245 47 40 255 74 72 255 65 97 248 72 113 191 71 101 167 42 82 130 37 119 109 26 130 91 58 140 78 98 119 138 109 94 209 68 86 208 70 104 190 94 102 178 121 109 177 97 102 180 83 111 225 82 123 199 100 141 155 105 150 185 110 149 254 111 123 255 146 134 255 127 133 209 121 132 166 111 141 203 108 111 200 122 124 161 115 141 150 76 139 126 71 140 157 16 100 184 48 114 220 76 107 202 91 103 227 93 106 235 85 101 210 105 117 217 140 120 169 141 70 116 142 53 147 120 79 167 97 83 154 108 115 174 88 93 147 42 90 150 22 131 184 0 150 176 0 146 164 26 147 190 42 120 181 63 117 175 103 123 174 127 134 200 139 156 224 187 179 252 177 180 243 158 170 198 146 163 161 108 148 135 108 138 124 117 146 128 108 166 155 108 151 197 124 113 229 99 124 255 83 133 234 107 137 199 122 118 181 141 91 151 138 76 75 86 104 8 75 104 0 95 96 6 77 96 90 
16 58 60 0 22 36 0 50 52 0 45 55 50 82 109 75 94 114 97 103 113 102 93 74 104 81 49 62 34 37 35 28 47 46 25 42 41 21 36 57 50 70 75 63 113 34 10 136 83 56 159 90 65 108 108 117 126 79 133 111 45 87 59 16 60 0 0 32 0 12 69 0 6 77 0 3 98 10 0 85 46 9 77 40 31 64 49 29 49 51 29 73 70 14 53 72 30 41 38 59 30 48 56 30 47 36 35 29 33 44 41 38 25 41 42 18 42 69 45 109 60 48 72 55 60 41 43 74 90 1 45 130 22 77 156 5 58 124 39 82 87 56 103 61 55 102 64 64 77 20 59 45 0 52 42 0 26 42 0 83 133 14 213 255 189 229 255 255 231 255 255 224 255 255 66 118 107 0 13 9 26 44 60 45 51 115 66 85 93 38 76 28 0 37 9 17 29 19 45 26 60 40 24 98 33 55 46 19 45 0 33 38 6 53 49 36 13 31 33 9 53 65 21 66 21 53 62 0 54 70 11 56 78 43 44 68 66 31 50 70 27 59 58 12 67 22 5 59 21 22 71 56 7 48 62 31 59 76 46 63 41 58 55 0 90 69 38 60 58 68 29 48 69 38 34 47 63 36 41 70 52 54 47 60 78 3 47 70 14 47 68 48 43 53 85 64 83 43 71 62 6 82 60 13 77 65 10 54 31 45 50 14 37 35 26 29 47 39 55 96 74 69 98 64 97 97 77 85 73 85 54 62 99 76 71 123 83 62 89 138 70 7 164 0 0 170 2 0 123 0 0 138 9 44 126 10 87 101 23 61 67 45 114 0 38 118 0 71 112 0 62 74 67 72 62 153 91 68 156 73 41 116 68 80 79 68 86 92 51 81 77 41 54 14 42 0 0 80 40 0 112 91 0 105 56 0 72 45 0 39 17 55 48 41 58 14 97 76 67 146 80 117 85 92 107 82 103 119 87 16 64 16 14 17 10 0 40 0 0 84 0 29 82 12 43 72 38 48 47 41 89 17 53 16 30 43 0 68 15 2 65 22 14 51 47 47 62 67 66 45 46 30 51 30 0 64 32 16 55 72 51 40 96 66 45 88 96 72 86 79 99 84 26 102 90 67 100 105 89 73 87 98 81 101 89 106 102 50 104 116 51 108 173 75 90 157 108 86 155 115 90 170 104 108 183 106 113 195 104 106 202 131 116 193 122 99 203 117 92 231 71 95 217 44 119 198 64 122 200 97 119 217 87 105 215 60 107 207 39 116 182 48 137 191 97 134 201 129 159 223 123 162 207 127 167 189 149 191 183 152 193 165 172 204 143 175 201 124 173 199 126 157 193 119 143 190 106 142 183 77 145 173 66 135 189 56 111 173 58 95 147 48 98 141 39 84 134 21 90 137 35 81 123 38 89 105 56 103 115 89 70 102 79 74 107 113 80 95 148 77 83 173 97 92 186 98 96 191 85 76 195 90 74 185 79 68 156 43 61 123 67 92 136 51 99 161 80 130 179 125 167 141 135 152 132 137 135 194 133 104 255 101 75 255 85 66 221 75 60 191 57 48 201 68 72 233 90 88 175 117 121 110 112 133 106 74 107 126 86 109 163 74 89 156 91 95 181 73 95 219 47 89 237 51 91 237 83 97 218 83 82 188 84 78 250 77 70 255 68 66 255 51 83 234 56 97 175 74 104 170 75 115 163 80 162 152 104 208 169 79 161 99 100 121 140 66 51 166 61 79 201 116 150 236 116 124 200 118 106 174 79 84 162 103 131 245 106 147 223 146 187 201 129 174 209 109 148 253 135 147 255 124 112 255 114 120 196 137 148 182 96 126 188 110 113 202 135 137 174 116 142 151 93 156 143 83 152 169 51 135 219 74 140 246 110 141 236 116 128 252 112 125 254 110 126 235 100 112 212 116 96 145 163 92 138 167 78 172 150 109 197 129 115 186 108 115 174 100 105 159 71 119 179 32 141 194 15 174 200 30 201 219 76 197 240 78 156 217 74 128 186 160 180 231 185 192 255 193 210 255 169 161 234 149 152 215 143 155 183 164 181 179 159 199 186 118 148 134 134 163 145 124 182 171 88 131 177 135 124 240 105 130 255 60 110 211 104 134 196 126 122 185 142 92 152 165 103 102 96 114 18 101 130 0 176 177 87 191 210 204 
52 28 0 27 34 0 19 33 20 58 41 69 54 37 67 21 54 47 14 85 67 14 98 97 38 101 107 45 59 58 31 39 37 30 50 26 32 49 19 63 49 26 50 46 21 28 33 17 20 49 40 15 68 34 29 64 22 43 61 37 40 62 64 33 46 66 55 58 63 46 40 28 44 36 21 1 44 30 0 62 67 4 59 76 24 47 69 31 49 51 0 49 32 0 78 53 4 51 45 21 34 30 68 59 50 38 40 25 43 83 61 86 141 111 255 253 249 255 239 255 255 241 255 227 223 234 68 74 76 27 32 26 96 73 87 101 95 91 76 133 90 66 149 71 39 94 23 47 86 17 39 88 37 4 62 26 16 62 37 10 42 7 48 40 25 54 33 24 44 71 48 50 98 64 55 67 29 71 64 32 46 50 40 8 43 33 2 55 38 3 35 28 24 28 25 20 35 18 11 53 29 19 62 46 38 55 53 37 50 32 34 47 29 19 38 20 40 42 42 49 54 72 14 44 56 35 84 77 0 48 49 41 85 80 105 123 115 86 99 83 89 127 100 9 50 20 0 7 0 35 30 12 54 51 44 40 67 72 34 74 95 28 51 79 46 33 73 44 30 65 40 35 54 43 57 46 51 53 38 58 50 33 50 42 28 28 43 16 48 61 45 66 63 66 27 36 55 45 55 69 31 39 53 48 59 64 51 58 52 46 72 36 32 72 15 27 63 3 51 59 30 50 61 41 65 75 78 48 82 95 60 81 90 74 92 92 61 73 73 54 59 49 42 57 32 21 56 0 34 81 0 41 80 13 29 55 22 26 44 42 10 18 71 9 34 105 15 54 125 25 52 109 44 41 82 50 40 61 37 36 38 10 68 5 0 62 12 23 55 48 42 43 51 29 48 59 25 60 68 7 57 36 44 62 62 40 30 29 31 34 0 17 44 3 14 36 0 50 74 24 70 76 60 60 35 53 54 44 31 16 15 9 22 23 3 14 31 0 27 39 37 22 49 56 7 65 36 14 81 59 12 48 52 37 57 72 18 13 55 24 35 43 41 57 43 43 69 69 105 120 151 71 97 126 39 65 68 9 54 29 0 34 0 30 75 58 77 99 109 102 101 103 99 94 61 78 91 60 63 96 93 63 88 120 94 93 149 109 96 138 116 125 142 65 127 154 42 103 169 85 108 192 123 113 196 114 133 201 78 123 178 20 77 168 37 53 176 110 106 217 86 110 210 90 137 239 96 150 252 96 132 242 102 128 217 100 127 212 59 96 198 87 113 224 107 126 242 125 126 248 154 144 253 156 148 248 137 145 222 156 162 226 154 152 214 173 181 205 152 184 157 148 183 155 141 193 167 139 174 145 130 170 95 125 172 52 122 189 36 106 172 26 105 156 13 106 129 1 109 109 11 103 108 30 74 123 30 75 128 36 72 102 42 83 100 60 71 92 63 51 115 66 43 143 95 65 120 126 79 89 139 84 72 140 81 68 144 81 75 149 94 83 137 87 66 111 80 90 91 80 110 90 61 105 70 65 132 92 52 135 101 52 118 104 72 115 109 66 81 90 59 90 107 63 109 134 93 118 160 117 117 153 97 110 138 76 110 136 41 90 117 57 72 143 102 82 183 96 82 183 106 123 207 83 114 209 44 93 182 56 101 204 59 104 199 66 107 165 85 125 198 90 111 212 108 116 201 146 134 222 107 114 208 48 90 160 0 37 105 5 56 117 71 111 161 97 141 214 106 147 241 104 121 225 134 93 221 174 111 250 229 122 255 255 32 254 255 37 249 255 70 255 255 34 222 255 56 255 255 36 245 255 17 222 255 40 222 146 101 180 114 137 201 137 148 224 131 161 225 113 168 223 117 147 219 141 149 234 182 138 249 204 134 234 255 96 221 255 52 210 255 62 223 255 74 226 255 67 213 255 66 210 255 51 218 255 28 197 255 25 183 255 48 185 186 69 159 164 124 183 112 156 181 140 170 194 152 175 197 135 190 206 167 184 190 183 195 183 176 193 188 175 172 177 165 171 185 153 191 206 181 185 227 169 181 231 164 166 229 148 161 207 156 180 202 182 166 178 177 159 161 147 160 129 139 159 110 136 177 113 144 183 116 175 149 120 171 142 150 170 157 175 149 146 161 115 129 118 76 105 87 49 107 105 124 160 186 197 242 255 
38 14 0 22 29 0 4 18 5 58 41 69 43 26 56 42 75 68 0 71 53 0 55 54 8 71 77 40 54 53 37 45 43 36 56 32 13 30 0 47 33 10 59 55 30 56 61 45 48 77 68 11 64 30 5 40 0 22 40 16 17 39 41 26 39 59 64 67 72 44 38 26 62 54 39 25 68 54 0 53 58 3 58 75 23 46 68 42 60 62 8 59 42 0 77 52 1 48 42 28 41 37 60 51 42 41 43 28 26 66 44 0 54 24 37 31 27 78 34 57 71 36 64 57 53 64 38 44 46 38 43 37 72 49 63 86 80 76 74 131 88 60 143 65 87 142 71 91 130 61 75 124 73 52 110 74 23 69 44 0 28 0 25 17 2 58 37 28 37 64 41 36 84 50 58 70 32 68 61 29 62 66 56 30 65 55 5 58 41 9 41 34 23 27 24 35 50 33 4 46 22 14 57 41 27 44 42 32 45 27 38 51 33 30 49 31 48 50 50 35 40 58 15 45 57 9 58 51 3 51 52 15 59 54 31 49 41 19 32 16 5 43 16 20 61 31 62 69 50 60 55 37 51 48 41 11 38 43 3 43 64 38 61 89 62 49 89 52 38 73 41 36 55 24 38 27 34 36 21 46 38 21 42 34 20 38 53 26 58 71 55 69 66 69 63 72 91 42 52 66 24 32 46 20 31 36 37 44 38 42 68 32 36 76 19 41 77 17 49 57 28 49 60 40 43 53 56 14 48 61 31 52 61 35 53 53 41 53 53 46 51 41 37 52 27 10 45 0 0 45 0 20 59 0 27 53 20 82 100 98 65 73 126 36 61 132 0 36 107 0 18 75 39 36 77 59 49 70 58 57 59 13 71 8 12 78 28 22 54 47 39 40 48 6 25 36 0 26 34 2 52 31 38 56 56 63 53 52 50 53 0 28 55 14 34 56 19 16 40 0 24 30 14 58 33 51 46 36 23 55 54 48 51 52 32 26 43 2 34 46 44 55 82 89 54 112 83 33 100 78 60 96 100 1 21 36 33 28 70 14 25 33 36 52 38 40 66 66 34 49 80 10 36 65 2 28 31 35 80 55 1 53 18 42 87 70 44 66 76 54 53 55 137 132 99 86 99 68 95 128 125 88 113 145 81 80 136 108 95 137 86 95 112 60 122 149 69 130 196 87 110 194 122 112 195 95 114 182 65 110 165 56 113 204 67 83 206 99 95 206 77 101 201 61 108 210 53 107 209 62 98 208 73 99 188 86 113 198 94 131 233 208 234 255 228 247 255 240 241 255 249 239 255 249 241 255 153 161 238 148 154 218 151 149 211 178 186 210 139 171 144 128 163 135 136 188 162 113 148 119 140 180 105 166 213 93 127 194 41 132 198 52 116 167 24 153 176 48 192 192 94 149 154 76 116 165 72 44 97 5 44 74 14 86 103 63 103 124 95 89 153 104 96 196 148 105 160 166 125 135 185 135 123 191 131 118 194 101 95 169 99 88 142 77 56 101 44 54 55 43 73 53 73 117 82 62 129 89 56 139 105 46 112 98 38 81 75 80 95 104 85 116 133 69 115 140 98 123 165 92 92 128 98 111 139 98 132 158 60 109 136 69 84 155 70 50 151 81 67 168 80 97 181 57 88 183 0 37 126 58 103 206 126 171 255 192 233 255 165 205 255 76 97 198 14 22 107 80 68 156 79 86 180 95 137 207 85 134 202 45 96 157 83 123 173 66 110 183 80 121 215 116 133 237 139 98 226 187 124 255 218 111 255 255 33 255 255 62 255 255 36 226 255 58 246 255 33 232 255 19 228 255 43 248 255 24 206 181 136 215 124 147 211 132 143 219 146 176 240 110 165 220 144 174 246 156 164 249 201 157 255 217 147 247 255 92 217 255 26 184 255 38 199 255 93 245 255 112 255 255 111 255 255 90 255 255 75 244 255 57 215 255 90 227 225 108 198 163 123 182 137 181 206 149 179 203 152 175 197 144 199 215 157 174 180 184 196 184 201 218 213 215 212 217 209 215 229 156 194 209 180 184 226 163 175 225 179 181 244 154 167 213 158 182 204 194 178 190 194 176 178 174 187 156 151 171 122 150 191 127 152 191 124 206 180 151 198 169 177 165 152 170 124 121 136 109 123 112 118 147 129 127 185 183 167 203 229 211 255 255 
38 33 39 70 33 55 28 35 29 7 70 27 15 66 47 13 39 48 43 68 86 62 76 101 217 255 255 197 255 255 217 255 244 240 255 240 73 73 53 6 9 0 0 31 0 28 85 18 29 62 3 47 50 27 27 26 30 22 33 38 37 48 43 22 49 28 24 74 53 76 92 103 51 63 87 30 77 75 0 45 24 0 23 0 33 22 16 35 9 8 27 28 19 26 59 54 69 80 96 62 59 72 57 70 62 30 77 55 17 61 48 31 43 51 41 39 28 26 40 18 23 64 42 38 75 69 61 82 81 120 126 114 136 148 120 136 167 148 127 148 153 116 96 109 77 49 50 35 23 11 21 39 31 15 56 34 41 65 27 50 56 0 38 54 0 22 78 1 33 119 60 204 255 225 249 255 235 240 255 219 225 255 228 121 168 138 38 63 56 0 0 15 0 29 28 0 70 52 44 85 91 67 91 103 24 54 64 73 106 109 100 119 113 132 107 98 108 70 69 42 0 21 32 0 23 66 50 73 43 63 50 49 74 48 32 44 32 0 21 22 0 53 32 0 75 43 6 84 58 11 43 42 0 9 18 3 31 31 0 28 11 78 89 69 87 98 70 50 67 45 6 31 21 11 34 30 35 68 53 35 66 46 43 68 42 17 25 23 30 36 48 67 73 87 56 78 69 66 86 73 32 56 46 24 50 59 22 56 43 19 37 9 38 45 16 65 47 33 74 57 53 61 62 70 45 59 72 64 62 85 43 44 35 43 55 27 14 41 0 2 37 11 33 52 46 65 49 48 77 54 58 73 63 104 39 50 92 11 44 75 0 28 56 3 34 40 2 48 33 20 63 47 25 54 36 11 30 25 23 54 60 27 56 63 21 51 31 37 51 12 13 45 0 0 60 2 13 89 29 21 72 28 33 55 20 45 36 19 41 5 18 74 30 77 63 33 81 72 13 63 94 7 46 85 0 17 142 21 66 179 133 158 255 247 255 255 243 235 255 246 224 227 215 187 33 63 13 0 27 0 0 65 52 10 71 68 43 69 78 45 43 50 23 10 16 50 29 56 41 48 70 64 69 63 84 77 70 65 88 72 96 119 105 90 120 142 45 114 133 51 119 134 42 105 124 54 101 129 79 107 141 64 112 148 57 136 167 84 136 172 107 120 184 232 208 255 255 227 255 255 228 255 236 246 255 213 251 255 98 136 233 57 99 189 95 106 202 98 123 217 25 105 190 20 116 204 52 102 209 58 85 190 97 116 224 66 102 210 67 119 230 137 161 255 167 139 255 195 137 255 213 150 255 241 111 233 255 76 243 255 65 226 255 57 213 255 68 205 255 66 169 255 77 149 255 85 144 255 88 123 255 48 82 242 69 38 175 77 0 70 113 0 26 159 2 68 115 31 58 109 54 73 102 22 76 84 0 57 98 18 84 120 62 143 131 103 94 175 110 111 169 141 95 141 166 66 108 162 98 99 167 97 82 153 91 86 158 91 92 162 68 104 140 56 115 122 95 124 115 107 148 84 86 126 67 95 116 95 99 111 111 68 100 93 82 130 86 80 128 82 66 110 123 88 107 151 95 97 157 86 101 170 74 103 157 89 104 159 91 100 153 71 112 146 63 118 171 36 110 171 19 97 149 43 106 171 50 107 190 54 116 215 45 96 225 78 88 251 100 90 253 117 115 238 80 98 194 105 117 213 83 92 183 80 87 171 63 75 147 50 99 144 68 138 188 117 156 229 139 158 249 121 125 226 127 139 251 146 170 255 106 149 255 126 148 255 127 153 254 103 135 234 115 162 255 131 175 252 122 156 216 152 161 232 168 147 240 171 154 234 153 152 195 169 177 192 183 188 221 208 187 254 255 240 255 255 176 255 255 126 255 255 96 248 255 77 242 255 44 211 255 66 224 255 51 188 255 42 170 255 100 215 214 126 199 147 153 157 114 201 158 75 216 136 116 203 160 200 198 187 198 192 154 207 217 205 193 193 255 191 183 255 222 161 255 224 168 255 184 186 199 187 200 184 186 212 212 134 197 154 192 193 186 173 153 174 123 179 178 127 199 209 126 204 205 142 195 163 201 173 122 191 161 59 141 187 67 143 176 107 162 158 85 186 154 117 198 132 166 176 133 191 131 144 172 89 125 77 77 104 24 49 55 7 8 17 34 0 15 32 
65 60 66 70 33 55 18 25 19 0 39 0 0 50 31 29 55 64 43 68 86 28 42 67 7 46 65 0 66 41 4 63 31 30 54 30 43 43 23 47 50 19 17 51 4 10 67 0 25 58 0 28 31 8 34 33 37 25 36 41 35 46 41 44 71 50 21 71 50 20 36 47 17 29 53 0 42 40 14 64 43 42 68 42 68 57 51 65 39 38 46 47 38 29 62 57 22 33 49 55 52 65 22 35 27 26 73 51 26 70 57 31 43 51 59 57 46 30 44 22 31 72 50 28 65 59 22 43 42 48 54 42 52 64 36 57 88 69 86 107 112 129 109 122 132 104 105 100 88 76 53 71 63 7 48 26 25 49 11 52 58 0 30 46 0 23 79 2 0 78 19 19 72 40 67 79 53 52 81 31 61 111 64 58 105 75 63 88 81 43 51 66 0 45 44 0 71 53 0 26 32 28 52 64 11 41 51 20 53 56 33 52 46 58 33 24 65 27 26 77 33 56 86 42 77 58 42 65 26 46 33 21 46 20 70 82 70 57 79 80 29 103 82 21 127 95 12 90 64 59 91 90 23 45 54 0 8 8 0 27 10 43 54 34 52 63 35 55 72 50 19 44 34 26 49 45 44 77 62 37 68 48 32 57 31 29 37 35 24 30 42 46 52 66 28 50 41 39 59 46 37 61 51 29 55 64 33 67 54 47 65 37 46 53 24 61 43 29 58 41 37 47 48 56 26 40 53 46 44 67 54 55 46 53 65 37 58 85 42 21 56 30 21 40 34 42 26 25 51 28 32 54 44 85 44 55 97 27 60 91 11 47 75 21 52 58 13 59 44 9 52 36 36 65 47 36 55 50 19 50 56 20 49 56 4 34 14 34 48 9 32 64 5 13 73 15 9 85 25 14 65 21 34 56 21 65 56 39 65 29 42 72 28 75 54 24 72 58 0 49 93 6 45 90 0 22 106 0 30 65 19 44 67 45 53 90 48 40 76 39 17 38 26 0 5 35 0 0 57 12 0 88 75 23 84 81 60 86 95 67 65 72 54 41 47 40 19 46 15 22 44 42 47 41 65 58 51 67 90 74 77 100 86 68 98 120 56 125 144 55 123 138 50 113 132 61 108 136 65 93 127 53 101 137 35 114 145 63 115 151 98 111 175 124 100 176 143 86 179 116 68 176 73 83 184 71 109 206 66 104 201 82 124 214 97 108 204 80 105 199 41 121 206 19 115 203 52 102 209 78 105 210 89 108 216 67 103 211 73 125 236 96 120 232 159 131 255 189 131 255 198 135 255 250 120 242 255 63 230 255 68 229 255 70 226 255 61 198 255 69 172 255 72 144 255 77 136 255 86 121 255 79 113 255 101 70 211 113 34 109 152 0 35 168 11 84 131 47 59 110 55 78 107 27 85 93 6 65 106 26 90 126 68 94 82 54 38 119 54 47 105 77 46 92 117 69 111 165 91 92 160 105 90 161 100 95 167 89 90 160 45 81 117 19 78 85 78 107 98 95 136 72 113 153 94 103 124 103 100 112 112 98 130 123 90 138 94 57 105 59 38 82 95 66 85 129 99 101 161 109 124 193 99 128 182 103 118 173 93 102 155 61 102 136 58 113 166 43 117 178 37 115 167 43 106 171 38 95 178 41 103 202 69 120 249 76 86 249 87 77 240 90 88 211 66 84 180 80 92 188 83 92 183 92 99 183 90 102 174 69 118 163 56 126 176 77 116 189 108 127 218 133 137 238 132 144 255 137 161 255 125 168 255 128 150 255 120 146 247 114 146 245 129 176 255 131 175 252 129 163 223 152 161 232 132 111 204 149 132 212 157 156 199 151 159 174 166 171 204 199 178 245 173 154 231 255 107 231 255 91 238 255 87 239 255 150 255 255 151 255 255 153 255 255 156 255 255 158 255 255 178 255 225 137 210 156 162 166 133 220 177 107 248 168 176 255 220 185 183 172 191 185 147 190 200 188 157 157 255 201 193 255 231 170 255 251 195 255 200 202 215 193 206 190 181 207 207 160 223 180 208 209 202 193 173 194 150 206 205 135 207 217 141 219 220 164 217 185 214 186 135 207 177 75 161 207 87 167 200 131 181 177 104 192 160 123 202 136 170 187 144 202 144 157 185 130 166 118 122 149 69 129 135 87 145 154 171 157 172 189 
84 46 135 85 46 125 41 3 50 0 24 12 0 73 50 44 69 52 62 67 25 41 38 0 33 37 0 27 39 11 19 44 26 7 61 41 4 65 72 20 63 94 69 32 74 192 0 60 204 0 36 209 0 34 206 0 10 214 0 0 237 0 30 201 0 22 111 28 58 45 50 60 10 46 60 26 60 73 26 26 46 32 32 44 53 51 61 58 37 66 47 45 55 47 44 49 13 19 21 15 52 30 12 61 17 51 63 39 93 67 67 86 44 72 65 47 57 31 57 21 23 48 18 52 28 48 84 20 68 52 39 57 6 95 51 1 84 40 99 36 49 160 11 81 143 33 90 71 49 60 37 65 52 42 10 9 83 3 16 57 23 23 0 46 16 28 83 27 59 60 14 85 61 37 78 74 58 77 75 49 54 82 46 37 88 71 52 50 75 36 54 56 27 80 36 33 60 5 31 58 17 30 54 40 74 30 33 53 33 20 16 64 52 0 35 37 41 57 69 47 42 71 57 44 58 23 62 43 0 70 26 0 63 5 15 50 22 15 53 28 9 58 27 21 63 35 24 49 19 43 62 18 49 48 0 59 63 0 30 51 0 19 36 0 30 62 0 35 68 37 36 58 83 43 55 143 10 21 123 21 27 135 11 28 110 14 34 73 55 55 91 46 39 97 39 37 212 0 18 236 28 19 248 54 6 255 72 24 255 53 16 255 14 3 255 19 21 180 48 33 86 57 48 83 42 75 60 8 46 34 25 39 62 51 42 111 70 41 91 85 65 63 41 47 47 20 52 43 20 44 44 38 42 83 45 62 34 50 73 17 62 75 44 40 52 0 20 41 0 24 36 64 27 62 16 68 128 54 175 218 186 231 255 255 236 255 255 249 239 255 191 181 219 125 123 110 19 22 51 0 0 42 0 0 31 44 57 62 228 254 241 236 255 224 233 255 231 245 255 240 117 121 84 81 97 64 79 101 102 69 91 93 50 57 79 59 70 104 77 89 113 48 60 94 24 28 69 0 7 0 0 21 0 3 82 3 23 104 47 61 131 80 47 86 31 56 58 0 26 57 0 0 98 65 14 120 119 72 126 138 82 87 97 117 101 113 106 117 112 69 129 55 114 111 28 136 93 26 132 103 57 94 121 90 26 131 112 0 144 133 37 133 172 122 99 204 123 75 197 98 76 175 94 81 147 86 96 117 105 133 132 108 128 167 87 154 237 92 155 246 87 133 220 73 147 224 68 105 208 103 65 222 96 47 205 100 82 182 95 126 194 86 159 216 125 169 252 159 145 255 188 172 255 156 196 255 127 191 255 146 184 255 147 159 255 166 147 255 142 157 250 115 173 248 143 177 255 161 142 255 152 114 223 133 100 191 91 78 146 93 101 164 75 82 150 85 81 118 106 105 122 80 114 111 79 136 97 94 131 76 90 114 50 106 114 43 78 109 17 72 115 40 84 107 51 109 105 66 95 97 61 81 112 67 63 120 30 62 116 34 48 116 53 65 147 77 58 146 86 70 155 127 62 141 126 58 109 144 55 97 170 68 75 169 92 78 188 105 86 202 100 110 221 65 95 205 67 90 198 85 94 213 83 102 206 94 133 202 58 121 166 47 105 154 69 105 171 59 78 159 67 102 156 58 105 145 46 102 165 70 111 207 74 92 212 103 89 212 105 105 213 79 91 187 70 96 193 56 96 195 63 94 198 76 112 208 70 121 200 69 137 200 73 135 206 97 142 239 113 116 233 130 134 245 130 136 242 126 155 255 152 161 255 162 147 255 167 131 251 154 143 249 157 176 255 205 229 255 186 190 255 148 150 236 91 119 204 28 101 164 120 185 231 157 169 243 164 163 251 169 195 255 139 174 226 141 175 225 182 175 241 157 146 236 158 175 255 129 173 232 122 147 217 156 165 254 174 166 253 168 182 255 131 161 233 156 189 254 196 218 255 195 223 249 212 245 255 167 212 243 157 191 241 200 193 248 226 197 241 192 181 212 223 228 244 200 212 224 205 212 234 207 190 212 144 137 130 200 237 207 186 225 206 238 255 255 255 249 255 230 214 213 188 193 149 175 200 157 170 178 151 163 173 152 183 199 202 149 176 197 166 199 205 159 198 205 153 182 164 172 194 185 136 149 143 202 195 154 230 205 101 175 150 36 139 120 29 21 13 0 
54 16 105 70 31 110 77 39 86 0 72 60 0 79 56 8 33 16 35 40 0 41 38 0 19 23 0 33 45 17 33 58 40 12 66 46 9 70 77 15 58 89 51 14 56 187 0 55 212 0 44 231 0 56 238 0 42 238 0 24 225 0 18 190 0 11 85 2 32 37 42 52 10 46 60 14 48 61 34 34 54 23 23 35 39 37 47 64 43 72 32 30 40 47 44 49 37 43 45 18 55 33 21 70 26 42 54 30 72 46 46 68 26 54 64 46 56 27 53 17 28 53 23 67 43 63 97 33 81 46 33 51 0 87 43 0 75 31 85 22 35 150 1 71 91 0 38 41 19 30 24 52 39 65 33 32 112 32 45 77 43 43 0 49 19 1 56 0 32 33 0 64 40 16 41 37 21 44 42 16 23 51 15 1 52 35 64 62 87 39 57 59 29 82 38 23 50 0 22 49 8 30 54 40 86 42 45 89 69 56 8 56 44 20 66 68 30 46 58 37 32 61 49 36 50 4 43 24 0 69 25 7 77 19 24 59 31 0 14 0 2 51 20 13 55 27 58 83 53 92 111 67 46 45 0 32 36 0 3 24 0 3 20 0 47 79 8 42 75 44 36 58 83 33 45 133 16 27 129 29 35 143 37 54 136 19 39 78 51 51 87 57 50 108 0 0 172 2 20 238 13 4 233 61 13 255 58 10 255 68 31 255 28 17 255 19 21 180 61 46 99 34 25 60 15 48 33 20 58 46 27 41 64 41 32 101 70 41 91 45 25 23 46 52 52 33 65 56 34 58 58 34 38 79 9 26 0 38 61 5 50 63 32 66 78 26 44 65 0 30 42 70 10 45 0 17 77 3 18 61 29 21 56 50 25 44 90 36 26 137 53 43 81 41 39 26 36 39 68 23 40 82 17 32 63 46 59 64 52 78 65 49 83 37 65 102 63 48 65 43 69 73 36 42 58 25 12 34 35 31 53 55 34 41 63 53 64 98 35 47 71 19 31 65 31 35 76 22 39 17 13 57 0 0 79 0 0 70 13 20 90 39 34 73 18 59 61 0 32 63 0 0 86 53 0 66 65 9 63 75 58 63 73 84 68 80 70 81 76 52 112 38 116 113 30 159 116 49 144 115 69 97 124 93 18 123 104 0 128 117 16 112 151 86 63 168 110 62 184 111 89 188 94 81 147 71 81 102 78 106 105 104 124 163 104 171 254 111 174 255 81 127 214 66 140 217 97 134 237 136 98 255 175 126 255 137 119 219 88 119 187 86 159 216 71 115 198 125 111 244 140 124 237 68 108 171 55 119 192 77 115 214 104 116 240 155 136 255 127 142 235 99 157 232 128 162 255 161 142 255 186 148 255 183 150 241 172 159 227 165 173 236 163 170 238 146 142 179 115 114 131 81 115 112 42 99 60 68 105 50 91 115 51 112 120 49 112 143 51 96 139 64 93 116 60 110 106 67 107 109 73 84 115 70 86 143 53 96 150 68 71 139 76 59 141 71 34 122 62 4 89 61 32 111 96 53 104 139 66 108 181 127 134 228 114 100 210 106 87 203 86 96 207 76 106 216 84 107 215 89 98 217 64 83 187 55 94 163 49 112 157 49 107 156 76 112 178 76 95 176 99 134 188 55 102 142 40 96 159 53 94 190 63 81 201 88 74 197 98 98 206 86 98 194 90 116 213 77 117 216 61 92 196 53 89 185 52 103 182 44 112 175 51 113 184 68 113 210 86 89 206 96 100 211 126 132 238 114 143 248 123 132 241 142 127 242 169 133 253 159 148 254 125 144 225 129 153 227 110 114 191 101 103 189 156 184 255 113 186 249 133 198 244 187 199 255 161 160 248 138 164 235 138 173 225 128 162 212 146 139 205 159 148 238 177 194 255 117 161 220 157 182 252 168 177 255 157 149 236 174 188 255 135 165 237 147 180 245 154 176 227 158 186 212 162 195 214 149 194 225 174 208 255 210 203 255 235 206 250 213 202 233 206 211 227 193 205 217 205 212 234 214 197 219 203 196 189 177 214 184 182 221 202 206 227 244 222 216 248 225 209 208 212 217 173 207 232 189 228 236 209 210 220 199 201 217 220 170 197 218 171 204 210 187 226 233 196 225 207 188 210 201 185 198 192 195 188 147 207 182 78 202 177 63 177 158 67 159 151 98 
14 28 69 12 38 47 37 35 71 37 29 119 41 48 52 37 56 23 30 58 32 17 45 9 7 34 39 0 45 73 18 66 58 36 64 61 24 51 80 25 42 84 33 29 78 34 18 53 54 31 35 22 29 9 35 65 69 24 56 49 36 71 3 26 76 0 1 49 0 2 53 8 24 36 36 35 46 28 2 93 0 0 104 8 0 82 43 0 67 51 17 79 78 33 56 50 63 69 43 67 37 49 93 16 82 84 0 70 89 21 68 67 28 35 51 39 41 49 63 78 66 39 60 77 25 52 63 36 39 38 40 27 14 17 20 0 38 18 21 81 33 41 80 35 68 137 102 40 94 72 17 56 15 0 39 0 8 40 0 98 64 5 41 45 42 39 61 89 18 35 56 0 37 61 9 64 107 10 51 119 0 59 104 0 73 64 0 79 18 0 95 18 0 60 30 70 32 67 84 28 64 100 61 80 229 186 181 255 247 224 255 240 255 255 249 255 89 124 82 17 10 0 54 30 0 88 63 29 63 56 86 6 61 70 0 52 15 18 35 3 22 61 26 37 71 69 14 53 96 1 70 79 26 46 9 68 25 0 72 35 30 24 35 51 22 73 104 0 57 51 8 41 0 53 44 35 28 42 57 8 66 56 24 85 40 41 69 32 31 46 19 51 55 68 33 40 73 40 62 64 65 61 46 64 17 47 49 1 61 51 38 95 46 41 95 38 68 70 44 61 33 39 27 37 38 47 64 0 82 51 0 79 21 24 62 33 55 44 49 70 51 95 45 53 77 34 66 69 55 36 44 86 31 41 22 44 20 0 50 0 24 67 9 12 47 1 44 56 22 24 44 21 3 16 10 10 33 26 0 78 31 9 51 39 79 66 80 17 60 52 37 76 45 50 97 41 84 109 53 182 93 103 163 65 100 64 101 95 71 82 87 23 43 56 26 39 57 48 0 60 48 19 71 17 62 43 32 84 24 3 62 0 18 58 7 46 60 38 4 41 19 0 66 19 0 52 30 16 52 64 46 58 86 50 32 68 47 23 45 32 35 28 37 53 31 64 58 46 73 63 52 90 112 101 74 129 102 74 158 121 73 145 119 69 102 95 88 110 103 51 94 86 32 92 80 68 107 100 88 110 112 107 123 134 102 134 133 93 137 126 105 142 139 103 117 130 94 123 153 97 149 184 100 164 204 125 185 249 90 150 252 76 122 255 96 128 255 107 118 255 111 130 255 128 143 255 131 135 221 146 145 216 140 157 213 108 144 210 93 128 206 98 101 226 59 58 200 51 54 221 56 74 220 61 99 162 69 137 160 64 146 182 79 162 166 121 177 152 139 172 139 162 190 119 180 171 150 200 141 247 201 137 219 152 114 149 111 100 102 99 111 83 77 88 106 78 98 181 87 118 184 98 116 153 97 124 121 97 114 96 93 92 122 87 90 145 78 95 135 67 107 108 70 136 52 64 119 3 68 113 6 59 117 10 50 119 16 68 134 46 69 117 29 93 122 28 98 132 86 77 115 138 83 113 161 84 101 167 72 96 156 80 112 175 53 73 210 67 72 237 95 90 223 71 91 192 83 117 200 65 114 195 67 100 193 66 114 188 71 119 197 53 95 207 58 87 221 49 90 232 60 84 222 106 95 239 105 96 233 73 100 217 34 90 181 36 81 160 63 69 169 84 84 194 73 116 206 49 118 199 60 101 195 89 113 215 98 120 218 95 152 233 82 148 220 113 155 245 140 150 251 155 154 242 157 160 243 133 144 240 129 145 252 157 151 255 153 157 255 143 170 255 132 184 255 114 176 255 138 180 255 148 173 255 142 160 255 164 168 251 168 158 243 173 155 251 175 161 255 152 156 255 152 164 255 152 146 255 140 149 255 137 135 255 105 112 255 151 148 255 176 174 255 199 191 255 202 204 255 208 205 255 190 196 255 196 210 255 203 227 255 166 179 236 207 214 255 201 211 235 167 202 234 182 230 255 159 213 255 210 236 255 207 216 245 220 218 228 216 205 235 218 201 231 206 203 208 213 203 192 237 228 185 215 224 165 205 236 208 176 220 217 174 221 227 185 208 202 196 212 163 199 213 148 210 213 190 196 210 206 176 218 192 158 202 141 184 197 131 190 182 145 176 175 192 164 176 212 156 181 173 152 167 98 116 127 59 46 82 24 
5 19 60 20 46 55 28 26 62 58 50 140 3 10 14 6 25 0 20 48 22 138 166 130 235 255 255 219 255 255 222 255 255 212 240 237 67 94 123 16 33 75 32 28 77 34 18 53 80 57 61 50 57 37 13 43 47 12 44 37 16 51 0 5 55 0 31 79 7 0 47 2 21 33 33 52 63 45 0 67 0 0 111 15 0 83 44 0 92 76 12 74 73 9 32 26 31 37 11 54 24 36 90 13 79 128 38 114 91 23 70 70 31 38 44 32 34 23 37 52 72 45 66 91 39 66 64 37 40 32 34 21 28 31 34 5 52 32 24 84 36 20 59 14 0 55 20 0 48 26 27 66 25 7 70 0 48 80 0 83 49 0 42 46 43 46 68 96 20 37 58 18 66 90 12 67 110 0 32 100 0 53 98 0 42 33 0 72 11 0 100 23 21 82 52 59 21 56 82 26 62 87 48 67 84 41 36 96 62 39 62 25 54 23 12 32 25 60 18 38 31 0 46 22 0 62 37 3 34 27 57 29 84 93 13 71 34 33 50 18 24 63 28 17 51 49 19 58 101 0 60 69 17 37 0 67 24 0 72 35 30 32 43 59 4 55 86 2 71 65 26 59 18 48 39 30 37 51 66 0 55 45 7 68 23 34 62 25 31 46 19 34 38 51 25 32 65 25 47 49 43 39 24 74 27 57 76 28 88 71 58 115 124 119 173 90 120 122 134 151 123 151 139 149 105 114 131 47 164 133 0 104 46 25 63 34 51 40 45 46 27 71 45 53 77 26 58 61 55 36 44 89 34 44 16 38 14 28 83 30 21 64 6 31 66 20 42 54 20 13 33 10 39 52 46 14 37 30 0 66 19 2 44 32 31 18 32 2 45 37 26 65 34 27 74 18 32 57 1 102 13 23 98 0 35 21 58 52 33 44 49 59 79 92 52 65 83 101 50 113 95 66 118 11 56 37 25 77 17 0 59 0 0 36 0 30 44 22 13 50 28 0 76 29 1 68 46 6 42 54 17 29 57 47 29 65 63 39 61 58 61 54 38 54 32 44 38 26 48 38 27 26 48 37 18 73 46 3 87 50 14 86 60 4 37 30 61 83 76 102 145 137 111 171 159 125 164 157 76 98 100 60 76 87 83 115 114 68 112 101 44 81 78 49 63 76 52 81 111 63 115 150 99 163 203 98 158 222 103 163 255 117 163 255 100 132 255 129 140 255 105 124 255 118 133 255 142 146 232 121 120 191 134 151 207 118 154 220 114 149 227 137 140 255 128 127 255 152 155 255 145 163 255 115 153 216 72 140 163 48 130 166 62 145 149 85 141 116 91 124 91 96 124 53 121 112 91 155 96 202 167 103 185 181 143 178 168 157 159 168 180 152 164 175 193 134 154 237 122 153 219 133 151 188 119 146 143 113 130 112 107 106 136 103 106 161 86 103 143 83 123 124 75 141 57 68 123 7 76 121 14 71 129 22 65 134 31 71 137 49 83 131 43 82 111 17 71 105 59 50 88 111 64 94 142 80 97 163 69 93 153 80 112 175 68 88 225 80 85 250 110 105 238 75 95 196 74 108 191 55 104 185 51 84 177 61 109 183 56 104 182 48 90 202 76 105 239 57 98 240 78 102 240 91 80 224 80 71 208 69 96 213 52 108 199 73 118 197 91 97 197 81 81 191 52 95 185 35 104 185 56 97 191 88 112 214 71 93 191 51 108 189 36 102 174 58 100 190 95 105 206 108 107 195 110 113 196 127 138 234 145 161 255 246 240 255 240 244 255 226 253 255 208 255 255 200 255 255 129 171 255 131 156 255 159 177 255 196 200 255 179 169 254 168 150 246 184 170 255 139 143 254 161 173 255 167 161 255 140 149 255 159 157 255 137 144 255 154 151 255 164 162 255 171 163 255 177 179 242 171 168 227 168 174 238 159 173 234 163 187 247 168 181 238 169 176 219 176 186 210 191 226 255 201 249 255 188 242 255 203 229 255 208 217 246 201 199 209 216 205 235 220 203 233 200 197 202 247 237 226 230 221 178 206 215 156 177 208 180 160 204 201 188 235 241 176 199 193 198 214 165 194 208 143 228 231 208 245 255 255 228 255 244 169 213 152 147 160 94 185 177 140 248 247 255 242 254 255 238 255 255 195 210 141 132 143 75 175 211 153 
43 57 54 65 59 81 30 43 45 18 54 32 17 39 28 56 33 50 77 29 77 58 28 65 21 35 32 34 58 56 47 51 64 60 60 82 28 49 58 3 39 25 15 61 28 12 36 14 52 50 41 38 44 30 8 60 23 0 70 17 0 59 27 3 29 29 44 51 71 55 63 64 11 36 28 45 59 58 25 21 42 37 56 76 39 83 80 0 69 24 11 82 38 15 47 22 32 47 32 45 39 37 63 15 25 97 16 47 129 0 43 158 0 40 87 8 23 102 26 40 113 45 56 78 32 20 39 58 17 0 73 0 0 119 47 0 112 81 0 88 76 7 60 44 15 65 42 21 54 37 48 43 49 55 35 72 63 29 75 88 93 103 18 73 56 30 70 58 11 45 42 0 28 18 16 51 22 0 54 0 53 74 43 92 64 67 61 69 83 0 29 45 5 23 47 5 37 40 43 40 53 78 44 64 30 52 54 21 55 45 42 50 41 34 52 28 21 48 29 32 64 39 13 66 60 16 50 73 48 46 79 48 49 66 19 29 30 26 36 37 25 29 44 22 43 42 30 44 22 32 42 21 17 49 22 6 54 16 40 66 43 49 45 20 61 63 46 40 68 41 11 73 36 0 70 33 0 49 29 40 35 41 31 41 46 48 62 61 54 45 64 55 51 72 72 45 52 86 35 28 80 60 57 3 66 49 0 70 52 29 48 32 80 13 16 134 2 29 161 0 66 164 0 81 178 9 78 240 47 124 255 207 255 255 242 255 219 255 255 145 233 207 0 80 56 0 19 16 60 48 56 53 52 69 69 53 76 45 23 47 10 0 7 70 31 24 33 35 2 47 75 48 35 47 35 1 45 31 19 64 37 45 36 17 34 62 35 1 68 37 0 56 27 9 51 17 46 20 11 94 0 25 44 8 4 0 33 3 11 44 31 34 37 40 41 36 55 28 30 39 0 63 34 0 66 33 32 62 66 46 42 63 28 36 37 28 59 39 0 50 0 8 70 0 27 58 13 60 70 49 99 112 94 43 87 66 22 71 40 15 37 28 18 30 30 110 124 120 89 103 102 70 94 92 66 62 64 116 89 110 134 119 148 107 112 158 101 109 185 64 103 174 73 121 183 95 136 206 74 117 197 78 143 213 88 154 226 100 146 245 99 121 236 110 126 251 98 137 254 76 140 239 102 165 255 125 156 255 146 176 255 159 194 240 122 154 179 126 159 180 120 155 187 145 166 197 171 176 230 147 162 215 116 160 199 115 161 209 131 163 214 137 140 197 157 147 204 154 116 161 172 108 146 198 88 173 183 54 158 241 72 187 252 22 134 255 50 164 255 104 225 255 121 227 255 184 252 197 185 209 173 211 228 84 173 191 130 197 230 173 171 222 116 83 138 122 90 123 96 61 45 129 73 28 161 119 59 135 147 71 55 143 11 35 175 4 68 147 0 126 117 48 72 108 76 0 142 89 18 180 117 13 155 131 43 125 159 57 96 188 34 79 184 90 89 205 161 56 209 214 50 239 167 48 216 111 80 208 34 137 200 0 140 168 53 126 172 74 72 131 74 86 124 90 120 156 62 95 158 73 109 197 84 81 202 75 74 180 57 131 204 51 117 203 58 103 219 48 104 227 86 98 230 135 92 222 84 66 192 69 69 207 43 68 208 27 103 209 59 123 198 95 86 155 99 112 168 68 127 197 80 134 218 88 146 232 105 129 239 123 108 237 113 138 255 80 153 255 128 164 255 184 155 255 232 109 255 255 63 255 255 50 255 255 49 255 255 54 255 255 64 252 255 77 244 255 85 220 255 79 182 255 107 151 170 164 180 220 126 226 236 130 242 181 158 226 187 158 211 187 155 204 166 147 227 160 158 245 133 201 234 133 196 241 179 177 236 170 196 243 177 204 255 203 214 255 189 214 249 250 183 215 255 191 187 194 238 215 195 230 255 202 220 255 202 224 251 238 210 211 234 213 180 169 231 196 188 219 225 204 225 208 189 232 154 197 217 134 193 220 129 165 233 158 164 240 190 184 245 200 178 232 158 223 225 176 237 221 186 222 232 207 222 243 226 217 224 194 205 216 146 195 217 128 171 214 149 172 231 181 191 233 197 226 237 190 226 226 178 200 230 184 177 224 204 193 211 209 196 206 193 150 166 143 86 112 95 20 65 36 
21 35 32 42 36 58 53 66 68 22 58 36 16 38 27 47 24 41 51 3 51 64 34 71 50 64 61 32 56 54 54 58 71 38 38 60 0 5 14 2 38 24 0 39 6 71 95 73 86 84 75 60 66 52 0 39 2 0 31 0 0 37 5 31 57 57 54 61 81 19 27 28 23 48 40 90 104 103 161 157 178 239 255 255 161 205 202 85 160 115 0 48 4 0 12 0 55 70 55 60 54 52 90 42 52 78 0 28 115 0 29 172 0 54 109 30 45 111 35 49 89 21 32 66 20 8 16 35 0 0 78 0 0 106 34 0 113 82 10 104 92 4 57 41 8 58 35 16 49 32 29 24 30 60 40 77 74 40 86 24 29 39 2 57 40 0 36 24 22 56 53 35 70 60 31 66 37 13 73 17 0 21 0 52 24 27 24 32 46 22 56 72 38 56 80 29 61 64 42 39 52 56 22 42 34 56 58 20 54 44 31 39 30 35 53 29 20 47 28 32 64 39 14 67 61 18 52 75 43 41 74 39 40 57 46 56 57 26 36 37 30 34 49 28 49 48 27 41 19 53 63 42 22 54 27 13 61 23 27 53 30 43 39 14 25 27 10 0 11 0 0 52 15 0 34 0 55 109 89 88 83 89 61 71 76 52 66 65 27 18 37 41 37 58 73 46 53 78 27 20 67 47 44 8 71 54 9 92 74 48 67 51 100 33 36 145 13 40 158 0 63 158 0 75 148 0 48 155 0 39 148 14 77 69 38 65 32 83 82 0 86 60 0 84 60 16 43 40 45 33 41 50 49 66 40 24 47 71 49 73 46 32 43 66 27 20 38 40 7 16 44 17 28 40 28 13 57 43 23 68 41 50 41 22 26 54 27 1 68 37 9 66 37 17 59 25 53 27 18 108 10 39 88 52 48 5 46 16 17 50 37 39 42 45 48 43 62 96 98 107 8 75 46 0 57 24 0 9 13 34 30 51 46 54 55 50 81 61 0 63 6 0 54 0 20 51 6 39 49 28 61 74 56 23 67 46 19 68 37 65 87 78 78 90 90 69 83 79 103 117 116 50 74 72 112 108 110 130 103 124 100 85 114 107 112 158 81 89 165 54 93 164 71 119 181 83 124 194 94 137 217 81 146 216 82 148 220 93 139 238 110 132 247 112 128 253 81 120 237 80 144 243 73 136 241 111 142 255 134 164 246 133 168 214 158 190 215 154 187 208 145 180 212 156 177 208 167 172 226 154 169 222 145 189 228 142 188 236 151 183 234 130 133 190 113 103 160 174 136 181 205 141 179 255 146 231 197 68 172 176 7 122 246 16 128 255 45 159 255 78 199 255 105 211 244 131 199 202 190 214 155 193 210 114 203 221 135 202 235 161 159 210 207 174 229 190 158 191 172 137 121 169 113 68 114 72 12 106 118 42 57 145 13 28 168 0 85 164 9 117 108 39 75 111 79 0 151 98 0 142 79 0 133 109 51 133 167 58 97 189 58 103 208 88 87 203 156 51 204 214 50 239 194 75 243 131 100 228 13 116 179 0 129 157 14 87 133 84 82 141 120 132 170 108 138 174 76 109 172 55 91 179 58 55 176 59 58 164 9 83 156 33 99 185 61 106 222 57 113 236 117 129 255 117 74 204 86 68 194 98 98 236 61 86 226 20 96 202 53 117 192 79 70 139 56 69 125 67 126 196 63 117 201 88 146 232 121 145 255 128 113 242 129 154 255 82 155 255 102 138 234 158 129 243 209 86 251 255 59 255 255 58 255 255 44 255 255 58 255 255 71 255 255 72 239 255 79 214 255 86 189 255 110 154 169 163 179 220 126 226 228 122 234 182 159 227 196 167 220 193 161 210 175 156 236 162 160 247 131 199 232 126 189 234 168 166 225 151 177 224 146 173 238 174 185 242 175 200 235 248 181 213 255 183 179 197 241 218 201 236 255 220 238 255 207 229 255 226 198 199 227 206 173 176 238 203 195 226 232 210 231 214 198 241 163 208 228 145 216 243 152 192 255 185 168 244 194 173 234 189 176 230 156 207 209 160 227 211 176 203 213 188 191 212 195 212 219 189 222 233 163 216 238 149 186 229 164 171 230 180 185 227 191 207 218 171 216 216 168 188 218 172 175 222 202 196 214 212 205 215 202 204 220 197 189 215 198 194 239 210 
16 59 18 43 66 52 33 41 55 18 51 74 27 82 101 21 69 69 35 86 55 23 59 47 19 53 42 39 70 42 17 56 5 19 52 0 5 35 0 26 38 28 37 56 51 41 60 45 62 37 31 58 40 24 33 49 24 42 67 50 41 62 57 43 53 54 39 28 49 24 39 74 3 57 107 29 59 123 31 52 129 15 32 149 5 23 161 15 11 255 10 6 255 30 0 255 39 0 224 47 0 213 62 28 191 53 28 159 64 42 103 50 44 0 36 41 0 11 50 35 6 64 54 8 65 46 20 57 38 11 45 6 0 53 0 9 74 2 15 68 2 51 72 19 38 49 31 19 41 16 22 47 19 11 8 65 9 10 78 18 30 38 44 42 33 68 63 43 63 56 49 33 38 72 14 37 30 41 81 7 23 48 2 18 46 45 19 48 78 0 21 78 27 58 88 16 65 49 13 52 61 42 51 120 31 26 78 42 37 30 38 52 0 58 72 0 90 93 12 64 66 33 58 69 25 37 76 21 26 77 50 32 82 85 34 54 95 39 36 93 40 43 74 11 52 22 17 64 34 10 66 49 23 58 50 34 67 50 22 64 54 13 41 41 41 49 66 59 49 74 59 44 53 59 59 45 34 43 36 19 31 19 27 51 27 16 50 11 12 46 26 43 73 53 45 48 43 58 59 52 29 45 33 0 18 9 12 35 29 20 44 22 41 56 27 77 92 75 141 160 155 203 239 223 229 255 251 186 226 204 99 135 139 14 57 78 0 10 42 0 43 53 5 76 56 24 75 46 47 78 61 39 56 51 18 28 33 0 27 17 19 47 20 43 63 48 38 43 53 42 66 64 0 54 41 0 66 35 35 101 65 40 77 55 79 91 81 93 100 96 84 105 102 126 138 130 124 118 104 112 114 97 113 120 101 78 97 82 85 119 116 65 119 97 61 118 89 80 142 109 109 151 127 121 153 144 125 156 152 114 146 136 128 180 156 125 169 146 143 157 154 145 150 157 130 136 140 138 149 144 143 170 151 161 164 141 188 166 164 193 176 172 154 170 182 120 164 176 110 166 165 113 163 178 126 165 210 123 162 235 110 153 233 131 152 219 170 157 215 146 143 236 131 132 250 122 132 244 118 124 234 127 132 236 102 130 228 85 132 232 98 136 231 127 140 233 143 159 255 144 186 255 116 181 255 140 163 255 150 149 255 176 161 255 160 176 255 117 171 247 109 178 223 105 141 167 108 137 97 103 147 22 53 127 103 53 140 169 68 137 156 94 118 132 95 115 117 88 108 131 50 73 165 69 97 195 60 96 158 72 107 161 74 116 150 71 110 167 68 115 183 67 134 191 51 116 162 81 113 124 87 106 100 80 110 134 58 99 131 50 108 134 57 95 122 67 101 90 74 124 75 57 119 84 84 125 129 81 107 152 87 107 192 59 105 192 42 114 210 47 98 229 51 96 237 53 123 196 43 130 107 46 140 74 64 118 98 66 103 125 88 120 155 73 120 128 82 108 143 85 86 204 96 73 255 98 83 255 103 100 217 121 127 193 157 152 255 140 150 255 114 208 255 55 215 255 10 200 223 22 194 222 55 185 249 126 133 255 203 135 255 245 107 255 255 71 246 245 109 255 182 138 255 147 136 254 106 187 255 38 205 227 55 197 247 24 227 255 45 234 255 106 234 255 108 205 234 86 217 247 19 229 255 0 235 255 0 234 255 0 241 255 9 251 255 18 255 255 36 255 255 30 255 255 42 255 255 43 255 255 70 255 255 152 244 255 243 197 255 255 155 255 255 162 255 254 164 255 255 172 255 255 188 255 228 213 255 144 255 255 37 255 255 42 255 255 64 255 255 67 255 255 74 255 255 176 210 255 200 167 255 255 106 255 255 99 255 255 104 255 255 117 255 255 111 255 255 206 255 228 233 255 172 239 244 105 255 243 24 255 216 35 255 216 32 255 203 25 255 213 15 255 218 20 255 223 25 255 233 15 255 255 0 210 255 0 148 230 0 103 109 0 80 54 0 83 38 0 91 0 0 169 0 64 255 65 75 255 52 75 255 132 57 255 157 0 185 9 0 101 0 0 97 4 0 93 0 0 94 0 0 119 0 0 171 40 0 253 151 0 236 127 0 220 86 0 221 102 0 235 118 36 255 205 75 255 255 75 255 242 
20 63 22 33 56 42 25 33 47 9 42 65 0 43 62 3 51 51 0 48 17 12 48 36 23 57 46 25 56 28 41 80 29 48 81 22 34 64 18 32 44 34 32 51 46 15 34 19 56 31 25 52 34 18 33 49 24 36 61 44 39 60 55 35 45 46 38 27 48 16 31 66 0 47 97 28 58 122 12 33 110 25 42 159 4 22 160 12 8 255 46 42 255 46 6 255 84 32 255 75 26 241 59 25 188 56 31 162 46 24 85 59 53 0 38 43 0 21 60 45 0 50 40 0 51 32 37 74 55 14 48 9 35 93 20 27 92 20 34 87 21 56 77 24 35 46 28 14 36 11 11 36 8 42 39 96 39 40 108 65 77 85 46 44 35 33 28 8 43 36 29 4 9 43 48 71 64 32 72 0 30 55 9 34 62 61 15 44 74 20 41 98 29 60 90 3 52 36 17 56 65 25 34 103 40 35 87 42 37 30 29 43 0 33 47 0 57 60 0 38 40 7 50 61 17 22 61 6 2 53 26 14 64 67 7 27 68 38 35 92 28 31 62 6 47 17 19 66 36 1 57 40 25 60 52 23 56 39 3 45 35 9 37 37 26 34 51 25 15 40 66 51 60 33 33 19 57 66 59 121 133 121 240 255 240 235 255 230 233 255 247 203 233 213 95 98 93 25 26 19 10 26 14 35 64 55 51 74 68 55 79 57 27 42 13 18 33 16 20 39 34 10 46 30 14 53 36 1 41 19 18 54 58 20 63 84 20 67 99 3 75 85 21 92 72 28 79 50 23 54 37 24 41 36 28 38 43 30 62 52 17 45 18 33 53 38 7 12 22 2 26 24 0 44 31 0 50 19 10 76 40 33 70 48 27 39 29 57 64 60 39 60 57 100 112 104 119 113 99 101 103 86 70 77 58 68 87 72 86 120 117 9 63 41 3 60 31 0 22 0 0 29 5 45 77 68 32 63 59 32 64 54 2 54 30 0 28 5 8 22 19 10 15 22 9 15 19 101 112 107 92 119 100 111 114 91 103 81 79 127 110 106 111 127 139 85 129 141 93 149 148 60 110 125 71 110 155 83 122 195 36 79 159 83 104 171 126 113 171 101 98 191 116 117 235 101 111 223 104 110 220 119 124 228 99 127 225 95 142 242 98 136 231 130 143 236 145 161 255 119 161 255 123 188 255 128 151 255 127 126 255 158 143 255 135 151 251 126 180 255 117 186 231 129 165 191 136 165 125 155 199 74 123 197 173 107 194 223 107 176 195 119 143 157 122 142 144 128 148 171 130 153 245 128 156 254 115 151 213 110 145 199 114 156 190 122 161 218 119 166 234 92 159 216 108 173 219 145 177 188 159 178 172 158 188 212 155 196 228 153 211 237 163 201 228 150 184 173 97 147 98 75 137 102 75 116 120 78 104 149 99 119 204 75 121 208 42 114 210 48 99 230 36 81 222 31 101 174 48 135 112 53 147 81 86 140 120 75 112 134 75 107 142 65 112 120 68 94 129 86 87 205 84 61 249 80 65 242 86 83 200 97 103 169 99 94 200 88 98 236 26 120 230 0 136 210 0 164 187 0 145 173 0 127 191 76 83 225 114 46 233 170 32 219 211 6 181 167 31 179 119 75 198 103 92 210 40 121 198 0 159 181 0 141 191 0 148 220 0 154 222 13 141 177 22 119 148 0 129 159 0 152 181 0 166 202 0 176 203 0 181 225 0 182 255 0 190 255 0 203 249 0 199 229 0 202 214 0 216 220 0 205 214 83 175 208 174 128 240 238 93 255 212 105 255 195 105 217 213 118 224 205 137 246 165 150 231 82 193 226 0 228 209 0 238 216 17 250 255 17 250 255 41 252 245 158 192 241 187 154 255 255 88 255 255 67 255 255 79 255 255 99 255 255 101 255 241 183 255 205 210 244 164 231 236 100 255 238 43 255 235 38 255 219 36 255 207 46 255 234 40 255 243 42 255 245 49 255 255 37 255 255 39 255 255 40 255 255 29 255 255 30 255 255 19 255 237 24 255 202 3 255 90 4 255 5 54 255 31 48 255 105 72 255 172 75 255 184 42 255 179 27 255 205 52 255 223 15 255 177 28 255 176 56 255 202 29 255 200 42 255 207 25 255 169 28 255 184 35 255 193 35 255 204 37 255 229 27 255 194 
32 66 63 54 49 77 97 67 107 141 100 144 101 117 142 64 129 123 30 56 65 11 18 24 0 18 4 20 59 40 22 90 51 7 77 37 21 58 0 32 56 0 31 63 0 10 65 0 24 73 0 45 36 17 48 23 30 61 57 93 20 16 149 22 24 181 49 29 150 51 19 78 38 45 49 19 47 46 22 27 63 42 39 96 50 49 95 59 66 99 66 72 100 127 141 138 242 255 242 233 255 253 226 255 196 221 255 132 129 186 31 54 84 0 0 5 0 16 7 48 63 54 45 93 81 73 77 54 114 34 31 126 17 46 124 28 80 115 53 115 42 35 116 9 3 71 24 0 34 51 28 25 64 52 23 67 49 26 40 33 47 12 12 33 32 40 50 63 76 98 64 91 136 107 127 189 136 103 157 95 102 112 136 93 89 152 31 44 49 27 47 24 6 9 0 9 0 0 46 45 89 46 72 109 42 78 54 30 61 33 16 47 43 1 46 53 4 52 50 21 75 65 7 40 7 54 47 43 57 22 48 35 29 19 31 65 18 18 50 13 28 48 25 17 41 37 10 72 75 0 56 40 11 56 47 36 22 44 48 14 53 44 41 70 5 46 42 27 66 59 19 48 39 30 55 48 29 48 30 17 61 14 18 80 21 41 45 19 66 29 22 63 21 19 53 34 26 42 57 50 32 65 48 7 33 16 15 49 28 0 42 16 16 54 19 14 53 44 2 61 68 0 51 71 22 48 57 36 36 36 40 37 30 33 40 38 49 61 73 59 48 50 46 25 20 51 55 54 35 73 62 47 89 81 71 107 95 56 84 57 38 83 40 18 77 45 0 57 3 0 55 35 0 50 35 0 57 51 5 67 76 0 41 40 20 58 29 42 31 35 71 15 38 72 14 40 49 11 20 43 25 9 46 50 22 45 51 51 26 58 59 14 69 59 2 36 23 14 30 33 14 21 27 36 21 40 59 53 69 62 57 65 58 53 63 29 39 44 18 30 6 4 43 10 6 85 41 41 94 60 108 112 99 124 118 116 102 124 115 102 146 141 106 147 151 133 116 157 147 106 184 100 80 181 61 64 181 81 88 216 60 80 255 78 91 255 91 104 255 82 102 255 89 117 255 90 110 255 93 103 255 114 103 255 118 119 255 111 151 201 112 171 199 108 182 207 121 176 192 137 177 201 131 181 206 151 169 219 173 159 255 183 155 255 170 132 239 158 142 200 155 179 201 167 176 229 188 166 255 181 151 249 169 145 209 153 167 132 159 184 154 154 165 197 154 158 218 137 162 217 98 170 198 77 175 166 85 165 176 96 144 230 114 152 239 126 165 220 163 184 227 191 191 213 196 173 241 184 169 255 176 180 221 165 184 179 184 190 194 166 180 192 156 177 186 154 168 164 127 148 95 108 130 59 105 112 66 96 112 54 76 113 30 66 133 40 56 133 51 80 138 66 72 111 76 49 103 91 65 109 108 79 112 107 89 102 130 85 85 135 87 93 159 86 100 174 112 104 177 93 104 171 78 110 181 69 99 183 80 94 181 74 88 175 71 90 178 81 112 191 68 95 176 59 91 190 66 113 194 49 118 161 76 148 146 104 155 150 93 130 163 57 101 222 28 68 203 7 29 176 80 83 226 83 87 252 67 96 255 35 83 229 34 80 180 68 105 187 72 101 189 106 127 220 81 105 183 63 82 170 65 77 203 41 62 183 49 82 173 81 114 179 59 113 173 58 115 218 51 120 253 47 107 241 68 124 221 86 125 180 100 141 219 99 137 255 92 143 255 102 141 250 136 151 222 152 152 218 162 164 255 160 161 255 148 158 223 156 147 200 160 149 195 141 153 243 132 174 255 130 188 255 127 169 229 157 176 254 162 181 251 172 179 247 174 198 248 128 233 214 107 255 224 126 254 255 152 241 249 182 207 225 195 196 239 232 196 248 255 203 255 253 212 255 210 232 234 163 237 224 117 243 243 178 213 245 229 195 234 223 211 209 255 208 199 255 192 195 255 200 199 255 207 195 207 216 175 179 239 153 176 236 136 226 232 148 217 245 156 213 237 139 230 222 133 221 219 130 183 234 171 159 215 200 126 194 183 203 240 208 227 237 216 227 246 228 232 223 202 208 211 156 192 227 111 223 255 139 208 227 159 170 185 160 153 142 144 116 90 90 
15 49 46 44 39 67 66 36 76 72 31 75 15 31 56 14 79 73 32 58 67 36 43 49 38 61 47 0 38 19 0 51 12 5 75 35 26 63 0 64 88 0 48 80 0 1 56 0 17 66 0 56 47 28 65 40 47 67 63 99 19 15 148 23 25 182 51 31 152 72 40 99 56 63 67 15 43 42 22 27 63 34 31 88 30 29 75 51 58 91 47 53 81 47 61 58 69 90 69 46 79 66 35 89 5 9 83 0 11 68 0 28 58 0 39 49 26 60 51 92 59 50 41 60 48 40 50 27 87 29 26 121 37 66 144 23 75 110 37 99 26 6 87 0 0 63 16 31 69 86 48 45 84 61 32 76 48 25 39 27 41 6 32 53 52 19 29 42 23 45 11 5 50 21 0 58 5 43 97 35 51 61 85 97 93 156 188 201 206 243 255 240 255 255 230 255 251 246 195 194 238 76 102 139 0 26 2 0 14 0 8 39 35 18 63 70 17 65 63 17 71 61 0 32 0 52 45 41 67 32 58 58 52 42 34 68 21 18 50 13 27 47 24 10 34 30 0 49 52 0 75 59 26 71 62 41 27 49 52 18 57 10 7 36 0 35 31 36 75 68 21 50 41 40 65 58 42 61 43 28 72 25 19 81 22 31 35 9 50 13 6 50 8 6 49 30 22 40 55 48 0 32 15 26 52 35 8 42 21 7 49 23 19 57 22 8 47 38 11 70 77 7 60 80 27 53 62 36 36 36 61 58 51 37 44 42 35 47 59 51 40 42 42 21 16 66 70 69 43 81 70 64 106 98 78 114 102 59 87 60 66 111 68 26 85 53 54 131 77 125 180 160 167 230 215 185 244 238 124 186 195 60 112 111 0 14 0 15 4 8 37 0 4 114 56 82 76 38 47 59 41 25 30 34 6 4 10 10 40 72 73 0 53 43 22 56 43 27 43 46 37 44 50 52 37 56 20 14 30 26 21 29 41 36 46 39 49 54 58 70 46 36 75 42 18 97 53 45 98 64 110 114 101 102 96 94 103 125 116 85 129 124 86 127 131 137 120 161 143 102 180 129 109 210 93 96 213 87 94 222 70 90 255 69 82 255 107 120 255 105 125 255 100 128 255 111 131 255 118 128 255 115 104 255 111 112 255 108 148 198 92 151 179 99 173 198 118 173 189 125 165 189 141 191 216 170 188 238 179 165 255 162 134 255 178 140 247 170 154 212 176 200 222 242 251 255 255 238 255 255 234 255 255 240 255 207 221 186 160 185 155 149 160 192 166 170 230 155 180 235 97 169 197 94 192 183 111 191 202 84 132 218 121 159 246 147 186 241 145 166 209 199 199 221 192 169 237 177 162 255 178 182 223 171 190 185 177 183 187 166 180 192 177 198 207 180 194 190 175 196 143 134 156 85 124 131 85 101 117 59 76 113 30 110 177 84 105 182 100 102 160 88 92 131 96 7 61 49 28 72 71 48 81 76 86 99 127 104 104 154 76 82 148 85 99 173 108 100 173 96 107 174 116 148 219 69 99 183 98 112 199 162 176 255 161 180 255 147 178 255 106 133 214 30 62 161 72 119 200 54 123 166 39 111 109 78 129 124 56 93 126 38 82 203 65 105 240 43 65 212 74 77 220 104 108 255 63 92 255 67 115 255 82 128 228 74 111 193 85 114 202 97 118 211 47 71 149 58 77 165 68 80 206 58 79 200 104 137 228 74 107 172 51 105 165 58 115 218 38 107 240 75 135 255 85 141 238 80 119 174 84 125 203 57 95 218 60 111 230 93 132 241 124 139 210 151 151 217 156 158 255 160 161 255 162 172 237 175 166 219 176 165 211 152 164 254 120 162 255 111 169 255 140 182 242 160 179 255 166 185 255 164 171 239 163 187 237 128 233 214 102 254 219 120 248 255 147 236 244 186 211 229 209 210 253 234 198 250 255 188 252 244 203 251 202 224 226 153 227 214 126 252 252 193 228 255 253 219 255 243 231 229 255 203 194 255 178 181 255 171 170 250 198 186 227 236 195 184 244 158 180 240 140 203 209 125 193 221 132 219 243 145 245 237 148 232 230 141 189 240 177 176 232 217 175 243 232 202 239 207 221 231 210 213 232 214 222 213 192 214 217 162 189 224 108 188 224 104 190 209 141 188 203 178 207 196 198 231 205 205 
52 30 57 55 44 65 52 46 68 70 68 55 46 56 18 7 50 9 0 55 22 0 45 22 24 60 60 34 40 54 34 41 63 35 35 71 30 36 48 32 47 32 55 61 47 43 66 34 85 124 71 192 240 180 219 255 228 217 255 247 224 255 253 117 163 138 10 35 9 0 2 0 55 52 55 84 77 73 56 65 56 46 65 50 28 57 67 8 30 66 36 59 104 16 39 71 39 50 48 35 37 38 58 49 68 60 55 71 49 36 18 66 59 16 31 32 0 23 45 34 7 58 55 13 67 65 0 42 53 22 61 68 53 86 81 50 69 64 57 80 86 34 38 63 27 19 28 41 35 5 28 33 0 9 50 22 0 53 37 2 50 40 27 56 50 52 71 89 48 67 96 22 54 65 33 40 34 39 32 38 43 37 61 19 38 56 9 38 48 29 36 58 58 45 41 64 45 60 42 47 63 19 58 53 8 55 1 23 59 0 30 72 0 11 54 0 23 51 87 6 53 81 52 90 91 232 255 244 239 255 246 236 255 255 242 255 249 99 120 63 38 60 26 2 24 0 25 18 0 44 29 24 81 57 57 63 45 69 65 68 125 200 244 223 238 255 231 229 255 249 231 255 255 72 93 108 11 31 68 24 47 41 30 59 7 54 82 56 28 40 64 0 6 34 2 22 37 0 49 31 26 88 77 12 58 96 72 68 130 46 40 38 14 0 0 15 0 0 4 0 0 0 7 0 0 10 0 0 12 0 0 14 0 0 13 21 0 16 28 0 57 1 58 68 0 54 69 26 10 31 48 61 63 113 45 37 66 100 97 76 176 190 153 94 147 169 171 203 254 96 92 129 15 19 35 8 26 0 84 123 44 224 255 235 246 255 255 247 255 240 243 255 226 216 245 177 178 203 147 120 146 149 0 0 35 0 24 40 57 75 91 29 53 53 27 68 66 14 72 85 0 62 75 18 57 74 48 50 51 31 18 0 43 36 6 36 74 63 2 49 43 58 72 59 102 88 66 79 92 50 84 123 88 84 130 131 104 121 127 154 141 137 135 139 152 80 113 134 82 112 152 71 102 145 91 105 130 131 130 147 139 142 173 127 154 195 127 169 219 120 160 236 101 133 248 130 161 255 119 164 255 100 157 255 123 166 255 142 155 238 153 168 211 144 171 194 138 180 190 139 177 200 140 173 218 153 175 213 139 175 201 142 161 207 170 179 226 161 152 231 156 163 245 157 168 210 149 157 190 159 161 187 169 165 188 189 182 237 180 181 224 169 187 205 143 184 192 130 177 171 137 173 199 141 159 217 140 160 207 142 166 192 152 167 182 181 157 193 194 157 248 190 167 255 165 191 253 153 208 242 153 206 228 161 194 217 166 179 225 173 177 216 168 185 189 158 176 176 152 163 181 141 155 180 107 141 156 82 132 109 47 129 40 54 133 30 92 135 70 99 119 72 100 115 64 93 99 47 91 104 62 123 119 94 118 96 94 131 117 104 165 171 155 177 187 192 166 181 190 123 132 139 46 68 59 54 91 98 62 131 160 48 122 173 47 113 185 47 109 168 52 108 143 57 95 146 70 118 196 39 94 173 51 100 171 96 124 186 67 89 163 91 108 225 71 111 247 40 105 221 85 120 224 98 105 207 96 101 197 93 118 214 71 120 209 43 113 199 44 80 202 58 75 218 92 109 255 104 156 255 92 137 255 47 68 185 64 67 172 89 101 187 95 117 188 74 110 159 74 96 149 79 94 165 88 106 184 107 129 226 83 95 195 80 108 186 103 142 213 97 129 198 123 159 223 109 155 229 117 159 245 123 176 255 92 132 206 111 123 219 128 136 249 160 173 255 195 215 255 166 195 255 149 163 248 168 153 255 171 166 255 181 196 255 219 240 255 189 201 255 228 229 255 184 170 241 190 181 255 217 215 255 206 201 255 209 197 255 214 197 255 188 181 247 209 208 255 204 224 247 178 225 219 196 255 221 172 239 135 200 237 181 210 225 210 228 244 230 209 250 222 177 219 167 198 220 183 189 204 153 193 252 150 150 248 149 139 255 176 137 255 152 159 255 173 184 242 169 209 224 181 249 201 213 255 204 206 255 185 163 255 194 184 255 203 168 244 221 176 214 229 202 184 219 201 182 210 174 205 204 188 168 177 162 122 128 128 72 85 67 
32 10 37 25 14 35 49 43 65 52 50 37 69 79 41 0 40 0 10 73 40 6 70 47 10 46 46 52 58 72 30 37 59 31 31 67 22 28 40 45 60 45 41 47 33 57 80 48 30 69 16 27 75 15 28 87 37 29 87 59 56 103 85 20 66 41 54 79 53 47 49 34 36 33 36 60 53 49 30 39 30 42 61 46 20 49 59 29 51 87 26 49 94 20 43 75 44 55 53 21 23 24 54 45 64 41 36 52 55 42 24 52 45 2 51 52 6 38 60 49 23 74 71 49 103 101 0 36 47 20 59 66 0 13 8 2 21 16 14 37 43 9 13 38 69 61 70 67 61 31 53 58 13 2 43 15 0 53 37 13 61 51 32 61 55 47 66 84 34 53 82 123 155 166 250 255 251 255 252 255 255 250 255 178 197 215 107 136 146 32 39 61 25 12 8 52 33 48 34 39 55 29 68 63 19 66 12 34 70 0 21 63 0 14 57 2 20 48 84 3 50 78 19 57 58 13 49 25 20 45 27 26 52 55 48 68 55 37 58 1 28 50 16 31 53 3 36 29 0 45 30 25 30 6 6 32 14 38 29 32 89 7 51 30 34 64 27 14 53 34 0 34 24 28 49 64 9 29 66 34 57 51 49 78 26 19 47 21 29 41 65 19 25 53 6 26 41 23 78 60 10 72 61 23 69 107 31 27 89 37 31 29 39 22 0 61 39 40 39 32 35 31 47 22 38 51 0 35 49 0 30 59 9 0 43 51 10 70 82 21 81 25 57 67 0 58 73 30 8 29 46 38 40 90 36 28 57 38 35 14 30 44 7 0 48 70 14 46 97 42 38 75 35 39 55 34 52 24 18 57 0 0 45 6 14 25 31 22 36 15 25 48 8 36 65 0 30 55 0 13 39 42 24 40 75 25 49 65 44 62 78 57 81 81 48 89 87 24 82 95 10 72 85 8 47 64 26 28 29 55 42 11 52 45 15 27 65 54 27 74 68 66 80 67 77 63 41 92 105 63 72 111 76 81 127 128 115 132 138 124 111 107 108 112 125 88 121 142 97 127 167 94 125 168 111 125 150 114 113 130 119 122 153 120 147 188 118 160 210 127 167 243 132 164 255 126 157 255 117 162 255 114 171 255 121 164 255 143 156 239 139 154 197 143 170 193 146 188 198 142 180 203 146 179 224 160 182 220 139 175 201 145 164 210 145 154 201 149 140 219 157 164 246 160 171 213 147 155 188 154 156 182 163 159 182 168 161 216 191 192 235 182 200 218 163 204 212 158 205 199 145 181 207 145 163 221 141 161 208 143 167 193 155 170 185 179 155 191 188 151 242 169 146 248 148 174 236 136 191 225 124 177 199 99 132 155 138 151 197 191 195 234 219 236 240 221 239 239 185 196 214 163 177 202 122 156 171 92 142 119 78 160 71 68 147 44 100 143 78 127 147 100 81 96 45 107 113 61 103 116 74 92 88 63 101 79 77 95 81 68 79 85 69 92 102 107 91 106 115 107 116 123 86 108 99 56 93 100 54 123 152 40 114 165 53 119 191 74 136 195 47 103 138 61 99 150 41 89 167 17 72 151 50 99 170 78 106 168 88 110 184 61 78 195 57 97 233 41 106 222 76 111 215 110 117 219 96 101 197 52 77 173 57 106 195 75 145 231 132 168 255 137 154 255 78 95 255 28 80 237 72 117 246 81 102 219 87 90 195 47 59 145 62 84 155 72 108 157 83 105 158 85 100 171 70 88 166 95 117 214 101 113 213 87 115 193 72 111 182 64 96 165 79 115 179 81 127 201 103 145 231 103 156 236 98 138 212 137 149 245 135 143 255 155 168 255 152 172 255 147 176 255 161 175 255 168 153 255 165 160 255 138 153 255 149 170 255 172 184 255 195 196 255 204 190 255 209 200 255 206 204 255 199 194 248 202 190 255 205 188 255 207 200 255 218 217 255 213 233 255 190 237 231 180 244 205 175 242 138 185 222 166 194 209 194 205 221 207 191 232 204 208 250 198 218 240 203 205 220 169 176 235 133 148 246 147 139 255 176 160 255 175 172 255 186 187 245 172 214 229 186 248 200 212 255 185 187 255 192 170 255 191 181 255 199 164 237 214 169 213 228 201 185 220 202 186 214 178 205 204 188 192 201 186 188 194 194 182 195 177 
4 36 11 22 33 5 49 42 35 54 64 78 38 59 78 65 32 65 45 42 57 26 33 57 22 11 42 52 18 54 75 0 39 120 5 60 133 36 78 77 52 70 62 46 58 46 44 41 20 27 23 27 65 56 31 84 40 39 102 59 60 74 52 42 59 31 121 16 0 179 3 30 162 0 67 115 0 119 107 0 185 83 0 202 115 0 251 53 0 242 0 53 239 0 55 194 3 44 138 52 33 87 79 38 32 94 41 19 52 29 59 34 48 99 48 27 80 86 24 57 102 0 4 124 0 32 144 25 77 255 157 183 255 198 240 255 212 226 255 247 247 74 179 184 0 75 101 0 12 56 41 15 66 77 46 50 60 73 55 34 58 72 7 25 51 8 33 49 30 43 37 19 76 21 9 78 33 16 49 55 23 52 43 80 83 50 147 95 86 168 143 135 116 149 154 19 79 93 0 83 55 0 75 0 14 59 30 96 77 92 84 97 99 48 65 43 35 37 4 56 4 0 111 0 0 92 0 44 39 54 71 55 46 61 104 4 52 130 0 48 75 0 47 37 30 60 38 71 66 20 54 33 0 63 36 0 103 63 0 88 30 0 74 32 25 36 42 48 29 45 55 65 66 49 46 23 44 4 0 54 21 0 19 58 23 0 85 44 0 116 112 14 60 121 0 1 92 0 0 55 0 20 1 0 51 18 108 94 71 119 76 47 92 68 26 26 35 0 0 19 0 14 31 29 78 11 50 84 23 50 44 74 36 0 75 0 0 89 0 14 63 0 61 35 0 67 60 56 2 80 52 0 93 77 13 46 91 15 0 83 61 20 148 34 30 128 9 76 55 36 95 41 48 37 6 42 16 0 24 35 0 0 54 0 24 111 0 40 107 0 65 92 0 47 69 0 32 72 0 6 76 0 5 81 0 31 82 0 33 76 19 65 99 79 69 81 119 58 71 115 30 50 65 16 23 30 40 30 43 46 26 49 68 59 128 33 70 75 24 78 28 42 88 40 56 93 28 82 142 60 100 148 149 110 135 115 136 122 83 136 102 105 109 91 117 99 87 181 100 89 255 86 104 218 91 132 166 87 146 202 78 147 216 113 158 235 126 153 236 112 139 182 138 148 211 143 149 255 138 154 245 155 181 218 171 198 229 232 255 255 233 252 255 225 254 255 225 246 255 153 167 218 174 160 244 158 154 252 134 164 228 151 205 243 130 166 212 151 175 215 165 198 221 103 168 174 137 203 203 139 189 214 148 157 238 184 179 255 154 168 243 115 141 252 130 135 255 175 167 238 203 195 241 162 206 205 131 203 179 129 178 147 162 192 134 145 179 81 76 121 52 112 147 163 183 166 222 247 207 255 215 204 250 181 206 224 151 198 204 151 189 212 181 212 228 128 184 197 124 182 179 146 180 169 133 129 166 146 111 202 144 110 245 97 100 217 85 107 134 104 112 74 82 96 49 81 134 32 47 137 0 66 139 0 108 139 0 119 129 0 115 129 32 72 109 54 55 96 76 68 80 116 83 89 139 82 99 129 83 103 128 75 95 196 72 88 177 88 97 140 89 88 144 105 88 188 104 99 239 79 97 253 63 110 168 42 98 111 0 45 101 0 75 163 8 113 190 65 169 226 115 204 232 77 126 207 76 101 242 132 109 255 152 97 238 125 93 218 125 117 232 80 82 204 84 99 214 103 124 204 41 96 174 30 127 210 88 105 209 113 90 195 112 100 188 91 91 167 79 108 196 66 104 189 72 91 163 87 114 181 81 113 182 88 106 192 70 119 208 67 110 192 74 78 161 101 81 167 98 87 175 91 134 224 74 172 255 66 137 241 119 139 250 131 136 232 131 164 255 118 173 255 99 162 241 112 160 220 180 182 232 192 181 227 168 183 254 169 200 255 179 199 255 187 207 255 202 202 255 187 206 255 161 217 255 163 224 255 183 227 255 202 216 255 208 212 255 210 213 242 209 220 202 195 220 192 140 172 137 183 207 183 181 216 190 211 250 199 247 255 198 225 245 195 214 211 182 236 227 196 224 215 170 213 206 148 240 232 207 201 209 234 204 202 255 223 224 255 196 203 255 214 215 255 193 198 255 193 201 255 195 200 255 213 232 214 205 229 147 206 234 148 216 223 155 207 226 174 216 232 197 221 241 220 194 211 193 144 154 167 
9 41 16 25 36 8 51 44 37 44 54 68 16 37 56 47 14 47 33 30 45 52 59 83 57 46 77 76 42 78 94 13 58 108 0 48 106 9 51 49 24 42 37 21 33 37 35 32 54 61 57 39 77 68 26 79 35 25 88 45 18 32 10 47 64 36 124 19 1 161 0 12 168 0 73 102 0 106 104 0 182 116 0 235 114 0 250 63 0 252 0 41 227 0 48 187 10 51 145 53 34 88 70 29 23 77 24 2 35 12 42 26 40 91 59 38 91 90 28 61 124 9 26 132 0 40 122 3 55 133 15 41 157 0 26 126 0 4 36 12 12 0 63 68 0 90 116 7 66 110 65 39 90 60 29 33 21 34 16 31 55 69 36 54 80 35 60 76 23 36 30 0 52 0 0 69 24 11 44 50 28 57 48 39 42 9 69 17 8 71 46 38 23 56 61 0 54 68 0 89 61 0 111 31 16 61 32 52 33 48 20 33 35 27 44 22 55 57 24 108 56 20 151 8 39 97 0 49 19 34 51 31 22 37 107 7 55 134 0 52 94 0 66 37 30 60 23 56 51 18 52 31 0 68 41 0 93 53 0 115 57 0 111 69 12 23 29 42 23 39 14 24 25 50 47 24 84 44 20 65 32 11 14 53 18 0 92 51 0 99 95 0 35 96 24 33 124 13 26 83 0 61 42 31 93 60 65 51 28 89 46 17 67 43 1 7 16 0 0 35 0 28 45 43 90 23 62 99 38 65 38 68 30 0 78 0 6 96 0 33 82 0 49 23 0 42 35 31 0 58 30 0 73 57 32 65 110 68 47 136 73 32 160 27 23 121 0 48 27 0 43 0 40 29 0 58 32 0 41 52 0 29 83 0 13 100 0 22 89 0 33 60 0 34 56 0 32 72 0 5 75 0 15 91 0 23 74 0 20 63 6 22 56 36 20 32 70 17 30 74 25 45 60 49 56 63 55 45 58 54 34 57 22 13 82 10 47 52 34 88 38 70 116 68 89 126 61 72 132 50 69 117 118 93 118 98 126 112 73 144 110 113 132 114 140 122 110 204 113 102 255 115 133 247 222 255 255 207 255 255 198 255 255 214 255 255 208 235 255 156 183 226 153 163 226 159 165 255 170 186 255 161 187 224 129 156 187 152 175 229 149 168 238 122 151 229 161 182 241 152 166 217 178 164 248 176 172 255 153 183 247 150 204 242 133 169 215 154 178 218 134 167 190 133 198 204 133 199 199 133 183 208 150 159 240 163 158 239 181 195 255 224 250 255 235 240 255 226 218 255 156 148 194 0 36 35 17 89 65 130 179 148 144 174 116 173 207 109 158 203 134 125 160 176 212 195 251 219 179 253 181 170 216 191 216 234 137 184 190 177 215 238 154 185 201 142 198 211 146 204 201 130 164 153 153 149 186 90 55 146 105 71 206 94 97 214 101 123 150 151 159 121 95 109 62 49 102 0 67 157 0 67 140 0 99 130 0 102 112 0 92 106 9 93 130 75 175 216 196 242 254 255 245 251 255 239 255 255 237 255 255 87 107 208 55 71 160 79 88 131 99 98 154 127 110 210 94 89 229 77 95 251 58 105 163 78 134 147 56 125 181 14 92 180 21 126 203 20 124 181 29 118 146 86 135 216 73 98 239 117 94 246 146 91 232 128 96 221 129 121 236 102 104 226 98 113 228 88 109 189 58 113 191 46 143 226 97 114 218 133 110 215 125 113 201 117 117 193 94 123 211 69 107 192 89 108 180 97 124 191 67 99 168 84 102 188 68 117 206 71 114 196 106 110 193 112 92 178 74 63 151 44 87 177 39 137 222 58 129 233 130 150 255 144 149 245 128 161 252 128 183 255 121 184 255 122 170 230 161 163 213 208 197 243 236 251 255 224 255 255 232 252 255 233 253 255 210 210 255 196 215 255 164 220 255 116 177 235 122 166 207 161 175 223 246 250 255 249 252 255 249 255 242 240 255 237 121 153 118 64 88 64 89 124 98 167 206 155 247 255 198 234 254 204 228 225 196 255 255 224 183 174 129 125 118 60 170 162 137 180 188 213 246 244 255 245 246 255 242 249 255 201 202 255 203 208 255 214 222 255 180 185 255 224 243 225 208 232 150 210 238 152 213 220 152 191 210 158 212 228 193 193 213 192 207 224 206 201 211 224 
39 37 195 36 28 185 28 37 206 0 24 184 0 45 154 14 55 133 29 51 115 29 47 71 93 126 131 155 136 178 221 138 208 227 73 209 214 0 152 199 0 77 199 0 33 218 0 22 240 0 30 223 0 23 214 0 0 214 0 0 119 30 0 0 114 0 0 109 0 0 92 61 0 40 77 42 49 92 38 26 64 77 1 25 110 0 0 103 0 19 93 0 51 51 69 25 21 108 41 24 72 28 50 46 30 52 3 57 63 0 81 26 44 36 0 91 23 0 85 54 31 78 86 37 51 90 73 37 89 68 39 45 5 38 21 68 45 101 91 0 79 89 0 45 46 17 27 0 40 3 0 104 47 0 97 63 111 14 69 87 20 51 36 57 66 39 66 69 12 54 44 34 63 54 112 0 8 76 34 24 5 64 10 32 48 0 36 78 16 3 57 0 71 38 0 60 69 0 1 68 0 32 65 0 41 64 34 71 63 75 115 84 130 116 117 196 81 127 198 81 127 190 47 71 131 37 32 76 58 27 44 82 25 32 77 54 35 38 67 49 52 68 79 138 140 151 151 203 194 96 202 168 38 182 142 0 91 83 25 15 28 71 12 18 44 23 8 47 90 0 28 103 0 16 68 0 37 30 0 46 49 26 8 67 59 8 101 87 12 61 105 48 8 178 74 5 182 42 11 92 30 50 73 2 38 68 42 15 134 48 10 71 51 29 40 63 52 44 43 45 45 20 35 26 0 38 0 0 72 0 0 85 0 20 79 39 52 68 71 42 40 37 14 47 40 15 55 42 36 30 26 51 37 25 38 50 26 0 59 0 0 80 41 17 67 80 55 45 70 51 35 60 28 52 66 14 38 62 36 14 83 65 16 83 52 29 7 34 59 0 13 66 10 10 35 5 21 14 8 14 25 0 13 76 0 0 77 0 13 61 62 14 54 78 0 37 22 0 51 11 0 62 26 0 34 55 48 29 96 65 20 88 68 30 59 86 74 76 86 83 96 109 102 121 117 99 99 109 101 87 83 106 100 80 129 122 85 132 140 92 136 149 104 156 158 80 137 168 72 129 194 78 125 209 90 122 209 108 146 233 123 142 246 112 120 241 123 123 249 127 139 237 133 164 232 141 192 255 143 159 230 173 164 235 194 190 255 150 185 241 95 171 216 113 180 213 140 173 194 151 159 184 186 188 223 145 172 203 130 165 185 196 204 221 173 163 214 164 162 221 180 192 230 142 169 190 170 188 202 181 164 192 200 167 222 222 179 244 227 148 228 255 96 229 255 68 214 255 81 222 255 66 210 255 67 214 255 72 211 255 72 181 255 71 155 255 75 165 137 148 179 100 189 195 116 199 185 141 179 167 191 179 187 185 175 213 189 175 236 193 189 228 140 200 202 152 199 207 149 181 182 130 195 177 150 187 165 147 170 156 143 181 170 175 154 181 210 159 190 170 191 198 107 130 134 82 102 107 83 125 91 123 141 79 186 173 117 134 155 88 102 112 65 83 65 41 111 93 79 106 86 75 84 102 16 65 132 0 58 129 37 62 94 107 67 96 152 23 92 139 24 100 136 73 121 207 83 92 255 87 76 229 85 84 202 47 82 175 48 77 165 84 88 189 97 102 215 117 121 240 87 116 255 81 107 255 63 103 213 92 108 179 85 127 155 37 145 159 15 164 193 28 162 211 27 147 193 54 167 153 63 155 164 61 136 205 128 93 227 193 75 237 193 74 212 176 103 180 129 108 191 101 99 214 97 110 202 99 153 211 52 121 164 59 114 167 79 110 215 95 77 209 120 107 201 75 89 172 70 64 164 107 100 217 92 101 232 112 133 213 110 167 200 114 169 214 166 170 245 173 160 254 125 137 225 113 140 231 110 154 255 116 166 255 157 188 255 204 221 255 192 225 255 201 217 255 161 202 255 65 219 219 89 255 255 128 236 255 66 130 152 0 13 33 0 0 14 33 0 0 229 64 110 255 119 172 255 167 179 225 213 189 210 234 232 156 188 213 168 231 255 150 212 255 135 230 255 163 243 255 184 171 255 226 189 255 195 158 255 240 192 255 214 195 255 209 201 255 212 179 255 212 183 255 229 176 255 255 182 232 231 214 218 196 240 167 181 252 138 165 255 211 176 233 255 228 180 255 172 221 240 139 243 134 153 227 90 122 150 80 
0 0 142 66 58 215 179 188 255 219 243 255 207 255 255 217 255 255 133 155 219 35 53 77 28 61 66 42 23 65 111 28 98 173 19 155 237 0 175 224 0 102 201 0 35 203 0 7 229 0 19 223 0 23 233 0 0 239 0 0 99 10 0 0 110 0 0 95 0 0 77 46 10 56 93 26 33 76 33 21 59 92 16 40 119 0 4 123 0 39 101 4 59 27 45 1 0 80 13 40 88 44 62 58 42 79 30 84 88 24 106 19 37 29 0 73 5 0 72 41 3 50 58 36 50 89 72 36 88 61 32 38 22 55 38 63 40 96 117 20 105 114 23 70 50 21 31 0 45 8 0 73 16 0 102 68 132 35 90 98 31 62 37 58 67 6 33 36 0 36 26 19 48 39 151 4 47 71 29 19 17 76 22 44 60 2 35 77 15 19 73 0 57 24 0 29 38 0 0 63 0 45 78 13 48 71 41 46 38 50 54 23 69 22 23 102 0 41 112 16 62 125 9 33 93 52 47 91 70 39 56 90 33 40 79 56 37 18 47 29 32 48 59 36 38 49 0 47 38 0 83 49 0 71 31 0 67 59 39 29 42 75 16 22 66 45 30 43 86 0 25 100 0 25 77 0 70 63 0 37 40 17 5 64 56 0 70 56 0 38 82 40 0 170 61 0 169 54 23 104 20 40 63 21 57 87 49 22 141 75 37 98 66 44 55 53 42 34 31 33 33 6 21 12 23 74 19 7 100 0 2 94 0 4 63 23 1 17 20 26 24 21 31 64 57 34 74 61 66 60 56 53 39 27 32 44 20 12 72 12 0 54 15 19 69 82 43 33 58 66 50 75 36 60 74 16 40 64 94 72 141 190 141 208 234 211 189 169 194 115 79 132 76 0 12 0 5 0 0 0 8 0 0 55 0 31 116 37 52 100 101 46 86 110 13 62 47 0 37 0 0 46 10 8 51 72 53 34 101 78 33 101 68 30 59 70 58 60 101 98 111 129 122 141 107 89 89 104 96 82 92 115 109 66 115 108 86 133 141 71 115 128 75 127 129 98 155 186 68 125 190 82 129 213 98 130 217 120 158 245 134 153 255 145 153 255 181 181 255 235 247 255 225 255 255 211 255 255 235 251 255 253 244 255 210 206 255 130 165 221 83 159 204 56 123 156 135 168 189 180 188 213 181 183 218 164 191 222 150 185 205 166 174 191 196 186 237 125 123 182 154 166 204 168 195 216 112 130 144 207 190 218 191 158 213 193 150 215 243 164 244 255 79 212 255 54 200 255 45 186 255 107 251 255 77 224 255 79 218 255 86 195 255 74 158 255 102 192 151 162 193 82 171 177 96 179 165 137 175 163 150 138 146 159 149 187 163 149 210 169 165 204 149 209 211 149 196 204 183 215 216 168 233 215 173 210 188 172 195 181 145 183 172 194 173 200 217 166 197 169 190 197 172 195 199 202 222 227 229 255 237 249 255 205 255 254 198 133 154 87 67 77 30 92 74 50 108 90 76 116 96 85 70 88 2 58 125 0 58 129 37 82 114 127 83 112 168 36 105 152 51 127 163 72 120 206 38 47 222 63 52 205 63 62 180 42 77 170 85 114 202 82 86 187 85 90 203 101 105 224 72 101 245 101 127 255 65 105 215 61 77 148 69 111 139 23 131 145 44 193 222 56 190 239 22 142 188 37 150 136 86 178 187 66 141 210 132 97 231 171 53 215 170 51 189 160 87 164 137 116 199 91 89 204 101 114 206 103 157 215 72 141 184 80 135 188 85 116 221 107 89 221 101 88 182 62 76 159 73 67 167 79 72 189 85 94 225 86 107 187 67 124 157 90 145 190 133 137 212 139 126 220 128 140 228 102 129 220 108 152 253 110 160 255 139 170 255 165 182 255 159 192 255 198 214 255 179 220 255 117 255 255 89 255 255 136 244 255 161 225 247 177 230 250 220 219 236 246 196 209 255 163 209 255 123 176 255 155 167 230 218 194 182 206 204 188 220 245 172 235 255 162 224 255 131 226 255 140 220 255 191 178 255 215 178 255 228 191 255 230 182 255 211 192 255 202 194 255 209 176 255 203 174 255 228 175 255 255 183 233 221 204 208 199 243 170 188 255 145 145 239 191 176 233 255 230 182 255 180 229 248 164 255 159 171 245 108 191 219 149 
64 24 255 88 33 122 133 67 116 90 55 61 13 72 0 0 102 59 14 52 51 31 36 43 23 41 39 32 50 48 0 65 12 16 25 104 116 0 53 97 14 0 13 69 34 3 100 19 32 86 0 88 59 39 99 27 1 47 63 0 0 98 0 0 88 0 18 77 0 0 76 0 0 72 0 0 87 0 0 60 8 36 27 72 76 2 75 92 17 88 57 51 103 25 55 67 34 59 49 32 20 90 54 28 15 97 109 13 199 255 190 225 255 231 250 255 255 255 236 255 136 135 129 0 67 0 0 90 46 0 148 127 62 168 180 71 106 148 93 81 71 8 0 0 0 0 23 85 25 99 149 18 82 148 28 41 75 45 0 6 81 0 0 83 0 0 62 11 109 115 67 255 255 212 235 255 253 229 255 255 243 248 255 107 120 164 60 74 87 29 51 26 0 29 6 0 9 0 48 61 57 8 59 64 25 47 72 68 55 71 49 34 41 129 11 60 204 16 81 178 0 27 228 0 48 226 0 48 155 0 38 99 0 51 0 36 49 0 101 74 0 108 76 0 107 87 13 77 57 30 48 40 55 35 48 127 71 86 255 130 146 255 171 197 255 216 221 136 165 133 50 98 88 3 54 61 110 101 116 255 242 239 255 253 235 247 255 255 199 210 250 53 95 131 0 13 8 47 17 0 4 34 0 49 76 73 29 57 56 0 61 18 43 64 7 70 26 0 18 73 64 11 93 101 0 64 51 39 85 60 137 109 120 81 29 56 11 60 70 0 32 1 0 24 0 0 9 0 42 30 40 78 65 70 35 84 53 28 92 53 34 38 37 59 31 67 47 34 40 14 47 18 0 55 22 0 51 48 37 32 50 22 0 0 19 27 2 0 51 12 8 91 57 43 88 63 15 31 17 21 44 28 0 38 12 0 28 22 52 25 68 74 14 90 69 11 73 55 58 51 26 62 28 13 68 50 12 71 39 41 86 57 76 106 82 83 119 105 90 118 135 89 110 153 103 96 164 134 108 170 193 171 221 255 242 255 240 252 255 207 255 255 215 255 255 120 138 196 117 109 183 151 111 232 132 130 215 132 175 229 148 128 214 219 99 237 255 101 255 236 74 255 231 115 255 232 158 255 223 123 255 239 134 255 174 135 214 155 169 208 132 174 182 156 200 212 191 205 243 144 166 202 150 172 200 141 149 182 130 168 193 165 176 208 188 169 203 161 181 206 163 174 206 169 185 212 150 193 195 180 174 210 194 167 222 139 186 224 38 105 126 115 168 186 155 204 231 211 200 247 238 215 247 142 197 206 113 175 188 148 166 192 188 188 202 172 152 173 159 150 183 147 194 214 107 150 155 139 144 152 173 182 199 111 155 168 135 205 229 134 188 230 139 156 221 188 164 238 111 102 155 155 184 204 170 215 222 214 225 230 234 205 255 203 166 255 163 141 255 134 133 255 170 175 255 159 115 255 148 69 255 114 53 255 25 3 255 15 5 255 47 59 195 104 117 137 94 117 75 76 121 52 88 144 95 52 95 139 46 93 148 61 93 153 32 65 154 52 69 197 77 99 255 47 84 239 38 112 161 73 140 183 68 131 184 68 102 185 69 79 204 54 93 166 35 126 133 58 155 186 108 142 218 179 151 255 232 82 253 255 38 190 255 0 121 202 0 86 255 0 159 255 20 208 255 14 197 255 35 204 255 2 207 155 66 234 71 116 213 23 168 199 0 179 149 0 194 178 0 223 229 0 184 192 0 185 172 0 201 179 0 186 192 116 140 228 172 77 195 198 34 160 243 13 136 200 5 119 216 48 175 191 38 177 83 86 177 44 134 208 61 101 177 144 80 181 196 62 169 150 60 146 101 110 179 58 138 211 47 150 217 13 223 255 0 245 255 8 254 255 32 255 255 120 242 255 110 247 255 50 255 255 75 255 234 151 220 187 211 212 169 180 233 199 144 255 234 103 255 223 116 255 152 209 215 115 216 197 125 180 228 184 139 255 214 118 255 212 108 255 152 184 242 146 255 193 187 218 209 198 207 228 201 167 245 173 187 244 163 235 212 193 248 204 228 126 255 229 111 255 216 212 251 200 255 224 186 255 157 149 255 69 96 255 57 111 255 124 169 255 176 194 255 208 208 255 226 233 255 246 253 255 246 253 194 247 205 102 174 112 
25 0 218 49 0 83 91 25 74 76 41 47 29 88 0 0 92 49 14 52 51 30 35 42 9 27 25 16 34 32 0 65 12 36 45 124 143 27 80 98 15 0 17 73 38 0 78 0 23 77 0 80 51 31 126 54 28 95 111 0 52 154 0 39 147 0 84 143 0 42 123 43 0 101 21 0 78 0 0 29 0 54 45 90 108 34 107 106 31 102 32 26 78 5 35 47 19 44 34 39 27 97 92 66 53 89 101 5 34 105 25 61 110 67 29 34 42 21 1 112 29 28 22 0 48 0 0 103 59 0 93 72 0 83 95 0 30 72 64 52 42 64 55 34 11 21 44 100 40 114 143 12 76 135 15 28 81 51 1 0 37 0 0 72 0 0 67 16 61 67 19 70 61 16 44 74 62 123 160 156 249 254 255 240 253 255 243 255 255 205 227 202 60 116 93 39 52 38 1 14 10 0 50 55 45 67 92 84 71 87 69 54 61 124 6 55 157 0 34 162 0 11 200 0 20 228 0 50 174 0 57 125 23 77 0 52 65 0 106 79 0 118 86 0 86 66 0 41 21 35 53 45 34 14 27 98 42 57 170 40 56 222 44 70 181 84 89 41 70 38 0 37 27 0 14 21 10 1 16 83 40 37 83 72 54 53 64 61 35 46 86 0 37 73 13 30 25 73 43 5 31 61 23 34 61 58 41 69 68 0 54 11 28 49 0 74 30 0 11 66 57 0 76 84 2 66 53 11 57 32 62 34 45 83 31 58 29 78 88 0 76 45 3 64 11 0 9 0 7 0 5 25 12 17 30 79 48 74 138 99 101 105 104 76 48 84 26 13 19 0 24 0 0 62 29 2 59 56 52 47 65 54 20 32 20 28 3 6 74 35 0 55 21 22 67 42 6 22 8 12 35 19 2 44 18 7 36 30 75 48 91 68 8 84 85 27 89 40 43 36 32 68 34 42 97 79 37 96 64 52 97 68 54 84 60 68 104 90 71 99 116 81 102 145 91 84 152 105 79 141 120 98 148 128 106 156 110 122 172 70 128 187 89 134 205 108 126 184 137 129 203 152 112 233 130 128 213 98 141 195 147 127 213 223 103 241 255 83 255 255 97 255 245 129 255 202 128 255 229 129 255 226 121 253 180 141 220 160 174 213 153 195 203 143 187 199 174 188 226 175 197 233 157 179 207 171 179 212 132 170 195 152 163 195 148 129 163 103 123 148 121 132 164 201 217 244 203 246 248 227 221 255 183 156 211 113 160 198 112 179 200 143 196 214 153 202 229 168 157 204 202 179 211 129 184 193 113 175 188 187 205 231 166 166 180 177 157 178 171 162 195 129 176 196 145 188 193 149 154 162 143 152 169 105 149 162 113 183 207 125 179 221 136 153 218 186 162 236 180 171 224 156 185 205 152 197 204 170 181 186 158 129 199 141 104 255 151 129 255 149 148 255 165 170 255 151 107 255 141 62 255 118 57 255 80 58 255 54 44 255 57 69 205 73 86 106 80 103 61 70 115 46 72 128 79 88 131 175 191 238 255 225 255 255 221 254 255 228 245 255 79 101 255 33 70 225 56 130 179 58 125 168 78 141 194 92 126 209 87 97 222 98 137 210 99 190 197 55 152 183 83 117 193 196 168 255 247 97 255 255 66 218 255 32 173 249 0 133 255 20 191 255 13 201 255 0 182 255 43 212 255 0 194 162 73 241 73 118 215 0 145 176 0 220 190 0 213 197 0 207 213 0 213 221 0 201 188 0 211 189 0 184 190 90 114 202 178 83 201 221 57 183 255 40 163 250 55 169 209 41 168 217 64 203 86 89 180 27 117 191 59 99 175 139 75 176 188 54 161 145 55 141 71 80 149 8 88 161 12 115 182 0 183 218 0 218 255 0 240 255 16 255 255 112 234 255 110 247 255 70 255 255 100 255 255 164 233 200 209 210 167 163 216 182 125 248 215 80 255 200 110 255 146 197 203 103 219 200 128 165 213 169 85 211 160 80 248 174 123 255 167 217 255 179 255 236 230 255 253 242 225 246 219 159 237 165 168 225 144 206 183 164 247 203 227 135 255 238 105 255 210 205 244 193 255 221 183 255 201 193 255 121 148 255 120 174 255 105 150 255 134 152 255 200 200 255 226 233 255 246 253 193 166 173 144 197 155 134 206 144 
45 56 38 0 56 31 18 36 70 39 17 54 74 41 44 75 49 38 42 40 5 0 43 3 0 63 60 24 40 67 59 77 77 65 106 102 43 62 73 97 120 139 73 76 99 123 75 85 95 93 41 17 72 18 0 29 30 0 36 34 0 43 26 58 82 80 67 68 76 26 33 66 1 4 49 17 8 23 51 32 1 84 71 43 100 107 87 87 140 124 138 175 179 165 172 176 150 167 135 108 146 107 59 83 61 8 26 24 16 20 33 82 81 85 69 90 71 59 100 69 10 36 23 0 29 35 20 71 80 37 68 74 47 63 41 17 51 2 16 45 3 40 43 40 48 42 54 62 51 55 70 71 44 23 49 16 0 22 2 1 32 48 0 29 47 13 65 64 49 71 44 27 59 24 0 62 21 0 78 61 0 46 43 35 61 48 41 67 34 64 52 42 61 58 63 54 16 63 83 6 70 95 0 28 117 14 19 139 21 59 98 8 58 99 26 83 111 11 36 76 30 0 55 62 6 12 55 23 7 63 36 30 41 46 80 72 81 29 65 43 18 44 29 4 13 20 0 2 1 50 21 29 60 46 34 8 49 3 41 74 41 1 46 19 12 65 35 42 50 48 28 21 41 56 83 104 1 33 44 36 75 82 15 30 49 56 2 66 94 35 105 33 31 66 33 62 69 2 56 34 0 62 40 11 59 57 31 81 84 8 90 66 0 70 45 66 58 43 90 23 29 31 17 18 14 75 46 40 63 33 138 75 70 198 95 110 158 99 119 67 132 114 90 139 124 121 56 86 85 45 34 0 44 0 0 38 0 6 105 37 28 80 72 67 54 70 70 54 51 18 29 9 0 49 69 42 82 130 199 175 225 255 249 255 236 255 246 208 255 244 59 128 119 77 68 85 39 0 5 0 11 0 0 38 0 14 70 35 53 84 80 73 45 56 87 35 59 43 43 43 16 56 57 40 72 71 44 43 45 38 27 31 77 68 77 91 117 130 103 161 177 129 157 193 91 86 154 70 55 132 93 100 169 88 109 186 52 98 185 68 100 187 67 95 173 109 127 211 124 162 251 87 145 231 78 136 222 93 138 209 99 129 195 133 144 222 144 151 233 126 145 235 131 167 242 140 165 217 154 182 233 154 164 231 158 157 228 131 176 217 132 200 215 180 204 226 193 200 255 173 175 236 160 167 226 145 181 181 131 172 178 170 170 210 181 175 199 188 186 177 187 187 139 179 197 111 146 198 65 147 214 50 182 224 68 168 193 124 155 203 133 129 202 143 121 215 141 130 208 111 150 189 120 163 189 106 173 221 0 196 229 0 201 228 0 191 221 0 177 217 0 135 216 0 94 196 36 64 208 72 51 189 118 71 163 136 87 146 104 80 119 102 103 128 163 168 159 130 207 166 136 255 218 208 255 226 203 201 179 229 158 156 255 96 138 164 130 154 144 196 170 161 157 160 129 143 171 144 111 157 125 62 134 20 95 122 41 116 95 78 45 89 84 60 116 117 75 115 90 41 89 103 101 109 186 104 80 166 100 101 171 121 132 172 73 87 146 61 106 235 34 84 217 42 102 150 22 143 173 0 136 137 0 118 166 66 196 255 147 204 255 198 208 255 180 170 255 153 104 244 197 96 255 188 59 233 171 71 209 127 60 255 92 84 255 89 115 255 45 124 255 52 65 255 87 61 255 78 94 255 70 120 167 105 176 36 121 185 15 144 164 0 157 179 0 107 197 0 115 176 0 107 173 0 113 192 0 128 186 0 132 174 52 120 191 205 117 221 242 105 203 230 122 175 233 131 120 211 162 121 255 94 69 219 65 69 128 88 92 133 87 103 140 137 141 214 124 120 229 18 61 151 3 90 113 76 138 131 94 111 109 136 124 176 143 138 216 96 134 169 154 215 222 176 195 213 200 199 255 197 220 255 131 188 255 151 216 255 142 187 228 192 219 224 148 208 168 150 232 180 173 243 205 204 215 220 248 219 209 229 204 170 216 206 185 239 207 198 229 204 151 240 233 165 229 227 128 191 218 117 188 240 170 172 238 154 176 253 149 181 225 162 201 221 184 204 220 187 209 249 209 204 254 167 203 247 138 212 219 173 231 209 243 238 207 211 235 226 183 215 220 148 217 236 159 209 221 219 207 209 246 218 239 196 154 200 126 93 137 92 
46 57 39 0 53 28 46 64 98 60 38 75 47 14 17 75 49 38 36 34 0 0 44 4 0 81 78 26 42 69 48 66 66 28 69 65 30 49 60 19 42 61 40 43 66 69 21 31 50 48 0 28 83 29 37 75 76 0 48 46 0 54 37 26 50 48 60 61 69 104 111 144 65 68 113 62 53 68 36 17 0 20 7 0 36 43 23 25 78 62 18 55 59 56 63 67 43 60 28 33 71 32 75 99 77 59 77 75 72 76 89 50 49 53 30 51 32 0 31 0 22 48 35 61 94 100 72 123 132 164 195 201 177 193 171 96 130 81 76 105 63 0 1 0 22 16 28 55 44 48 59 60 33 43 69 36 33 58 38 0 30 46 0 47 65 20 72 71 7 29 2 23 55 20 0 60 19 0 77 60 56 113 110 40 66 53 0 11 0 9 0 0 1 0 3 59 21 68 156 79 143 188 86 121 167 64 69 114 0 34 91 1 51 78 5 62 91 0 16 83 37 0 37 44 0 34 77 45 26 82 55 21 32 37 43 35 44 12 48 26 16 42 27 29 38 45 19 27 26 97 68 76 68 54 42 30 71 25 30 63 30 0 35 8 26 79 49 28 36 34 50 43 63 15 42 63 21 53 64 19 58 65 6 21 40 77 23 87 65 6 76 52 50 85 34 63 70 21 75 53 2 73 51 15 63 61 0 45 48 0 63 39 0 69 44 58 50 35 120 53 59 70 56 57 19 80 51 22 45 15 62 0 0 101 0 13 66 7 27 10 75 57 23 72 57 96 31 61 66 26 15 0 51 0 0 80 0 0 83 15 26 78 70 65 52 68 43 27 24 40 51 31 7 60 80 2 42 90 59 35 85 68 55 71 14 44 24 18 78 54 35 104 95 64 55 72 130 76 96 15 39 1 0 30 0 18 74 39 19 50 46 95 67 78 93 41 65 41 41 41 48 88 89 51 83 82 98 97 99 103 92 96 91 82 91 67 93 106 41 99 115 55 83 119 103 98 166 103 88 165 86 93 162 87 108 185 61 107 194 95 127 214 99 127 205 121 139 223 120 158 247 88 146 232 84 142 228 82 127 198 84 114 180 113 124 202 139 146 228 133 152 242 137 173 248 158 183 235 158 186 237 211 221 255 205 204 255 140 185 226 106 174 189 97 121 143 162 169 225 166 168 229 157 164 223 161 197 197 146 187 193 184 184 224 205 199 223 175 173 164 179 179 131 159 177 91 138 190 57 160 227 63 154 196 40 159 184 115 152 200 130 130 203 144 137 231 157 110 188 91 106 145 76 158 184 101 192 240 0 213 246 0 197 224 0 190 220 0 172 212 0 146 227 0 107 209 49 53 197 61 41 179 108 17 109 82 64 123 81 126 165 148 198 223 255 211 202 173 212 171 141 195 146 136 184 151 128 213 191 241 158 156 255 130 172 198 152 176 166 152 126 117 121 124 93 104 132 105 71 117 85 77 149 35 71 98 17 84 63 46 44 88 83 66 122 123 96 136 111 86 134 148 93 101 178 131 107 193 125 126 196 119 130 170 92 106 165 62 107 236 80 130 255 127 187 235 70 191 221 36 204 205 0 164 212 7 137 219 84 141 200 111 121 171 149 139 250 191 142 255 217 116 255 186 57 231 165 65 203 134 67 255 88 80 255 110 136 255 80 159 255 110 123 255 144 118 255 80 96 255 33 83 130 109 180 40 115 179 9 162 182 0 182 204 0 112 202 0 124 185 0 126 192 0 118 197 0 111 169 0 100 142 20 62 133 147 15 119 140 66 164 191 100 153 211 117 106 197 137 96 246 97 72 222 98 102 161 109 113 154 82 98 135 95 99 172 80 76 185 70 113 203 53 140 163 84 146 139 137 154 152 140 128 180 144 139 217 140 178 213 147 208 215 177 196 214 187 186 242 157 180 255 98 155 255 142 207 255 181 226 255 200 227 232 179 239 199 143 225 173 145 215 177 199 210 215 252 223 213 220 195 161 216 206 185 247 215 206 216 191 138 243 236 168 219 217 118 201 228 127 185 237 167 178 244 160 190 255 163 186 230 167 214 234 197 212 228 195 203 243 203 185 235 148 192 236 127 201 208 162 230 208 242 250 219 223 227 218 175 210 215 143 195 214 137 189 201 199 195 197 234 199 220 177 200 246 172 224 255 223 
23 53 73 55 78 98 185 183 193 255 242 255 255 237 255 255 249 255 149 157 156 2 43 38 0 38 28 0 63 59 43 73 53 29 82 12 37 96 20 20 72 22 19 73 25 45 42 0 51 40 0 21 74 14 0 79 0 39 84 15 30 37 0 45 31 36 58 33 87 50 78 140 0 61 106 0 34 106 0 0 96 0 4 83 4 79 88 5 112 8 5 108 0 41 32 0 99 15 37 68 40 53 64 67 64 97 86 68 73 63 39 93 64 134 79 58 187 40 65 55 0 22 0 0 16 0 6 41 0 24 36 48 110 103 159 118 92 105 72 56 81 4 18 128 0 0 225 30 0 255 65 10 255 68 3 255 0 0 231 0 0 225 4 3 255 95 55 255 111 101 158 49 84 12 0 61 12 0 32 39 34 50 79 54 71 67 42 96 76 20 95 86 0 64 45 18 55 78 23 49 34 14 54 0 31 58 15 54 38 60 49 30 72 18 1 41 30 31 11 62 68 8 73 83 71 48 46 71 27 14 12 10 16 0 42 53 9 113 112 95 85 89 105 20 19 47 0 12 0 0 29 0 66 132 119 83 117 117 106 127 122 83 86 65 43 61 23 57 53 55 41 0 31 25 0 10 12 0 14 68 75 99 24 55 98 54 92 169 138 154 254 206 213 255 201 206 255 155 154 255 20 30 255 0 0 225 1 0 225 0 0 225 0 0 225 18 0 245 102 37 255 145 52 255 118 21 255 83 0 255 115 0 245 153 0 149 177 0 109 178 12 96 232 82 185 255 166 255 255 217 255 225 219 251 116 125 208 10 11 107 0 0 92 36 12 76 41 77 0 41 86 0 9 57 0 3 71 0 14 74 0 31 89 0 27 128 0 4 97 0 28 110 0 42 86 0 68 63 0 47 62 0 8 65 0 24 53 9 17 32 41 25 22 61 21 0 49 28 22 46 0 18 10 4 63 145 134 199 191 122 176 154 166 178 170 50 63 55 35 45 147 133 89 255 148 80 145 158 93 149 101 77 161 44 72 193 27 105 255 36 128 223 29 134 149 61 160 250 60 150 255 46 136 236 88 132 183 117 128 146 143 133 171 167 127 212 136 112 186 131 150 168 140 151 218 127 159 255 126 172 255 126 168 230 103 141 194 129 143 202 206 198 255 174 180 255 211 210 214 209 200 155 183 160 164 156 148 209 154 181 188 151 190 157 169 179 182 207 197 255 174 148 255 148 113 255 174 157 255 132 156 204 157 164 255 188 183 255 208 198 255 209 215 245 135 179 142 112 191 96 122 171 119 149 195 160 138 198 208 132 186 255 117 181 255 88 172 210 135 189 187 142 167 212 176 163 255 194 159 255 146 132 197 132 133 103 155 120 130 153 115 189 164 131 196 172 164 255 145 166 173 183 178 162 161 158 187 148 150 200 164 157 251 130 160 255 115 178 233 100 175 146 68 171 102 63 163 45 61 138 22 41 153 0 67 180 0 145 200 61 247 255 217 245 255 224 240 255 231 239 255 219 143 162 146 86 79 187 104 107 255 113 136 252 108 109 255 107 105 255 88 89 255 79 92 255 91 100 255 92 99 191 124 147 179 130 154 154 125 157 130 144 170 97 128 155 36 146 171 39 109 149 30 107 150 75 85 154 174 75 141 187 123 140 195 138 123 192 177 105 255 255 34 255 255 0 255 255 32 255 255 15 224 255 0 255 255 10 255 255 35 255 255 73 255 255 113 156 160 142 128 129 166 110 130 161 157 87 176 38 93 182 0 125 133 80 133 110 176 120 112 183 70 77 195 71 111 185 106 161 108 105 135 145 83 140 207 72 115 197 71 117 207 91 154 199 118 126 163 105 116 186 48 115 184 33 93 131 69 111 147 74 104 190 138 109 239 173 139 255 133 180 255 162 207 255 152 192 255 139 178 255 171 156 255 184 141 232 182 166 255 207 161 255 189 152 255 181 155 255 199 136 255 187 132 255 171 172 255 142 175 255 163 168 255 216 203 181 218 223 117 176 246 128 147 249 179 148 238 225 190 235 228 201 230 212 180 243 213 170 235 189 198 219 166 223 206 200 255 225 164 248 214 129 242 221 176 228 228 228 241 229 219 255 237 180 221 226 86 183 223 87 171 203 144 209 195 200 221 208 214 195 194 198 147 167 204 74 109 155 
34 64 84 16 39 59 12 10 20 84 50 71 86 46 94 54 47 77 29 37 36 0 16 11 0 58 48 0 60 56 54 84 64 25 78 8 20 79 3 40 92 42 15 69 21 58 55 10 86 75 35 37 90 30 57 139 51 198 243 174 255 255 216 255 250 255 255 241 255 94 122 184 0 68 113 0 14 86 33 30 131 36 61 140 14 89 98 0 82 0 0 84 0 54 45 0 100 16 38 73 45 58 61 64 61 65 54 36 91 81 57 150 121 191 255 234 255 238 255 253 245 255 203 250 255 178 218 253 175 107 119 131 0 0 47 16 0 3 8 0 17 46 60 170 92 97 255 107 76 255 32 0 250 14 0 225 0 0 225 24 25 255 22 21 255 110 70 255 120 110 167 142 177 105 173 247 198 113 172 179 71 87 116 42 59 55 0 37 17 47 122 113 17 102 83 46 83 106 43 69 54 27 67 0 98 125 82 96 80 102 155 136 178 113 96 136 64 65 45 2 8 0 0 4 0 38 36 61 74 61 59 87 93 51 33 44 0 28 27 10 46 50 66 21 20 48 41 76 60 0 84 44 12 78 65 89 123 123 143 164 159 220 223 202 211 229 191 218 214 216 222 174 212 192 152 177 175 153 177 16 23 47 18 49 92 0 34 111 16 32 132 8 15 161 6 11 255 68 67 255 216 226 255 233 222 255 255 210 255 252 212 255 65 46 255 0 0 225 14 0 225 32 0 225 51 0 241 76 0 255 172 0 255 200 0 196 192 2 124 166 0 84 131 0 84 145 0 125 84 0 67 38 32 64 33 42 125 26 27 123 71 61 169 81 57 121 28 64 0 20 65 0 13 61 0 0 59 0 29 89 0 45 103 0 7 108 0 8 101 0 0 56 0 15 59 0 46 41 0 102 117 0 90 147 0 44 73 29 38 53 62 9 6 45 54 12 82 82 76 100 12 71 63 0 27 109 8 73 65 32 86 64 162 174 166 155 168 160 66 76 178 133 89 255 191 123 188 185 120 176 173 149 233 70 98 219 19 97 255 5 97 192 25 130 145 54 153 243 28 118 255 61 151 251 78 122 173 174 185 203 255 247 255 255 233 255 255 239 255 239 255 255 131 142 209 101 133 248 115 161 255 144 186 248 153 191 244 148 162 221 168 160 255 168 174 250 154 153 157 198 189 144 201 178 182 162 154 215 157 184 191 118 157 124 165 175 178 164 154 237 182 156 255 175 140 255 180 163 255 168 192 240 171 178 255 192 187 255 131 121 180 162 168 198 133 177 140 141 220 125 168 217 165 162 208 173 137 197 207 115 169 255 115 179 255 103 187 225 149 203 201 173 198 243 144 131 255 153 118 255 147 133 198 122 123 93 167 132 142 145 107 181 158 125 190 164 156 255 140 161 168 186 181 165 172 169 198 178 180 230 188 181 255 125 155 255 51 114 169 39 114 85 23 126 57 81 181 63 121 198 82 34 146 0 19 132 0 83 138 0 121 139 91 126 146 105 107 133 98 45 75 25 83 102 86 138 131 239 105 108 255 107 130 246 115 116 255 73 71 255 89 90 255 69 82 255 60 69 234 96 103 195 102 125 157 114 138 138 133 165 138 134 160 87 134 161 42 125 150 18 142 182 63 152 195 120 71 140 160 70 136 182 42 59 114 83 68 137 178 106 255 255 23 255 255 24 255 255 35 255 255 30 239 255 25 255 255 44 255 255 17 255 255 32 250 255 98 141 133 115 101 134 171 115 140 171 167 102 191 53 131 220 28 135 143 90 136 113 179 114 106 177 102 109 227 112 152 226 102 157 104 101 131 141 71 128 195 49 92 174 96 142 232 79 142 187 97 105 142 95 106 176 58 125 194 92 152 190 94 136 172 103 133 219 142 113 243 195 161 255 174 221 255 134 179 248 110 150 236 119 158 255 175 160 255 216 173 255 227 211 255 214 168 255 195 158 255 175 149 255 157 94 255 183 128 255 158 159 255 122 155 255 183 188 255 184 171 149 227 232 126 162 232 114 81 183 113 155 245 232 167 212 205 228 255 239 178 241 211 183 248 202 234 255 202 223 206 200 255 228 167 228 194 109 236 215 170 230 230 230 219 207 197 255 241 184 236 241 101 217 255 121 188 220 161 209 195 200 203 190 196 205 204 208 200 220 255 190 225 255 
190 0 0 255 49 65 255 0 88 130 4 66 0 65 17 0 76 0 16 66 0 85 43 0 104 29 14 131 5 21 142 3 54 132 17 109 84 28 185 0 83 193 0 68 148 0 78 93 23 56 15 28 20 23 44 46 46 66 45 28 206 142 162 255 241 251 249 255 255 226 255 255 148 187 196 126 150 102 69 80 60 45 22 30 118 75 107 208 245 223 187 255 235 194 255 255 174 221 255 130 130 216 57 68 50 54 74 50 17 43 92 47 34 153 106 66 88 114 100 0 57 84 0 54 85 0 66 86 27 100 130 80 107 142 64 87 147 71 38 102 89 0 15 30 0 5 28 0 0 31 19 40 73 96 69 196 119 53 85 144 41 22 161 0 17 195 0 6 192 0 70 213 0 176 235 0 44 217 0 21 204 0 70 180 0 61 140 15 67 200 154 142 206 173 44 122 106 0 16 61 0 36 0 23 12 0 19 68 67 61 52 75 45 0 66 4 76 50 39 31 0 94 28 12 26 86 77 30 33 64 18 2 73 7 27 33 21 0 28 123 0 58 36 28 87 7 42 125 65 39 93 47 157 114 120 171 82 152 118 88 50 96 149 13 0 104 0 27 100 84 54 46 81 107 76 119 77 115 104 29 99 49 0 74 63 0 10 38 54 62 61 89 109 70 71 146 104 56 140 102 54 92 81 14 37 20 7 39 12 0 23 0 13 64 37 47 75 74 84 62 71 43 4 9 44 21 29 69 39 51 35 45 59 26 42 53 19 40 21 2 47 4 0 79 25 0 127 64 0 119 50 0 150 63 40 166 71 36 135 41 52 124 64 118 152 131 189 207 197 224 255 244 235 255 244 255 255 255 255 248 255 108 64 99 0 6 0 0 27 0 0 11 0 7 0 0 0 3 0 0 8 0 0 43 0 21 134 40 92 157 87 146 188 150 238 255 244 255 253 249 255 250 255 238 255 240 171 185 164 208 204 223 204 181 215 211 174 206 180 147 206 168 166 241 135 119 230 225 192 255 166 163 255 120 162 255 148 215 255 71 160 228 123 198 252 126 180 254 107 169 255 139 171 255 151 139 255 150 132 255 161 138 254 175 162 255 154 163 252 145 168 255 138 174 246 123 151 200 173 194 251 143 159 233 120 145 213 174 166 229 202 154 228 222 172 249 169 158 236 126 157 233 89 162 216 136 191 243 133 157 231 114 174 214 103 183 194 121 164 193 166 169 214 176 149 216 175 173 232 175 204 222 152 192 206 163 181 231 157 176 248 117 170 214 110 193 199 120 161 201 71 97 168 68 94 185 20 42 129 32 59 114 76 85 132 126 54 114 237 73 148 190 70 120 129 74 104 145 71 96 155 47 92 178 68 141 149 112 195 59 160 252 40 155 255 69 119 255 152 155 255 159 156 255 145 152 208 138 113 159 193 112 133 244 112 88 255 89 84 255 75 123 163 54 161 133 113 234 77 134 227 48 150 158 24 201 143 0 208 79 2 255 83 132 246 0 184 154 0 222 96 0 178 0 0 183 0 0 255 12 115 255 78 203 255 93 255 255 1 223 226 0 133 179 0 64 121 0 111 238 53 221 255 0 202 255 71 255 255 43 255 255 0 255 255 1 255 255 0 230 255 34 169 255 57 182 255 53 159 255 66 125 212 103 61 142 138 53 14 188 147 0 176 212 65 192 255 68 150 212 103 135 206 112 183 253 67 137 255 241 95 255 255 49 203 141 114 121 147 125 255 130 174 255 140 179 255 202 157 164 224 195 61 117 211 85 171 233 255 164 198 222 180 150 164 238 164 185 209 144 162 177 154 232 158 167 238 162 168 178 175 212 120 167 237 91 181 233 181 181 209 196 191 199 226 208 181 255 227 166 255 245 152 255 255 86 255 255 99 255 255 142 255 255 146 255 255 135 255 255 95 255 255 111 169 235 163 65 118 225 133 53 255 255 34 255 255 40 255 255 40 255 166 12 255 99 13 255 207 5 255 255 0 233 131 0 206 23 0 176 0 0 124 0 0 91 0 0 90 5 0 120 0 0 230 0 0 255 0 0 246 0 0 225 23 0 106 0 0 105 0 0 108 0 0 102 0 0 91 48 0 96 116 0 143 34 0 187 0 0 237 6 0 235 33 0 238 136 0 188 181 0 191 54 0 231 84 0 212 93 
235 0 14 232 0 0 178 0 1 81 0 17 2 116 68 0 165 28 82 132 23 91 49 0 70 0 0 137 11 27 112 0 24 116 1 93 110 54 211 29 137 247 0 101 181 41 132 147 75 108 67 119 111 114 126 128 128 72 51 34 102 38 58 72 30 40 51 57 69 10 44 83 0 38 47 32 56 8 31 42 22 44 21 29 64 21 53 12 49 27 0 93 35 0 59 103 0 43 125 50 50 136 25 36 18 21 41 17 6 32 81 0 0 101 82 42 64 51 37 0 71 98 0 102 133 41 52 72 13 41 71 21 0 27 0 0 26 0 26 90 77 25 59 74 7 35 58 9 22 53 29 50 83 94 67 194 109 43 75 125 22 3 113 0 0 178 0 0 178 0 56 209 0 172 255 6 82 255 29 99 230 0 96 238 17 119 222 97 149 185 139 127 211 178 49 138 122 0 36 81 2 73 13 60 12 0 19 63 62 56 121 144 114 147 229 167 205 179 168 207 163 255 177 161 175 111 102 55 52 83 37 0 28 0 18 24 12 64 121 216 204 255 255 222 255 201 203 255 226 222 255 230 146 103 109 127 38 108 78 48 10 87 140 4 53 171 49 23 96 80 44 36 71 70 39 82 5 43 32 26 96 46 0 69 58 59 105 133 70 78 77 130 150 111 74 149 107 0 83 45 24 62 51 0 8 0 0 31 4 44 93 50 56 107 80 34 62 61 47 25 34 76 37 42 117 94 102 167 137 149 124 134 148 117 133 144 94 115 96 34 79 36 7 114 60 0 142 79 114 255 208 158 255 223 177 255 208 196 255 201 92 164 104 20 54 33 0 17 7 23 71 43 92 124 101 113 113 113 118 109 142 98 54 89 15 30 15 12 77 5 56 73 15 102 94 79 104 112 101 102 114 76 40 117 51 21 134 40 26 91 21 36 78 40 0 12 0 49 43 39 76 64 76 80 108 82 144 158 137 96 92 111 136 113 147 102 65 97 91 58 117 77 75 150 75 59 170 126 93 246 94 91 234 47 89 205 40 107 199 26 115 183 18 93 147 33 87 161 19 81 168 56 88 209 134 122 255 118 100 226 80 57 173 100 87 191 102 111 200 147 170 255 145 181 253 99 127 176 121 142 199 137 153 227 151 176 244 175 167 230 185 137 211 188 138 215 188 177 255 150 181 255 127 200 254 185 240 255 145 169 243 131 191 231 68 148 159 91 134 163 160 163 208 185 158 225 165 163 222 156 185 203 159 199 213 135 153 203 164 183 255 127 180 224 96 179 185 120 161 201 137 163 234 166 192 255 160 182 255 165 192 247 164 173 220 209 137 197 255 181 255 255 213 255 246 191 221 253 179 204 255 158 203 255 213 255 255 234 255 173 255 255 82 197 255 127 177 255 145 148 255 178 175 255 191 198 254 160 135 181 244 163 184 255 141 117 255 107 102 255 113 161 220 111 218 162 142 255 102 159 252 57 159 167 0 177 119 0 206 77 0 195 0 50 164 0 167 137 0 220 94 0 255 77 1 255 20 66 255 0 96 255 13 138 255 10 192 255 36 255 255 38 231 255 41 187 255 137 255 255 180 255 255 152 255 255 137 255 255 123 255 255 0 255 221 0 255 255 28 255 255 54 189 255 50 175 255 73 179 255 60 119 237 128 86 171 167 82 37 211 170 0 225 255 39 166 231 91 173 235 121 153 224 74 145 215 112 182 255 200 54 255 255 36 190 164 137 144 117 95 255 114 158 255 123 162 255 249 204 211 255 255 127 203 255 171 207 255 255 228 255 255 237 207 221 225 151 172 255 199 217 255 239 255 240 249 255 249 255 255 239 255 184 124 194 48 0 21 0 0 9 0 128 136 163 255 235 255 255 216 255 181 88 255 127 0 217 178 0 86 255 4 162 255 70 255 255 79 255 255 60 255 255 93 151 210 138 40 65 172 80 0 176 255 0 168 255 39 255 255 68 255 194 65 255 152 53 255 247 0 253 255 0 255 171 0 241 58 0 255 26 0 255 72 0 255 172 60 255 245 16 255 130 55 255 45 15 255 0 32 255 15 0 255 85 34 255 160 75 255 189 0 255 91 75 255 196 20 255 240 34 255 255 48 255 213 14 255 92 0 255 48 0 255 76 34 255 205 70 255 255 59 255 200 49 255 182 28 255 184 
0 101 125 0 111 63 0 165 0 36 215 49 0 118 68 47 86 115 8 0 40 9 0 0 20 4 0 84 32 7 164 49 138 153 49 148 199 106 183 255 207 255 255 240 194 255 246 182 255 246 223 84 92 80 0 28 0 0 31 0 0 13 0 0 4 35 0 0 88 0 0 77 0 13 27 46 29 31 116 23 40 80 57 1 6 62 1 0 64 36 0 46 12 25 22 17 62 26 24 35 60 40 12 64 64 25 69 68 15 49 62 23 27 66 30 22 67 45 22 127 42 13 171 68 42 161 52 26 103 66 19 51 44 39 21 13 23 0 11 14 0 0 39 0 0 73 0 32 86 0 91 121 99 70 84 141 62 88 161 45 125 136 104 190 153 136 196 136 107 166 10 56 103 0 0 62 0 20 63 0 36 68 93 48 49 205 64 40 254 73 33 255 43 23 255 53 48 242 59 60 102 71 79 0 59 62 0 53 40 0 46 31 50 43 42 59 32 68 46 36 60 56 27 47 86 29 26 119 46 42 91 7 36 0 0 50 0 17 42 0 34 28 26 70 55 144 14 54 128 0 110 24 0 127 0 0 97 30 38 92 90 51 71 110 104 119 134 145 136 55 207 159 83 202 107 113 143 81 114 90 71 89 31 41 26 17 66 0 60 67 19 196 178 212 141 124 188 165 144 199 89 83 115 0 9 7 53 53 39 16 42 68 36 109 130 26 85 69 19 102 44 55 132 66 106 102 61 184 170 173 102 144 108 37 84 20 27 69 67 0 0 198 32 0 157 43 29 113 16 67 110 57 77 162 46 16 124 53 0 200 83 30 74 64 59 23 79 119 143 70 83 129 86 49 29 90 61 17 33 65 0 12 101 0 42 100 38 41 49 20 109 72 75 70 78 115 12 79 112 5 74 91 79 0 38 101 0 11 90 59 53 64 90 65 48 116 41 54 87 150 64 49 255 33 112 255 42 221 255 43 177 255 129 199 255 148 155 255 173 132 255 194 138 255 188 140 255 120 115 255 113 111 224 63 80 184 175 203 255 238 252 255 218 255 255 191 255 255 117 176 255 24 88 200 58 109 170 106 117 193 92 166 227 80 159 237 74 108 243 104 87 216 165 123 234 168 119 215 143 114 192 150 150 252 130 124 255 149 166 255 147 183 255 117 137 158 149 155 229 129 157 255 202 207 255 255 226 255 255 191 255 255 160 255 255 147 255 255 81 255 255 57 154 255 72 131 255 86 198 255 96 243 255 52 210 198 158 219 120 247 206 58 195 176 106 187 255 125 154 242 108 116 179 157 185 244 161 172 232 207 140 233 187 161 244 140 178 211 176 155 200 114 154 219 150 168 228 162 174 186 150 206 191 158 171 219 191 126 230 124 176 248 160 213 255 160 209 255 126 164 255 136 118 255 128 90 255 167 152 255 158 163 233 170 200 202 179 240 185 181 229 129 200 241 91 188 188 86 162 127 218 172 145 255 133 128 255 118 114 255 48 70 255 26 48 255 106 56 255 102 80 255 35 104 255 0 24 255 134 39 145 188 80 115 255 136 204 211 134 234 111 67 228 210 95 255 171 59 171 104 125 144 46 141 159 46 94 146 178 152 255 255 240 255 238 255 246 245 253 255 157 185 255 64 142 239 124 123 255 165 148 248 236 227 255 235 118 255 255 7 255 255 0 255 222 0 182 255 13 201 247 82 234 232 108 255 150 129 182 86 222 124 0 243 67 0 255 96 0 218 125 0 215 174 90 251 205 155 149 165 182 147 215 155 127 198 140 119 182 151 141 200 130 152 216 255 89 228 129 153 203 43 189 192 22 184 211 19 166 224 48 147 219 187 90 175 164 139 131 88 144 127 96 90 106 110 71 112 114 60 124 214 107 171 182 129 159 69 166 195 103 191 255 136 132 255 171 127 255 187 153 255 170 188 255 142 232 255 113 247 255 122 231 255 140 210 247 145 187 223 176 161 214 142 152 175 134 146 200 255 152 255 255 123 255 176 147 255 129 196 255 47 206 216 17 255 241 42 255 212 176 219 92 180 244 11 197 239 0 223 243 38 220 201 121 255 171 179 255 135 150 255 199 193 209 237 255 203 225 255 199 212 196 238 210 89 245 220 79 224 242 126 197 234 168 158 204 255 94 196 255 99 201 209 99 148 192 24 87 118 
0 109 133 0 130 82 0 135 0 0 150 0 0 65 15 0 10 39 30 9 62 44 30 33 71 55 0 77 25 0 123 8 97 95 0 90 88 0 72 99 6 75 91 25 0 97 45 0 85 48 25 28 36 24 0 48 0 27 109 47 126 166 151 232 255 255 214 235 255 139 162 242 38 79 93 37 20 22 113 20 37 62 39 0 15 71 10 0 43 15 0 42 8 47 44 39 64 28 26 49 74 54 3 55 55 11 55 54 0 27 40 15 19 58 35 27 72 47 24 129 57 28 186 47 21 140 48 22 99 45 0 30 19 14 0 16 26 0 56 59 0 39 105 0 19 99 0 28 82 0 13 43 21 10 24 81 103 129 202 197 255 255 198 255 247 219 255 219 175 234 78 102 149 0 31 98 0 29 72 0 22 54 79 36 37 193 62 38 252 66 26 255 7 0 234 25 20 214 14 15 57 20 28 0 53 56 0 24 11 0 91 76 95 61 60 77 0 32 10 17 41 37 9 29 68 95 92 185 68 64 113 58 87 21 0 46 0 0 21 0 33 27 25 39 24 113 22 62 136 0 98 12 0 116 0 0 88 21 6 60 58 26 46 85 59 74 89 43 34 0 81 33 0 113 18 24 72 10 43 36 17 35 0 4 0 0 26 0 23 30 0 50 32 66 81 64 128 81 60 115 99 93 125 62 93 91 56 56 42 49 75 101 30 103 124 57 116 100 11 94 36 0 59 0 44 40 0 88 74 77 59 101 65 36 83 19 68 110 108 115 103 255 161 108 255 115 101 185 0 32 75 0 0 81 8 0 86 26 0 173 90 37 81 145 140 104 126 166 190 105 118 164 54 17 0 80 51 7 43 75 0 0 59 0 0 42 0 21 29 0 68 31 34 54 62 99 3 70 103 0 50 67 98 0 57 146 20 56 68 37 31 17 43 18 47 115 40 42 75 138 51 36 255 0 74 255 0 117 255 0 115 255 63 133 255 46 53 255 86 45 255 103 47 255 80 32 255 98 93 255 83 81 194 51 68 172 67 95 172 52 66 127 52 94 154 48 131 179 46 105 219 75 139 251 95 146 207 124 135 211 92 166 227 71 150 228 112 146 255 143 126 255 135 93 204 127 78 174 123 94 172 132 132 234 136 130 255 128 145 255 134 170 245 147 167 188 155 161 235 119 147 255 126 131 247 214 150 233 255 120 199 255 78 194 255 71 255 255 81 255 255 68 165 255 18 77 255 84 196 255 87 234 255 130 255 237 197 255 73 200 159 58 195 176 105 186 255 137 166 254 143 151 214 146 174 233 170 181 241 153 86 179 154 128 211 154 192 225 188 167 212 162 202 255 136 154 214 132 144 156 129 185 170 159 172 220 203 138 242 111 163 235 96 149 213 118 167 221 82 120 255 140 122 255 199 161 255 150 135 252 167 172 242 157 187 189 115 176 121 169 217 117 161 202 52 176 176 74 170 135 226 115 88 255 83 78 255 104 100 255 129 151 255 47 69 255 81 31 255 44 22 255 0 19 250 26 92 255 162 67 173 189 81 116 215 92 160 164 87 187 141 97 255 169 54 255 179 67 179 83 104 123 8 103 121 69 117 169 131 105 216 124 102 173 148 175 156 119 127 160 132 160 245 148 226 255 156 155 255 182 165 255 145 136 215 203 86 255 255 34 255 255 32 255 255 44 255 255 0 177 221 56 208 221 97 255 150 129 182 91 227 129 0 245 69 0 242 78 0 254 161 0 228 187 61 222 176 141 135 151 167 132 200 181 153 224 129 108 171 153 143 202 149 171 235 255 90 229 151 175 225 45 191 194 23 185 212 54 201 255 63 162 234 173 76 161 120 95 87 33 89 72 101 95 111 128 89 130 120 66 130 153 46 110 117 64 94 28 125 154 62 150 238 167 163 255 189 145 255 188 154 255 154 172 255 96 186 255 91 225 255 121 230 255 139 209 246 158 200 236 204 189 242 178 188 211 150 162 216 230 126 251 236 92 255 168 139 255 122 189 255 48 207 217 0 250 217 33 255 203 148 191 64 168 232 0 199 241 0 215 235 30 255 240 160 255 167 175 255 127 142 242 179 173 186 214 255 202 224 255 247 255 244 255 255 139 247 222 81 157 175 59 32 69 3 197 243 255 154 255 255 156 255 255 215 255 255 167 230 255 
79 25 0 147 12 0 253 50 110 255 103 129 255 89 107 255 44 25 184 32 0 131 1 62 126 68 239 55 110 93 62 25 142 0 13 81 0 12 3 12 22 71 7 55 79 27 77 0 66 54 0 6 70 0 27 90 0 59 99 50 157 203 215 231 255 255 229 255 255 219 255 247 138 171 130 10 62 72 0 24 58 48 105 108 122 187 177 106 140 120 142 115 122 18 0 41 0 9 37 59 68 99 59 57 80 102 70 67 198 133 127 255 241 226 255 247 239 222 179 210 158 91 110 21 10 0 0 55 0 0 66 39 0 88 126 0 65 150 8 55 147 22 44 105 11 33 58 69 0 49 137 0 42 144 29 10 132 84 0 182 220 59 114 238 104 64 176 178 119 116 147 59 6 10 82 17 33 115 33 69 89 45 94 70 21 75 110 27 0 75 61 12 0 89 42 0 88 51 0 59 19 0 54 26 48 41 35 92 94 77 135 183 149 173 204 161 159 201 163 116 169 139 45 59 71 0 12 42 0 25 15 0 51 0 71 130 62 118 139 122 87 70 74 38 23 14 18 0 0 30 16 0 56 79 81 47 73 110 31 55 71 11 34 0 40 60 11 6 56 0 5 81 5 4 68 29 0 14 0 54 58 21 76 42 42 83 36 40 99 46 52 110 10 58 161 0 49 158 0 15 126 0 41 29 0 43 15 47 74 37 68 64 5 72 30 0 98 26 0 127 41 0 130 49 0 95 54 27 53 62 97 27 68 64 26 37 59 67 55 18 37 4 34 49 40 0 81 40 0 130 21 0 148 4 0 142 21 0 201 107 130 255 255 138 255 237 183 255 187 216 255 160 38 131 56 4 76 52 149 114 132 192 107 124 177 104 101 123 94 68 42 0 0 51 0 0 96 0 17 207 101 135 239 255 255 211 255 255 229 255 255 229 255 255 189 151 186 152 25 68 25 66 36 58 129 71 121 176 146 84 148 136 126 125 152 164 116 178 37 168 182 25 136 167 46 96 179 56 78 191 78 88 197 59 116 197 11 127 174 42 142 216 69 114 243 71 98 229 75 108 217 94 141 223 207 213 255 255 186 255 255 152 255 244 82 255 255 5 199 255 40 220 255 30 220 255 35 247 255 20 249 255 12 236 255 39 214 255 52 202 167 115 211 146 131 220 139 165 240 105 172 228 169 197 255 156 146 221 203 163 247 180 143 234 98 106 201 225 188 255 220 160 255 240 238 255 222 254 255 226 247 255 201 221 255 233 199 255 126 134 187 14 157 161 114 221 255 126 159 252 134 158 220 243 197 247 222 138 212 154 181 224 164 221 255 102 202 224 4 169 148 9 161 171 25 147 220 13 149 223 165 162 247 210 51 158 255 0 112 255 28 163 255 9 146 255 77 208 255 81 216 255 78 245 255 76 255 255 88 243 229 135 246 255 74 199 255 105 199 255 129 190 230 75 147 230 47 126 255 83 158 243 141 193 155 202 208 40 195 141 0 114 37 45 117 22 226 86 21 183 107 0 220 104 0 213 52 0 162 124 0 72 197 55 0 207 61 0 185 11 0 232 30 31 175 92 70 196 160 48 192 170 41 71 83 217 26 107 255 34 162 254 24 248 159 106 255 50 115 227 75 99 209 106 155 255 6 175 255 34 158 255 91 172 255 93 136 218 188 114 221 255 51 200 255 1 255 255 42 255 255 62 157 255 62 157 255 62 174 255 52 204 255 39 255 243 75 184 154 63 67 90 68 121 111 155 255 169 206 255 147 245 255 56 255 226 0 255 172 0 236 225 0 219 227 0 232 187 0 233 165 0 215 141 0 241 187 0 190 234 0 160 156 0 191 126 0 165 116 60 81 112 87 129 183 0 106 149 0 176 134 57 218 186 115 171 232 240 157 255 214 139 246 82 120 153 105 144 173 195 107 177 255 96 205 255 132 198 174 190 168 14 209 139 3 218 225 149 192 255 194 143 234 227 230 255 221 255 255 217 255 255 229 246 255 246 163 157 178 97 79 112 153 109 150 200 159 157 217 193 157 235 197 152 193 173 166 190 166 125 213 141 162 255 182 217 255 231 214 228 207 255 242 244 229 166 161 232 200 187 214 228 215 174 218 183 179 245 161 231 255 194 178 175 108 137 136 96 113 124 68 65 15 0 124 0 0 155 0 0 
102 48 0 139 4 0 135 0 0 192 0 0 178 0 0 170 0 0 181 29 0 146 16 77 128 70 241 70 125 108 67 30 147 0 38 106 0 13 4 0 4 53 4 52 76 38 88 0 70 58 0 0 61 0 23 86 0 0 17 0 0 45 57 8 40 49 33 69 71 56 111 84 40 73 32 0 44 54 0 17 51 0 48 51 1 66 56 64 98 78 64 37 44 49 30 72 13 32 60 30 39 70 25 23 46 22 0 0 98 33 27 97 47 32 128 99 91 153 110 141 120 53 72 136 125 85 0 106 42 0 94 67 0 58 96 0 29 114 21 68 160 21 43 104 32 54 79 77 7 57 136 0 41 125 10 0 76 28 0 30 68 0 0 78 0 66 178 180 253 250 255 255 238 242 255 233 249 255 196 232 162 118 167 93 44 98 112 29 1 41 27 0 60 150 103 180 255 255 152 255 255 187 255 255 255 253 247 182 184 167 142 190 156 114 145 102 47 89 51 14 67 37 10 24 36 11 64 94 0 74 64 10 71 7 0 57 0 21 42 25 77 60 64 170 155 146 177 159 131 140 126 88 67 90 92 4 30 67 37 61 77 133 156 116 171 191 142 196 246 187 175 251 175 201 255 226 194 221 192 117 121 84 57 23 23 32 0 0 64 11 17 118 18 66 214 30 102 176 0 33 124 0 39 53 22 67 9 41 68 68 99 95 96 163 121 0 130 58 0 140 54 0 150 69 14 188 147 207 233 242 255 229 255 242 204 215 93 101 89 37 56 23 0 14 5 0 81 40 0 194 85 0 182 38 0 193 72 0 171 77 0 127 68 0 89 9 0 49 0 23 74 0 0 84 9 0 70 46 94 59 77 162 77 94 221 148 145 221 192 166 191 129 136 132 68 81 124 17 45 70 0 0 30 53 49 16 79 72 42 75 98 58 90 117 64 26 61 156 29 72 86 127 97 108 179 121 120 175 145 66 130 118 70 69 96 66 18 80 0 93 107 24 135 166 60 110 193 51 73 186 79 89 198 32 89 170 14 130 177 11 111 185 33 78 207 58 85 216 58 91 200 77 124 206 96 102 192 134 46 178 186 63 219 191 29 202 255 22 216 255 31 211 255 20 210 255 36 248 255 6 235 255 22 246 255 26 201 255 41 191 187 135 231 130 115 204 111 137 212 73 140 196 112 140 202 162 152 227 200 160 244 246 209 255 195 203 255 199 162 255 191 131 251 74 72 167 117 149 236 134 155 255 173 193 255 255 235 255 191 199 252 89 232 236 79 186 228 113 146 239 134 158 220 186 140 190 210 126 200 144 171 214 94 151 193 61 161 183 51 216 195 77 229 239 106 228 255 61 197 255 120 117 202 249 90 197 255 33 166 255 46 181 255 41 178 255 15 146 255 43 178 255 45 212 255 69 255 255 147 255 225 131 242 254 40 165 243 52 146 232 92 153 255 128 200 255 140 219 255 134 209 248 146 198 110 157 163 36 191 137 81 220 143 198 255 175 255 205 140 240 164 28 214 98 0 236 75 0 255 220 75 183 255 166 114 255 192 75 255 185 65 255 152 20 164 81 16 142 106 39 183 161 86 116 128 224 33 114 254 11 139 243 13 237 126 73 255 45 110 222 82 106 216 67 116 230 0 159 255 41 165 255 71 152 255 88 131 213 189 115 222 255 38 187 255 11 255 255 40 255 255 60 155 255 77 172 255 63 175 255 59 211 255 36 255 252 84 193 255 195 199 248 226 255 192 236 255 138 175 255 70 168 255 0 189 148 0 230 139 0 243 232 0 233 241 0 240 195 0 255 196 4 236 162 0 252 198 10 255 255 0 212 208 0 211 146 33 213 164 120 141 172 147 189 243 161 255 255 127 255 255 145 255 255 208 255 255 255 188 255 164 89 196 24 62 95 103 142 171 181 93 163 245 57 166 189 65 131 86 102 80 0 161 91 0 210 217 28 71 135 185 134 225 205 208 255 136 181 200 166 215 242 122 139 160 227 144 138 255 178 160 148 189 145 168 218 177 159 219 195 142 220 182 154 195 175 154 178 154 120 208 136 137 231 157 144 205 158 176 190 169 229 188 190 225 162 157 242 210 197 212 226 213 198 242 207 161 227 143 195 242 158 213 210 143 240 239 199 205 216 160 253 203 138 255 183 135 255 187 192 
202 182 255 153 114 255 61 35 245 32 8 255 162 165 255 191 255 255 194 255 255 231 235 255 108 89 255 0 0 148 13 21 118 69 80 200 94 32 228 82 6 152 14 0 19 33 42 35 25 49 45 34 55 70 61 35 6 43 24 0 34 66 0 0 52 0 1 64 49 0 80 55 13 52 59 46 43 86 0 39 36 0 56 32 33 28 160 27 0 108 53 14 93 22 35 83 0 62 42 16 72 55 37 46 89 35 27 64 25 29 68 0 43 55 0 51 49 25 50 43 51 33 43 84 9 78 62 8 72 49 44 0 75 20 0 117 0 0 133 11 64 58 21 79 0 69 72 0 98 82 0 39 48 56 34 61 138 27 56 146 0 5 202 5 36 201 0 57 200 0 92 166 0 66 120 6 56 28 46 34 0 69 43 0 117 173 0 86 157 98 65 122 52 60 35 21 71 32 17 43 90 61 65 230 176 78 249 255 57 212 188 120 211 116 33 161 88 0 159 5 0 114 53 26 106 101 35 215 21 52 255 0 36 255 0 7 228 0 14 232 31 11 255 102 0 255 51 0 255 0 0 248 0 0 233 0 20 96 1 29 0 46 69 0 40 104 0 92 82 59 76 50 109 31 30 57 21 26 44 0 13 0 49 98 0 67 90 0 62 157 0 97 190 0 153 199 0 101 156 0 146 78 0 105 0 0 178 0 0 215 0 0 255 28 93 255 0 46 255 1 58 245 0 127 237 0 74 219 79 56 103 119 60 37 53 31 0 14 6 0 18 28 0 51 37 10 65 38 62 54 65 53 20 61 89 81 108 247 255 255 242 255 255 250 255 237 255 255 230 38 75 35 0 34 0 0 29 0 0 35 0 0 32 0 0 20 0 44 99 116 60 85 138 113 97 155 64 54 77 10 51 31 85 122 118 54 108 122 45 98 104 63 101 74 52 100 64 89 142 148 53 80 171 67 64 183 91 109 159 81 107 82 109 148 105 28 79 12 94 145 52 240 255 113 242 255 65 197 255 120 128 255 191 10 238 113 0 120 41 6 135 83 86 135 145 149 114 205 163 73 191 244 124 255 255 206 255 255 239 255 223 249 255 84 197 155 33 156 116 118 90 103 218 120 61 231 78 33 182 89 68 161 129 116 173 115 247 175 145 255 56 154 255 112 210 255 194 212 255 208 220 255 255 225 255 202 157 255 179 132 255 103 98 255 85 81 255 60 156 255 80 140 255 117 139 255 111 101 255 144 115 255 244 129 255 169 49 255 112 122 255 32 79 255 0 0 217 0 0 187 9 0 69 68 0 88 40 5 158 131 94 248 203 88 255 208 84 254 123 29 139 50 15 106 4 141 195 50 201 255 206 234 255 206 156 255 243 167 255 201 130 255 189 139 255 201 146 255 186 113 255 219 150 255 148 149 255 109 150 255 117 197 255 106 210 251 148 196 255 189 185 255 145 174 194 115 179 159 87 130 194 65 67 255 109 54 255 150 30 255 139 79 187 128 157 117 102 128 79 61 165 64 0 182 0 0 100 0 0 124 0 17 186 0 135 153 63 255 114 255 226 56 255 218 5 255 215 21 255 201 56 255 140 67 255 120 91 255 45 163 255 74 138 198 192 130 153 149 150 34 92 151 0 170 166 150 180 143 146 229 118 164 255 175 204 187 216 150 158 188 166 149 130 197 75 118 138 161 255 37 161 255 33 130 255 68 175 255 184 190 255 230 210 255 253 246 251 245 208 181 204 214 127 246 255 128 255 180 128 242 141 153 251 153 182 228 192 225 255 232 242 255 223 236 255 182 255 255 175 200 255 128 114 241 139 97 255 140 116 255 100 116 216 116 147 187 107 152 157 106 174 163 68 177 170 77 164 99 56 79 63 153 100 166 222 120 231 149 35 161 94 35 165 25 0 160 62 6 255 163 153 255 190 244 255 149 251 255 140 255 255 59 134 255 118 152 255 160 129 255 189 128 255 191 150 255 186 173 215 161 165 224 166 190 242 149 187 220 174 195 130 192 227 97 135 179 96 225 236 164 201 236 86 136 255 128 109 255 255 183 184 255 176 160 255 229 176 255 244 158 255 226 111 255 255 110 255 255 88 251 216 150 182 70 174 185 0 62 255 0 47 225 0 47 225 0 47 225 0 78 255 0 71 249 0 72 250 0 50 210 
0 0 225 0 0 200 0 0 178 0 0 229 9 12 255 0 51 209 51 112 255 80 84 255 99 80 255 82 64 238 15 23 120 18 29 149 35 0 169 89 13 159 57 32 62 74 83 76 0 12 8 0 4 19 29 3 0 58 39 0 104 136 0 51 107 0 0 60 45 0 50 25 43 82 89 69 66 109 29 73 70 11 71 47 5 0 132 78 46 159 68 29 108 1 14 62 0 72 52 20 76 59 90 99 142 91 83 120 54 58 97 0 59 71 0 35 33 11 36 29 46 28 38 101 26 95 70 16 80 33 28 0 86 31 0 118 0 0 128 6 59 48 11 69 0 57 60 0 63 47 0 51 60 99 77 104 151 40 69 228 69 87 173 0 7 173 0 29 161 0 53 146 0 46 143 29 79 37 55 43 0 70 44 0 65 121 0 51 122 55 22 79 51 59 34 33 83 44 21 47 94 15 19 184 62 0 135 167 0 99 94 26 117 111 28 156 113 0 184 26 9 135 42 15 95 74 8 188 11 42 255 0 54 255 0 39 255 0 85 255 26 6 255 104 0 255 46 0 255 0 0 250 37 23 255 23 47 123 27 55 19 24 47 0 33 97 0 67 57 34 59 33 92 42 41 68 59 64 82 81 114 85 96 145 0 82 105 0 0 86 0 60 153 0 216 255 0 247 255 28 255 255 28 255 234 86 255 70 74 229 0 0 209 0 9 221 0 5 255 0 52 255 0 163 255 5 114 109 0 0 26 42 0 9 25 3 31 66 58 0 55 65 0 48 34 17 72 45 53 45 56 76 43 84 30 22 49 29 39 42 14 33 27 36 46 23 12 15 0 36 73 33 111 190 155 204 255 237 191 255 235 198 255 233 132 186 164 0 55 72 98 123 176 255 243 255 255 249 255 228 255 249 197 234 230 111 165 179 39 92 98 0 22 0 0 18 0 0 39 45 41 68 159 94 91 210 64 82 132 30 56 31 10 49 6 23 74 7 76 127 34 46 95 0 28 84 0 0 86 0 0 100 0 0 82 0 0 63 0 0 44 0 0 13 23 213 178 255 255 214 255 255 203 255 255 223 255 146 111 153 23 49 60 0 57 15 0 117 77 133 105 118 138 40 0 255 113 68 200 107 86 128 96 83 66 8 140 0 0 177 0 61 216 36 134 255 168 186 255 202 214 255 255 225 255 255 215 255 255 215 255 177 172 255 16 12 255 0 49 255 28 88 255 101 123 255 135 125 255 127 98 255 176 61 255 187 67 255 111 121 255 53 100 255 119 120 255 190 177 255 255 236 255 255 202 255 255 227 255 171 134 255 219 104 255 255 137 255 219 125 235 204 169 255 15 152 206 0 118 185 83 111 255 61 11 255 69 0 255 22 0 229 23 0 244 109 54 255 136 63 255 201 132 255 122 123 255 76 117 255 85 165 255 51 155 196 90 138 214 107 103 202 86 115 135 80 144 124 89 132 196 135 137 255 191 136 255 243 123 255 212 152 255 170 199 159 173 199 150 132 236 135 22 210 0 40 219 0 112 255 0 129 255 0 250 255 178 255 166 255 255 141 255 255 92 255 255 160 255 252 107 255 153 80 255 122 93 255 0 14 194 0 12 72 42 0 3 12 13 0 21 80 0 128 124 108 133 96 99 163 52 98 185 94 123 53 82 16 45 75 53 138 119 186 65 108 128 77 192 0 35 219 0 0 176 0 63 197 72 67 169 107 53 121 96 96 101 95 132 105 128 185 98 217 255 133 255 167 115 229 143 155 253 154 183 229 133 166 233 135 145 255 96 109 236 75 150 230 124 149 230 146 132 255 142 100 255 94 70 255 106 122 222 144 175 215 197 242 247 139 207 196 84 193 186 145 232 167 189 212 196 233 180 246 132 30 141 202 88 214 182 123 253 208 149 255 227 171 255 120 110 255 144 198 255 90 192 255 50 179 255 73 148 255 96 130 255 91 60 255 82 21 255 138 97 241 191 178 220 209 213 255 150 174 226 74 112 145 89 110 45 100 135 5 76 120 37 13 24 0 0 27 0 0 61 0 0 43 72 45 46 210 119 103 255 192 139 255 211 125 255 198 83 255 204 5 244 255 100 255 235 169 201 150 254 255 92 226 255 0 202 255 1 228 255 2 229 255 9 236 255 19 246 255 36 255 255 13 243 255 
214 0 28 212 0 16 239 0 82 252 0 132 255 17 200 255 0 241 255 0 255 229 0 255 218 0 255 255 0 255 255 95 255 255 120 255 255 120 255 255 120 255 255 12 255 129 0 255 54 0 225 75 0 255 255 195 255 190 244 255 219 229 255 255 207 255 252 197 255 160 128 199 0 7 44 0 65 0 0 88 0 0 58 0 0 72 55 58 72 85 69 101 48 231 196 212 255 214 255 255 209 255 255 219 255 145 142 227 22 78 65 32 77 0 48 52 0 30 28 0 57 14 0 116 48 0 80 46 84 90 90 214 84 69 246 0 17 255 0 38 255 0 15 186 0 57 192 40 63 21 147 7 0 203 0 0 225 0 20 245 0 40 209 0 46 199 0 56 210 0 101 245 0 237 255 0 192 186 0 102 68 0 33 107 63 68 205 169 205 255 226 255 255 168 255 255 202 171 159 177 0 91 140 0 101 147 0 38 80 0 94 101 37 0 106 0 0 138 28 145 237 200 239 247 255 255 205 255 255 196 255 194 130 255 94 70 168 144 151 192 192 192 206 159 164 130 149 201 43 93 112 0 92 104 0 144 145 73 156 184 147 99 145 113 52 32 115 11 0 120 0 0 88 0 0 53 0 12 15 1 0 0 70 0 148 85 3 255 3 0 182 19 29 157 57 65 188 57 31 142 59 5 29 0 30 0 0 56 0 4 41 0 60 69 0 90 87 90 140 111 163 151 126 242 28 21 175 0 0 142 0 19 84 39 67 40 18 50 0 3 56 24 0 31 0 0 15 0 133 2 30 152 0 27 175 31 96 86 43 49 17 73 0 0 42 0 0 47 0 0 93 0 0 151 61 0 198 122 0 97 53 31 52 71 27 21 33 44 45 38 90 76 77 50 8 8 70 18 16 41 32 23 25 109 85 75 174 129 83 142 74 91 101 52 156 138 112 222 47 78 255 2 108 234 0 98 255 25 190 255 72 255 247 115 255 163 112 255 0 71 228 0 173 236 0 186 213 0 157 231 0 157 237 0 148 179 0 164 136 0 156 115 0 196 161 0 145 104 0 185 212 0 251 255 75 255 255 75 255 255 83 255 255 148 255 255 22 117 255 0 134 180 102 178 162 211 107 206 209 69 188 20 0 68 0 0 97 0 0 120 0 22 195 107 107 255 185 87 246 33 56 110 0 0 60 26 73 139 98 183 255 138 224 255 252 181 229 51 126 141 91 159 234 97 152 255 56 118 241 128 71 190 255 9 128 144 38 114 96 70 163 87 82 186 96 120 224 133 146 229 113 119 195 0 128 163 0 130 188 0 148 201 0 92 163 44 102 197 195 166 255 181 154 243 146 195 255 72 107 211 59 62 189 100 144 255 91 102 204 111 115 255 59 104 255 125 133 228 173 183 232 125 160 194 200 152 190 255 193 255 208 255 255 231 255 212 134 182 180 166 201 255 155 96 255 180 92 255 137 129 255 96 124 255 135 184 255 98 132 255 175 123 255 192 121 255 211 243 255 176 255 245 140 182 255 57 74 194 10 0 143 0 0 131 0 0 101 19 28 119 132 77 206 173 100 168 162 71 251 201 167 255 242 247 255 255 237 255 255 236 255 226 255 255 45 131 196 0 128 106 37 114 10 62 45 65 64 51 91 97 116 186 95 137 255 89 132 255 146 179 176 172 169 252 187 199 255 159 147 255 118 109 236 106 127 158 90 130 143 151 197 255 64 125 230 116 144 255 143 188 255 73 158 253 72 178 255 96 151 255 88 121 255 164 114 255 172 120 255 114 142 255 109 166 255 115 159 255 129 141 255 162 142 243 115 171 136 49 217 68 52 208 50 86 181 153 128 136 212 141 106 210 156 140 214 169 161 199 195 183 211 172 176 236 117 149 236 100 165 245 133 219 255 130 174 233 163 118 209 112 30 142 34 0 89 53 58 138 117 98 152 198 141 170 255 230 255 231 255 255 109 255 255 75 255 255 5 217 216 0 186 83 0 244 178 0 230 222 0 219 246 0 228 223 0 170 19 0 244 55 0 237 221 0 201 255 7 255 255 65 254 200 169 176 82 255 216 193 255 137 249 255 108 255 255 175 255 255 125 204 227 95 131 249 155 159 235 204 197 243 255 253 211 255 228 221 255 163 207 154 12 155 171 0 74 178 9 0 196 38 
218 0 32 200 0 4 255 40 156 255 152 255 255 149 255 255 137 255 255 0 255 178 0 225 178 0 225 178 0 225 178 0 225 178 0 225 184 0 231 230 0 255 224 0 255 150 9 255 130 4 255 82 0 255 58 0 253 0 0 225 0 0 225 104 37 255 255 209 255 255 237 255 222 255 255 131 255 240 61 255 162 49 215 137 59 145 128 125 139 152 105 137 84 93 58 74 88 0 71 88 0 127 58 0 139 47 44 129 0 18 5 0 28 0 65 69 0 79 77 0 158 115 0 132 64 0 185 151 189 232 232 255 166 151 255 113 131 255 0 36 255 0 50 221 0 33 168 18 41 0 255 129 0 255 170 221 255 169 228 255 169 228 255 117 226 255 20 153 200 0 91 213 0 205 203 0 129 158 0 74 88 0 53 135 91 96 202 166 202 255 226 255 255 168 255 255 202 171 231 249 63 81 130 0 0 33 0 0 30 0 105 112 48 57 200 62 0 176 66 0 50 13 0 0 77 21 0 198 106 22 254 95 31 191 82 58 156 0 0 38 46 46 60 140 145 111 126 178 20 137 156 0 8 20 0 7 8 0 0 26 0 51 97 65 52 32 115 86 45 195 61 61 161 6 19 75 24 67 70 50 48 45 64 0 142 66 0 255 21 13 200 19 29 157 2 10 133 72 46 157 70 16 40 0 35 0 32 112 0 21 58 0 26 35 0 4 1 4 66 37 89 92 67 183 109 102 255 59 79 222 12 39 104 15 43 16 0 15 0 0 19 0 0 31 0 0 13 0 136 5 33 219 43 94 196 52 117 59 16 22 0 29 0 0 42 0 0 83 0 0 165 48 0 187 97 0 153 77 0 79 35 1 22 41 13 7 19 60 61 54 116 102 103 153 111 111 133 81 79 93 84 75 0 28 4 0 56 11 26 85 17 150 160 111 161 143 117 255 109 140 255 28 134 255 30 171 255 11 176 183 0 188 165 33 255 119 68 255 14 96 253 0 200 255 0 120 147 0 120 194 0 142 222 0 119 150 0 113 85 0 87 46 0 82 47 0 118 77 0 201 228 28 255 255 0 210 241 0 88 195 0 50 189 0 21 166 0 12 152 0 35 81 0 24 8 61 0 56 84 0 63 22 0 70 0 0 97 0 32 157 50 108 255 101 101 255 218 120 255 80 103 157 19 37 99 59 106 172 43 128 225 57 143 230 164 93 141 27 102 117 73 141 216 174 229 255 111 173 255 154 97 216 238 0 106 95 0 65 119 93 186 113 108 212 67 91 195 84 97 180 72 78 154 0 182 217 0 183 241 0 180 233 0 143 214 74 132 227 143 114 210 82 55 144 27 76 156 59 94 198 113 116 243 144 188 255 109 120 222 4 8 153 0 0 163 0 0 86 0 0 46 34 69 103 184 136 174 241 169 231 136 188 213 159 203 140 160 208 206 177 212 255 214 155 255 159 71 255 165 157 255 121 149 255 142 191 255 161 195 255 196 144 255 238 167 255 146 178 255 101 199 170 100 142 240 146 163 255 169 134 255 175 149 255 107 141 244 44 53 144 51 0 125 72 0 67 143 52 232 138 104 251 100 105 185 63 43 142 84 63 172 63 99 129 54 140 205 48 179 157 38 115 11 117 100 120 92 79 119 49 68 138 103 145 255 119 162 255 192 225 222 163 160 243 55 67 189 120 108 255 131 122 249 175 196 227 170 210 223 108 154 228 138 199 255 142 170 255 115 160 255 73 158 253 49 155 255 85 140 255 110 143 255 132 82 255 158 106 255 100 128 255 71 128 255 134 178 255 99 111 237 188 168 255 133 189 154 71 239 90 101 255 99 118 213 185 175 183 255 255 232 255 255 241 255 219 211 249 255 245 255 93 97 157 77 109 196 2 67 147 0 53 118 0 41 100 51 6 97 113 31 143 114 77 169 108 113 193 158 139 193 153 96 125 131 66 110 99 124 176 0 177 224 0 159 231 0 194 193 0 167 64 0 169 103 0 237 229 0 179 206 0 195 190 0 251 100 0 179 0 0 234 218 19 255 255 57 255 255 117 255 252 203 210 116 255 177 154 255 108 220 255 112 255 255 136 248 255 118 197 255 160 196 255 182 186 227 196 189 217 235 227 173 244 190 187 230 129 210 157 15 156 172 0 125 229 60 127 255 171 
255 221 255 219 230 255 201 251 255 183 187 255 82 66 89 0 38 27 0 58 176 0 50 156 0 112 21 0 62 10 5 39 52 42 53 123 57 0 147 99 0 92 95 7 17 107 29 38 88 24 60 78 76 99 0 89 13 0 125 0 218 239 62 255 255 125 247 249 255 239 237 255 158 176 255 136 95 219 244 63 255 79 0 199 0 0 138 0 17 183 0 40 180 18 65 181 38 18 104 19 28 71 0 36 33 0 56 45 0 81 9 0 114 0 53 95 0 38 48 0 0 39 0 0 44 27 43 60 90 242 135 189 255 199 255 255 206 255 255 233 255 129 142 170 91 0 39 149 0 12 150 0 22 145 55 103 252 251 191 255 255 192 255 235 221 255 185 227 255 60 105 178 101 37 105 115 7 37 13 53 0 0 122 14 49 119 4 123 113 0 127 2 0 89 5 0 65 101 0 60 110 108 129 102 190 58 31 99 0 0 78 0 30 92 0 77 79 40 91 108 23 53 172 0 35 27 52 148 58 172 255 134 255 255 124 255 255 120 255 255 213 152 255 11 90 255 0 93 255 25 125 255 0 122 203 0 136 187 0 63 57 0 115 1 7 119 23 136 129 96 197 151 167 255 163 158 253 152 76 208 102 58 103 28 19 0 39 10 0 69 10 0 74 26 25 112 105 67 78 158 94 20 143 120 0 87 123 3 26 110 0 0 89 48 16 99 43 66 72 38 85 65 58 98 10 47 69 0 61 52 80 93 95 86 88 101 61 97 81 52 100 52 18 56 17 97 156 76 255 255 210 255 242 255 236 255 255 151 146 136 56 36 0 82 69 5 255 201 207 255 211 255 232 255 255 190 255 242 117 247 221 75 185 198 68 143 178 0 51 65 0 37 7 0 29 0 4 14 0 30 1 0 53 0 103 134 32 251 255 69 255 255 23 255 255 0 255 255 0 255 234 0 255 255 0 141 255 114 107 255 80 92 255 78 120 255 12 103 212 0 74 255 53 178 255 159 255 255 158 255 255 189 255 85 255 255 48 255 213 0 246 144 0 192 116 0 174 83 0 114 48 0 105 124 0 208 178 1 255 239 75 255 255 75 255 255 75 255 255 61 255 255 0 97 124 0 94 146 0 158 244 76 134 255 249 221 255 80 120 170 47 120 112 15 90 19 7 127 0 18 127 0 45 141 0 61 226 60 55 194 39 99 161 72 105 124 90 108 46 107 162 60 233 68 128 236 52 134 206 143 172 244 238 253 255 247 243 255 255 227 255 229 247 255 228 254 255 245 250 255 246 247 255 255 221 255 255 208 255 247 224 255 227 181 255 170 64 248 174 0 210 249 16 255 216 16 251 192 30 216 197 54 158 177 64 106 202 147 154 150 169 154 49 152 83 110 224 161 194 171 247 255 208 255 255 213 255 255 145 255 255 61 255 255 72 255 255 43 255 255 77 255 255 87 248 255 70 201 255 86 255 255 41 255 226 93 255 232 136 255 144 199 207 137 244 255 88 219 255 148 202 255 199 166 235 177 119 165 159 113 145 98 67 87 129 113 101 180 118 95 160 172 114 136 231 163 74 188 140 89 218 137 110 152 41 164 86 0 167 117 44 166 85 44 170 77 56 216 69 48 254 6 0 255 52 28 130 85 68 255 78 170 255 153 255 255 150 255 255 153 255 255 157 255 255 15 255 255 0 255 255 0 255 244 61 255 255 112 255 255 186 255 255 209 255 177 250 255 209 253 255 168 132 206 243 157 254 197 134 201 182 183 137 145 147 0 189 169 94 212 221 255 168 244 255 112 203 255 131 161 175 152 104 129 194 40 186 193 46 236 182 93 249 211 147 209 180 152 129 99 146 128 34 211 217 0 196 244 0 195 206 35 179 139 75 132 151 50 93 212 61 120 255 119 118 255 154 102 173 179 125 100 223 198 255 193 255 255 170 255 255 204 255 255 205 247 255 153 164 204 42 42 240 66 85 254 202 227 201 205 204 206 220 231 255 80 89 162 22 45 171 103 150 148 176 199 133 214 237 233 178 219 255 92 149 252 113 179 255 70 141 159 141 147 151 193 172 201 113 99 134 140 125 154 175 129 154 255 204 254 255 236 255 149 157 254 75 126 245 0 17 174 76 56 201 138 106 221 173 164 255 207 188 255 187 172 255 62 62 146 
5 0 155 23 34 255 16 66 229 116 120 219 205 189 212 113 187 176 30 124 242 0 22 128 0 60 0 0 56 4 42 76 89 56 67 137 32 0 122 97 0 90 111 23 33 114 36 45 118 54 90 186 184 207 184 255 221 158 255 125 255 255 104 175 171 26 32 34 87 40 38 185 118 136 250 135 94 218 255 79 255 99 15 219 0 0 136 0 0 155 0 0 139 0 0 116 4 0 70 0 0 40 0 15 12 0 42 31 0 104 32 24 144 0 54 96 0 47 57 0 3 49 0 0 56 39 18 35 65 196 89 143 249 88 154 239 105 177 175 127 191 25 38 66 102 2 50 163 0 26 153 0 25 104 14 62 46 45 0 65 43 0 75 5 0 169 0 22 181 0 21 90 13 0 66 76 0 35 11 51 39 22 166 2 37 107 0 65 55 0 138 13 0 150 66 0 71 107 17 95 145 170 191 164 255 218 191 255 215 224 255 209 255 206 92 191 33 0 45 65 0 10 255 94 131 226 251 255 155 255 255 134 255 255 95 248 255 0 105 255 29 0 243 0 11 239 0 57 255 0 82 255 0 68 149 0 44 95 0 58 52 0 108 0 43 155 59 125 118 85 100 54 70 96 0 0 144 43 0 230 124 80 176 101 92 31 152 123 0 69 10 0 47 0 71 158 151 238 249 255 255 218 255 255 208 255 255 216 239 255 161 142 138 97 65 117 61 84 18 0 31 0 0 33 19 56 78 0 66 57 60 73 75 64 66 79 2 38 22 7 55 7 1 39 0 11 70 0 66 62 13 128 106 157 46 67 102 62 57 47 85 65 26 48 35 0 117 28 34 125 20 127 28 54 89 0 68 20 0 65 39 0 31 44 0 28 63 0 68 82 1 116 86 11 80 0 46 56 0 103 74 0 252 173 255 255 199 255 255 147 255 255 124 255 255 0 255 197 0 197 254 0 255 255 23 177 255 91 84 255 35 47 227 0 8 255 0 80 255 17 156 255 79 204 255 159 255 255 158 255 255 189 255 85 255 255 0 216 107 0 147 45 0 190 114 0 231 140 0 197 131 0 136 155 0 138 108 0 159 137 0 169 196 0 176 242 0 168 255 8 240 255 75 255 255 75 255 255 65 255 255 90 148 255 83 55 180 133 173 223 99 172 164 94 169 98 20 140 0 42 151 0 53 149 0 3 168 2 106 245 90 181 243 154 245 255 230 255 229 255 255 204 255 171 231 255 60 142 214 93 122 194 119 134 185 68 64 153 62 32 196 70 88 198 39 65 136 121 126 182 126 127 195 157 102 254 163 93 255 79 56 255 105 59 242 180 74 255 207 29 243 238 5 255 211 11 246 198 36 222 210 67 171 223 110 152 129 74 81 91 110 95 46 149 80 13 127 64 114 91 167 117 38 169 130 51 209 172 56 211 255 38 245 255 47 255 255 30 255 255 49 255 255 88 249 255 100 231 255 91 255 255 53 255 237 104 255 246 150 255 215 255 255 136 243 255 85 216 255 90 144 222 66 33 102 178 120 166 203 157 189 227 196 216 255 239 227 232 170 147 173 185 127 111 206 138 101 215 167 125 254 173 120 162 51 171 93 7 140 90 17 126 45 4 176 83 62 255 176 155 255 167 125 255 190 166 255 243 226 255 175 255 255 91 247 255 12 186 243 0 121 229 0 215 255 0 255 255 0 255 254 0 255 207 24 255 189 39 255 254 136 255 209 161 255 36 109 255 0 0 111 16 0 54 49 0 60 36 0 40 15 16 0 51 53 0 111 91 16 0 0 51 0 12 102 0 19 85 28 58 72 227 179 204 255 192 255 255 189 255 255 210 255 251 187 249 96 68 45 0 16 0 0 52 58 0 155 203 0 189 200 0 62 22 0 14 33 0 0 118 0 0 150 0 0 124 96 44 115 169 115 90 157 132 220 86 151 255 19 131 185 0 69 89 41 83 119 78 89 129 162 162 255 180 199 255 138 163 137 233 232 234 125 136 168 78 87 160 0 0 118 0 14 12 128 151 85 190 213 209 167 208 255 110 167 255 113 179 255 134 205 223 220 226 230 246 225 254 222 208 243 243 228 255 255 238 255 255 233 255 255 236 255 238 246 255 205 255 255 215 246 255 245 225 255 204 172 255 169 160 255 152 133 239 201 186 255 79 79 163 
43 107 193 46 158 246 21 120 201 30 83 89 73 66 98 113 71 167 140 99 177 158 110 84 119 59 0 135 81 0 87 35 0 29 53 17 0 97 42 18 84 52 139 140 130 111 89 79 60 39 34 0 12 3 0 32 17 20 0 101 58 0 78 85 77 80 59 71 43 0 66 4 0 54 0 18 0 74 64 0 48 29 74 21 32 91 57 0 68 34 2 76 65 59 28 144 31 8 50 0 62 0 7 78 0 0 46 0 9 48 33 27 25 78 9 26 56 42 126 62 177 255 223 184 255 233 194 255 255 224 255 255 84 88 113 0 5 0 0 12 0 73 66 70 228 170 206 255 228 255 255 247 253 231 255 208 108 185 121 32 0 0 77 0 30 65 25 65 62 113 58 56 129 38 86 139 107 111 89 114 155 89 121 147 183 147 73 97 57 51 23 0 21 0 0 8 0 0 26 59 4 0 90 0 0 54 0 0 87 26 66 146 133 106 134 170 218 201 221 130 105 97 79 83 80 26 53 46 0 13 8 4 15 29 60 21 30 55 67 55 0 20 7 36 62 73 66 51 76 70 31 50 33 0 0 3 42 27 0 71 62 3 116 110 36 77 107 27 53 100 0 24 112 21 47 148 0 59 49 8 47 6 93 50 47 58 32 49 0 45 16 1 85 0 61 124 0 28 54 0 58 71 102 0 12 50 0 19 32 45 33 25 66 22 35 82 65 71 31 69 42 23 34 40 71 14 35 77 42 26 45 47 0 70 75 39 21 34 36 49 33 55 82 40 38 8 57 0 0 49 0 0 56 28 0 10 57 35 12 90 82 48 130 45 66 97 63 128 82 55 85 48 35 12 46 9 11 48 25 75 60 25 78 46 68 131 56 90 118 0 98 110 0 154 173 33 132 142 0 140 155 0 55 131 0 6 114 0 23 131 0 0 80 0 0 65 0 91 184 0 105 227 0 203 255 58 122 187 83 58 68 151 0 0 104 0 0 99 0 0 81 0 15 49 20 64 111 67 76 181 130 130 150 98 101 104 31 99 54 37 127 70 64 93 162 110 91 255 89 84 182 0 72 127 0 127 152 0 164 231 38 181 255 62 219 255 0 175 246 0 171 237 0 196 213 29 139 188 203 128 232 255 192 255 255 204 255 255 189 255 255 188 255 255 109 216 238 11 167 140 101 232 95 128 255 50 109 215 46 158 132 79 80 110 133 70 223 98 82 205 67 46 153 95 89 165 64 107 164 149 97 253 136 54 255 42 123 192 68 154 225 37 109 223 55 117 252 113 29 255 101 0 255 35 83 255 28 86 255 69 85 255 86 102 255 88 53 255 102 50 255 0 96 255 9 131 255 44 140 114 83 145 0 118 148 0 118 184 0 124 255 0 95 255 0 165 232 0 192 174 0 156 161 5 144 201 108 134 207 112 154 217 88 184 238 78 210 226 113 155 193 122 140 210 149 142 185 92 184 184 48 222 199 81 192 177 124 202 226 180 134 208 143 122 184 97 139 187 65 108 185 55 101 212 104 97 217 98 126 176 63 109 119 0 89 108 0 41 83 0 44 92 44 62 116 104 57 71 60 71 105 85 41 108 86 75 119 114 147 156 225 129 125 236 78 96 158 58 100 170 80 95 238 89 88 238 112 98 255 89 90 212 56 101 152 81 106 202 160 82 242 234 55 213 255 31 225 255 44 255 255 24 255 255 27 255 255 44 255 255 70 255 255 70 239 255 60 223 255 109 199 140 86 132 65 118 174 67 181 229 102 211 228 191 197 235 155 117 156 63 81 118 30 49 103 69 90 121 75 122 116 150 91 185 122 83 255 39 71 255 67 79 255 69 87 255 118 138 255 148 129 243 84 112 174 71 162 96 99 142 40 123 154 91 115 155 156 96 106 173 103 93 191 101 97 172 106 114 167 50 149 176 32 184 183 120 188 223 136 148 176 110 142 143 28 185 164 0 209 182 71 235 255 172 190 255 157 122 230 151 120 212 111 100 190 167 54 210 255 66 255 253 6 204 255 74 186 255 160 230 175 138 144 215 195 208 161 123 170 175 149 162 211 183 186 214 207 211 240 255 251 238 255 251 233 255 244 255 255 196 255 240 173 247 230 165 199 203 166 139 191 156 222 255 225 255 231 211 204 129 111 151 221 173 8 148 45 0 85 0 
0 55 141 0 111 199 0 86 167 2 55 61 32 25 57 18 0 72 41 0 78 84 36 10 114 54 0 116 62 0 70 18 0 0 11 0 0 84 29 2 68 36 63 64 54 83 61 51 31 10 5 0 22 13 0 53 38 33 10 114 104 26 124 106 98 101 126 138 110 160 238 176 153 255 152 180 138 236 128 59 112 1 46 0 0 52 18 0 81 47 99 173 162 255 227 255 255 243 255 217 255 182 214 255 205 219 255 221 205 244 229 131 129 182 61 78 108 34 118 54 0 64 0 0 50 0 0 74 44 27 67 88 43 47 72 69 79 64 5 41 25 31 24 28 53 0 31 48 0 50 59 36 42 11 56 0 0 68 4 75 33 43 123 0 76 80 40 80 15 66 11 64 137 46 79 132 100 102 80 105 106 40 72 0 14 0 19 43 3 93 65 40 204 175 168 165 152 157 85 118 63 0 71 0 0 60 0 6 104 43 0 70 57 8 36 72 17 0 20 36 11 3 87 91 88 121 148 141 30 73 68 0 9 23 26 0 0 0 4 0 76 140 127 155 181 192 177 162 187 117 78 97 97 47 58 92 131 116 47 145 136 10 123 117 0 31 61 0 2 49 0 0 86 19 45 146 102 167 157 191 230 189 164 121 118 113 87 104 0 41 12 0 57 0 97 160 0 130 156 81 148 161 192 9 39 77 0 6 19 9 0 0 89 45 58 203 186 192 157 195 168 141 152 158 125 68 89 174 139 123 255 255 210 217 222 186 121 134 136 54 38 60 29 0 0 54 103 36 0 104 17 105 193 165 130 150 197 203 180 255 201 167 249 24 45 76 0 28 0 0 13 0 12 0 23 0 0 33 40 90 75 66 119 87 108 171 96 176 204 79 40 52 0 24 43 0 115 125 0 84 99 0 80 156 0 83 191 0 0 99 0 65 152 0 125 197 0 45 138 0 49 171 0 57 173 0 43 108 4 45 55 138 69 61 182 78 72 186 49 76 159 60 125 159 40 84 131 88 97 202 208 208 228 170 173 176 97 165 120 13 103 46 0 13 82 0 0 152 0 0 85 0 40 95 0 154 179 0 176 243 0 142 255 0 46 163 0 60 131 0 82 148 0 164 181 28 138 187 167 92 196 119 16 111 111 0 114 223 61 210 226 36 124 237 9 116 181 0 110 61 22 153 47 80 225 68 127 233 29 141 115 103 104 134 157 94 247 116 100 223 102 81 188 77 71 147 71 114 171 139 87 243 198 116 255 190 255 255 186 255 255 191 255 255 196 255 255 165 81 255 152 26 255 29 77 255 42 100 255 59 75 255 41 57 255 98 63 255 76 24 255 5 101 255 6 128 255 59 155 129 192 254 69 255 255 77 235 255 65 169 255 29 143 255 3 142 209 0 188 170 0 179 184 28 149 206 113 152 225 130 145 208 79 173 227 67 206 222 109 215 253 182 212 255 221 203 246 153 235 235 99 181 158 40 230 215 162 176 200 154 109 183 118 138 200 113 113 161 39 101 178 48 76 187 79 41 161 42 65 115 2 86 96 0 89 108 0 65 107 0 65 113 65 62 116 104 83 97 86 86 120 100 72 139 117 112 156 151 154 163 232 160 156 255 186 204 255 122 164 234 119 134 255 121 120 255 116 102 255 114 115 237 70 115 166 63 88 184 158 80 240 249 70 228 255 126 255 255 119 255 255 43 255 255 26 255 241 0 178 255 7 193 255 65 234 255 37 200 252 91 181 196 142 188 94 147 203 93 207 255 76 185 202 123 129 167 194 156 195 111 129 166 85 104 158 63 84 115 3 50 44 132 73 167 165 126 255 146 178 255 180 192 255 180 198 255 192 212 255 192 173 255 107 135 197 0 69 3 0 28 0 4 35 0 0 40 41 78 88 155 111 101 199 136 132 207 217 225 255 169 255 255 148 255 255 128 196 231 162 174 202 143 175 176 24 181 160 0 206 179 0 156 229 117 135 255 134 99 207 190 159 251 108 97 187 199 86 242 255 90 255 255 49 247 255 89 201 255 132 202 193 156 162 192 172 185 230 192 239 218 192 205 183 155 158 188 181 185 174 196 185 197 223 210 168 202 179 187 196 127 233 160 93 176 159 94 199 203 166 146 198 163 188 226 191 238 201 181 254 179 161 196 255 218 140 255 177 169 255 129 
192 0 122 225 0 85 236 0 0 146 0 0 0 45 0 0 71 25 0 49 75 37 62 97 6 40 63 31 53 203 107 36 255 235 103 255 255 136 255 152 96 255 63 83 255 0 21 255 0 0 237 0 18 255 0 12 248 0 57 89 0 49 87 56 41 68 101 0 0 93 51 0 18 83 0 0 67 0 49 72 100 92 53 96 135 60 105 22 66 53 0 84 27 0 48 26 17 0 5 43 30 10 33 32 103 27 83 60 0 80 0 53 67 45 82 1 0 51 17 2 44 64 137 0 29 9 70 97 17 85 85 65 132 121 139 121 159 212 47 117 217 27 97 108 0 80 0 0 64 0 0 85 55 15 92 74 17 76 32 42 63 0 45 10 0 69 0 69 99 0 171 136 19 181 67 0 189 24 0 255 0 0 237 0 25 238 0 45 255 25 26 255 63 30 255 81 37 255 72 47 255 134 106 45 158 42 7 143 42 36 105 40 58 177 88 164 255 180 255 255 140 255 255 125 255 255 134 255 169 68 255 86 43 108 0 91 61 0 99 3 0 146 0 0 168 0 0 125 0 0 88 0 0 66 0 95 86 91 255 213 255 255 195 255 236 220 255 240 222 255 127 28 254 64 0 236 30 0 225 64 5 243 65 45 230 46 35 139 84 30 156 77 154 255 119 255 255 138 255 255 172 255 255 163 231 222 147 79 82 26 64 79 0 62 0 0 39 0 69 91 0 31 103 0 126 28 57 14 0 80 0 39 10 7 53 3 13 69 98 13 72 250 59 1 255 69 35 255 0 83 74 7 74 0 59 34 0 105 15 3 116 25 0 44 71 0 0 139 0 0 151 0 117 132 123 216 153 210 186 172 209 113 148 142 86 147 94 108 87 0 131 81 0 45 53 0 0 94 0 0 136 40 22 107 150 109 65 228 110 44 255 68 24 255 67 48 255 58 69 255 71 51 173 83 54 182 25 86 144 26 117 132 28 121 65 48 148 64 72 93 196 116 49 255 117 83 230 124 85 166 103 82 111 72 66 176 76 28 255 65 15 255 41 86 201 6 151 158 0 147 205 49 91 255 25 0 255 40 2 161 66 51 94 115 142 87 231 106 255 255 9 255 219 0 158 213 8 81 255 61 110 255 45 157 255 0 255 255 0 193 113 11 83 118 83 174 89 53 163 118 59 197 206 40 224 255 20 170 255 0 140 255 0 185 255 0 163 255 3 155 255 1 178 255 0 204 255 10 249 255 66 255 255 201 255 255 226 253 253 232 255 96 255 255 60 255 255 0 253 231 0 209 146 0 168 157 0 110 247 96 104 227 106 99 193 171 103 254 140 86 255 0 73 232 0 159 255 0 168 250 0 160 158 0 195 187 0 134 87 0 167 104 0 215 155 81 129 119 244 112 86 255 106 100 255 96 68 255 107 139 255 76 152 255 86 170 255 89 146 254 152 118 155 181 132 120 196 120 181 224 94 169 240 132 62 255 138 66 255 127 22 255 108 119 250 142 145 194 160 76 175 158 74 255 146 54 255 62 61 255 113 19 255 131 0 225 108 7 255 192 30 255 213 71 189 140 157 251 202 211 255 228 225 255 198 225 255 214 226 205 172 163 87 77 99 153 139 34 140 178 98 203 255 152 128 255 75 53 176 70 100 172 0 40 92 0 56 112 121 145 229 158 84 207 80 77 172 83 127 230 115 101 255 197 111 255 236 152 255 152 121 255 122 121 255 121 147 255 89 121 244 148 171 255 66 165 132 65 213 43 128 233 2 90 162 0 125 184 114 144 166 194 177 213 239 229 255 255 124 197 216 36 121 189 0 0 158 0 0 166 14 0 111 86 0 42 80 0 37 114 62 187 186 52 241 172 66 214 190 145 138 114 129 84 44 136 127 46 169 222 43 79 247 160 48 224 227 100 227 255 0 255 255 15 255 255 55 255 255 0 255 255 52 255 255 14 255 255 0 255 205 28 255 54 0 247 92 23 255 182 56 255 246 73 255 255 129 255 177 47 255 148 49 255 122 106 255 98 126 255 39 148 255 20 251 255 0 242 195 34 255 146 101 255 7 184 245 0 237 230 0 214 168 78 141 137 156 47 151 146 141 217 157 183 204 161 194 182 206 205 223 225 104 160 255 169 187 255 200 133 255 204 163 255 238 213 255 235 221 255 
255 169 255 255 75 212 255 36 48 137 0 0 0 22 0 0 42 0 45 104 130 46 71 106 24 58 81 0 0 139 18 0 225 58 0 225 63 0 232 57 1 255 0 10 255 0 59 255 56 93 255 32 60 255 78 96 255 14 75 107 0 13 51 27 12 39 107 0 0 104 62 0 64 129 0 87 173 98 73 96 124 110 71 114 78 3 48 0 14 1 0 75 18 46 113 91 115 91 103 83 70 50 0 0 62 0 19 0 0 36 0 0 13 0 136 55 50 154 120 105 53 73 146 8 42 22 0 17 0 25 25 5 51 40 58 62 100 153 0 63 163 0 53 64 0 72 0 0 94 0 0 85 55 0 76 58 17 76 32 0 13 0 61 26 0 90 14 90 155 43 227 255 185 255 255 213 255 246 215 255 191 243 255 97 220 255 38 117 255 49 50 255 60 27 255 83 39 255 57 32 251 59 31 0 95 0 0 90 0 0 82 17 35 101 12 88 151 0 110 213 0 155 255 0 255 255 161 255 255 198 255 255 234 255 177 255 255 0 217 121 0 203 19 0 227 0 165 255 53 211 255 122 211 255 180 255 251 255 227 125 221 208 84 255 46 30 255 0 0 205 43 0 170 53 0 225 30 0 225 14 0 193 0 0 157 26 15 119 75 21 147 0 52 216 0 85 173 0 84 73 0 70 46 0 34 25 112 44 47 29 67 82 5 121 0 33 86 0 15 37 0 12 84 0 192 94 123 114 94 180 39 107 78 8 54 4 0 13 42 0 0 175 32 0 248 176 142 255 186 255 255 217 255 201 203 178 136 112 22 10 71 0 0 5 32 0 0 98 0 0 76 0 0 7 0 79 16 73 145 131 168 59 94 88 80 141 88 187 166 63 171 121 0 143 151 0 1 159 0 0 75 0 20 105 148 110 66 229 103 37 255 105 61 255 82 63 255 21 32 224 68 48 170 69 40 168 27 88 146 105 196 211 58 151 95 79 179 95 210 231 255 255 204 255 255 228 255 255 224 255 156 135 164 47 41 151 74 26 255 115 65 255 44 89 204 0 141 148 0 130 188 37 79 255 146 109 255 147 109 255 97 82 125 58 85 30 110 0 197 228 0 242 255 36 194 248 43 116 230 20 69 241 27 139 255 0 255 255 7 225 185 83 155 116 81 172 146 110 220 157 98 236 197 31 215 255 25 175 255 3 159 255 22 215 255 46 215 255 1 153 255 8 185 255 15 237 255 17 255 255 7 229 204 57 139 133 48 75 90 69 210 0 188 255 0 184 201 0 207 185 0 197 134 0 160 149 42 157 255 222 230 255 249 242 255 255 217 255 255 219 255 140 218 255 0 144 255 0 135 217 0 198 196 0 216 208 0 255 211 13 255 216 0 255 197 175 223 213 255 157 131 255 156 150 255 170 142 255 107 139 255 92 168 255 16 100 255 83 140 255 176 142 164 190 141 132 208 132 145 188 58 93 164 56 61 255 137 0 255 56 12 255 98 175 255 198 163 212 178 108 207 190 11 216 83 0 174 0 20 229 72 0 216 90 0 198 81 0 178 93 0 194 107 40 158 109 46 140 91 66 137 83 49 105 22 59 111 48 146 125 92 143 67 57 39 93 79 4 110 148 15 120 190 140 116 255 171 149 255 163 193 255 70 165 217 35 148 204 190 214 255 255 218 255 246 243 255 212 255 255 191 177 255 155 69 255 162 78 255 144 113 255 142 141 255 130 156 255 92 124 247 112 135 219 71 170 137 33 181 11 96 201 0 113 185 3 192 251 181 236 255 255 226 255 255 229 255 255 199 255 255 61 146 214 84 118 255 94 81 255 131 88 228 149 58 105 164 63 121 168 116 241 253 119 255 223 117 255 158 113 106 136 151 106 78 170 161 43 166 219 101 137 255 180 68 244 223 96 223 255 12 255 255 7 255 255 12 255 255 0 255 255 8 255 255 0 255 255 1 255 255 82 255 198 105 255 167 98 255 172 46 255 238 65 255 205 75 255 231 101 255 206 107 255 135 119 255 115 143 255 76 185 255 25 255 255 15 255 210 42 255 154 135 255 41 235 255 20 255 255 3 231 185 95 113 109 128 54 158 153 136 212 152 176 197 154 214 202 226 177 195 197 132 188 255 190 208 255 214 147 255 191 150 255 198 173 255 207 193 255 
110 125 0 80 9 0 115 0 62 195 0 84 196 0 103 255 0 114 255 0 51 248 0 0 219 0 0 190 0 0 122 0 0 2 104 0 0 174 0 0 132 0 0 142 11 0 140 78 0 144 15 0 152 0 0 128 19 0 88 37 0 118 143 0 87 148 0 129 80 0 166 24 0 129 50 62 138 126 223 203 242 255 239 255 231 255 217 186 255 230 184 255 255 130 255 255 114 255 255 0 206 71 0 123 0 124 255 166 255 231 217 255 192 153 255 197 157 255 182 159 255 66 68 200 0 6 193 0 30 222 0 59 255 2 165 255 95 255 255 169 255 255 216 255 149 255 255 42 255 255 0 164 172 0 75 84 0 31 12 22 67 40 0 116 72 0 130 74 0 79 2 0 88 0 0 140 0 0 135 0 0 153 28 0 177 26 0 161 48 0 191 102 48 161 59 111 98 44 98 103 87 53 103 104 68 55 123 144 51 154 163 86 92 83 106 30 0 181 67 0 110 22 0 50 0 144 130 92 172 164 111 122 177 132 23 172 190 0 76 134 48 15 82 118 0 21 178 0 1 222 0 58 251 0 115 232 0 89 255 0 150 208 0 162 208 0 232 245 0 255 167 0 185 154 0 109 104 0 34 0 27 0 2 97 0 95 80 49 151 49 84 112 43 110 52 39 143 16 50 169 62 110 172 255 255 231 255 255 102 239 255 28 243 255 21 120 168 0 38 125 0 0 89 0 0 87 0 0 61 0 13 98 0 13 111 0 2 117 0 33 100 0 34 26 53 56 5 96 42 0 59 45 30 107 12 55 112 35 57 95 67 7 127 57 22 77 37 40 0 14 51 0 17 66 0 61 56 0 114 50 24 78 90 114 12 88 4 8 48 23 33 35 62 37 32 84 126 117 255 128 137 255 102 122 187 57 55 194 17 47 207 0 71 244 16 93 255 53 106 222 42 108 134 20 155 87 0 156 98 34 105 255 39 42 255 100 56 255 120 64 219 97 77 199 74 54 189 100 10 190 125 71 109 67 95 50 47 173 62 0 160 7 4 140 62 89 117 116 83 104 161 85 117 180 13 80 110 12 78 117 60 55 187 109 58 255 91 128 255 58 116 255 22 83 177 18 68 93 120 79 193 236 143 255 236 240 255 212 255 255 235 249 255 239 244 255 253 213 255 123 103 255 47 119 109 22 107 79 95 119 229 71 95 241 101 118 255 93 140 148 30 106 9 32 117 89 60 130 232 81 158 190 217 238 247 227 155 206 155 43 141 197 0 118 192 0 139 226 0 88 255 48 200 255 88 255 255 82 255 255 0 122 255 0 137 184 80 181 132 123 228 184 232 255 29 113 163 50 75 117 125 99 186 109 102 184 97 105 142 104 143 128 46 137 71 119 200 135 157 255 206 26 255 155 26 255 143 21 209 110 85 240 158 190 243 177 212 222 139 158 218 72 184 191 65 231 212 80 157 206 64 201 255 143 151 196 83 103 217 81 125 217 128 123 214 159 152 249 194 139 209 150 126 170 63 77 142 36 131 147 96 215 195 172 255 205 173 244 212 143 181 191 91 118 148 50 89 127 36 112 95 39 115 77 50 66 108 56 34 109 20 85 108 29 95 59 23 173 34 77 255 21 148 255 0 255 255 79 255 255 40 255 255 0 255 255 0 255 182 0 229 183 0 230 157 0 225 127 0 194 117 0 113 113 0 79 217 50 177 165 34 142 113 48 154 128 135 237 69 125 232 166 208 255 176 116 255 80 20 254 12 0 139 0 0 132 0 0 225 0 0 231 3 0 252 0 0 242 54 106 255 108 98 255 242 217 255 253 212 255 169 108 255 153 171 169 97 173 76 134 171 131 128 120 145 93 82 136 87 127 174 172 221 255 235 222 255 189 130 255 154 125 255 110 131 210 99 157 191 168 179 213 153 133 242 113 131 255 174 242 255 186 254 229 178 201 249 206 208 255 100 112 255 103 157 255 126 202 177 78 174 174 106 185 240 120 179 251 105 154 232 121 170 155 131 184 79 129 152 92 174 173 141 187 170 166 161 148 203 173 155 251 173 157 255 178 177 255 161 145 255 182 153 255 183 137 255 208 118 255 255 136 255 255 115 255 255 124 255 255 75 255 255 108 161 255 105 82 255 61 0 249 93 0 203 85 72 184 118 90 
54 69 0 92 21 0 110 0 57 220 0 109 216 0 123 218 0 77 235 0 23 232 0 0 224 0 0 204 0 0 133 0 0 0 91 0 0 177 0 0 146 0 0 119 0 0 112 50 0 113 0 0 174 0 0 148 39 0 134 83 0 117 142 0 112 173 0 167 118 0 185 43 0 143 64 48 124 112 104 84 123 92 53 84 35 78 21 0 58 0 0 53 47 0 78 65 0 99 34 0 133 0 0 132 0 0 88 0 100 16 2 203 0 0 173 0 0 237 0 0 205 0 0 232 0 38 218 0 55 208 0 45 255 0 142 242 0 138 221 0 143 116 21 109 0 137 120 75 255 255 95 255 255 106 255 255 189 255 255 154 199 172 0 132 88 0 156 100 60 163 86 15 200 46 0 195 0 0 206 40 0 179 54 0 171 20 0 154 41 0 170 81 0 102 0 79 66 12 15 20 4 0 20 21 45 32 100 90 0 100 68 0 0 25 48 0 0 130 16 6 172 84 82 139 82 90 76 38 59 51 0 0 21 0 0 42 60 0 86 144 68 35 102 191 23 94 194 0 17 224 0 60 219 0 83 185 0 42 218 0 102 209 0 163 245 0 255 255 0 255 198 0 216 123 0 78 84 0 14 0 37 0 66 161 31 186 171 140 214 112 147 83 14 81 0 0 88 0 3 122 39 87 149 102 98 73 90 86 0 52 119 0 37 88 0 14 62 0 6 93 0 0 66 0 22 125 0 71 164 9 65 150 0 12 110 0 0 103 0 37 104 0 109 101 128 130 79 170 87 32 104 27 12 89 0 28 85 54 76 114 82 22 142 117 82 137 190 193 92 243 255 152 235 255 155 222 217 61 123 59 33 19 31 55 68 144 60 75 115 90 106 108 135 154 149 201 195 186 255 205 214 255 193 213 255 163 161 255 92 122 255 16 100 255 4 81 255 0 14 130 0 16 42 0 50 0 0 98 40 156 227 255 161 164 255 157 113 255 37 0 136 0 0 102 0 0 113 42 0 132 57 3 41 97 125 80 146 255 161 134 255 178 168 255 226 235 255 255 172 193 250 35 67 130 22 89 119 24 90 129 39 34 166 127 76 255 137 174 255 197 255 255 201 255 255 217 255 255 255 229 255 255 202 255 236 240 255 212 255 255 99 113 198 53 58 164 98 58 255 132 112 255 67 139 129 88 173 145 100 124 234 134 158 255 224 241 255 221 255 255 212 255 191 198 255 255 194 255 255 197 255 255 142 163 172 218 146 197 224 112 210 255 59 255 255 44 255 255 8 147 211 0 84 178 0 90 178 0 74 193 0 57 223 0 85 125 21 122 73 64 169 21 69 183 85 169 219 156 181 223 164 138 225 161 154 236 141 149 186 122 161 146 144 235 169 115 196 131 85 219 134 59 255 188 5 247 122 49 237 138 87 242 160 114 167 101 198 208 125 160 220 74 192 199 73 235 216 84 156 205 63 186 241 128 151 196 83 120 234 98 130 222 133 139 230 175 129 226 171 146 216 157 158 202 95 123 188 82 183 199 148 189 169 146 238 183 151 183 151 82 141 151 51 75 105 7 60 98 7 122 105 49 99 61 34 81 123 71 39 114 25 69 92 13 130 94 58 167 28 71 255 0 126 255 0 255 255 0 255 255 0 255 255 0 255 255 0 255 255 0 255 255 0 255 255 0 255 240 10 255 243 44 239 228 41 194 235 68 195 216 85 193 146 81 187 98 105 207 62 118 225 57 99 215 135 75 255 145 85 255 136 90 255 116 109 255 62 101 255 17 72 255 89 81 255 75 106 255 72 124 255 139 129 255 129 104 255 112 71 255 162 101 255 119 137 135 82 158 61 142 179 139 132 124 149 136 125 179 111 151 198 83 132 202 158 145 255 177 118 255 136 107 255 139 160 239 99 157 191 155 166 200 150 130 239 84 102 242 96 164 177 121 189 164 169 192 240 169 171 255 133 145 255 120 174 255 109 185 160 98 194 194 92 171 226 100 159 231 105 154 232 125 174 159 126 179 74 148 171 111 200 199 167 226 209 205 197 184 239 184 166 255 165 149 255 145 144 255 172 156 255 181 152 255 190 144 255 214 124 255 255 129 255 255 125 255 255 81 255 255 74 254 255 98 151 255 134 111 255 193 106 255 187 62 255 166 153 239 173 145 
128 97 117 37 67 17 0 24 14 0 22 143 8 57 86 42 75 42 25 63 0 0 32 0 41 45 0 26 35 90 28 65 7 35 73 0 4 34 0 31 54 58 73 44 202 99 28 255 74 70 119 42 134 99 7 83 108 0 65 123 0 49 94 0 39 0 0 81 0 29 51 0 113 11 63 88 2 89 50 66 67 14 91 11 20 62 28 67 50 91 73 57 131 93 60 117 105 112 66 51 26 0 42 0 10 7 0 46 26 87 83 27 75 27 129 201 165 114 125 169 73 55 145 66 70 112 28 0 0 51 0 0 22 0 0 26 21 14 206 219 205 255 243 224 255 218 208 255 213 255 203 155 255 11 16 207 0 16 255 0 35 255 0 55 255 0 58 222 0 80 177 0 30 134 55 51 100 37 52 0 46 81 0 42 111 0 47 109 0 87 106 72 99 159 145 96 97 127 80 77 160 58 76 164 103 92 122 255 251 212 255 247 208 255 245 255 177 255 158 0 161 0 0 98 0 0 93 0 0 156 105 0 123 163 0 118 31 0 179 39 0 184 137 38 159 190 148 82 255 46 0 228 62 0 255 74 77 255 43 39 255 136 65 255 75 0 255 8 0 225 0 5 253 0 31 230 48 36 196 83 46 112 102 49 19 109 13 0 0 101 0 0 87 0 0 43 109 0 46 165 32 89 94 143 118 37 85 74 0 104 22 30 163 0 170 112 0 110 100 22 32 77 18 0 0 4 34 0 88 124 0 91 130 0 128 93 0 133 34 0 92 112 6 72 198 0 77 218 0 112 184 72 102 124 166 97 67 193 104 74 182 112 75 221 224 143 189 238 64 210 187 0 178 108 0 90 9 0 165 96 79 146 81 49 156 90 16 172 64 3 178 0 228 182 0 255 180 45 247 80 15 133 25 41 102 0 50 179 0 67 255 72 178 255 92 136 219 11 122 225 0 31 148 0 11 207 0 10 225 0 43 127 0 0 77 0 109 116 0 161 136 13 187 140 0 145 124 0 153 103 144 100 77 74 118 139 0 91 164 0 61 153 0 3 102 0 0 90 14 0 85 0 23 184 48 152 255 109 155 229 142 97 186 64 0 165 0 0 171 0 0 145 0 8 67 0 21 15 11 0 92 71 32 199 0 42 129 5 102 123 48 99 116 41 31 92 159 106 242 151 117 243 91 179 215 119 191 251 110 94 214 136 78 213 90 107 224 52 118 208 46 131 225 67 99 230 121 96 255 142 102 255 83 88 255 5 40 234 20 46 215 54 90 190 134 177 198 149 203 155 183 180 99 255 150 64 255 111 138 255 96 255 255 62 255 255 15 255 255 53 255 255 58 255 255 47 255 255 85 255 255 88 74 196 189 0 147 215 0 135 220 107 165 249 167 129 222 147 174 172 255 170 153 255 175 160 255 175 186 255 177 242 174 196 215 86 208 211 94 181 237 0 159 211 0 114 183 0 104 184 0 228 217 0 171 226 0 176 255 36 95 224 0 95 184 0 179 210 0 216 161 0 218 180 0 172 191 0 135 143 0 205 213 0 131 161 0 94 163 0 91 220 90 0 154 24 0 145 26 0 147 98 28 81 147 128 117 255 161 144 247 46 56 35 78 101 71 112 101 105 118 98 148 170 146 255 104 91 169 88 123 139 59 136 118 49 84 30 115 100 5 136 114 0 142 184 8 91 220 80 65 183 145 72 131 151 144 151 210 164 173 255 130 143 233 124 157 220 22 44 108 37 26 132 127 137 212 108 123 164 120 142 180 131 164 217 119 112 255 199 86 255 255 143 255 255 106 186 207 43 180 182 25 216 255 80 255 255 136 255 246 195 255 153 182 255 95 178 255 108 191 135 189 214 82 255 255 82 167 189 0 147 157 12 110 132 0 29 116 0 75 192 211 52 214 255 46 200 255 133 214 232 149 208 174 229 233 184 255 205 255 187 73 255 155 39 175 188 106 202 164 184 255 182 226 241 31 104 29 0 20 37 0 18 15 46 75 219 124 139 255 115 153 255 188 195 255 158 117 255 235 130 255 255 180 126 202 184 106 160 221 78 158 230 70 148 226 118 41 163 94 0 117 164 0 82 239 43 0 62 159 9 9 158 0 0 178 0 0 200 0 0 178 0 0 195 0 0 158 0 0 127 4 0 131 4 0 4 37 0 
61 30 50 56 86 36 19 73 63 19 57 178 0 17 46 12 45 12 26 64 1 15 54 0 125 129 57 151 160 215 235 255 214 240 255 171 239 255 221 185 208 212 79 50 208 22 0 193 0 0 42 10 102 67 24 100 125 0 68 126 0 42 87 0 44 0 0 83 0 42 64 0 121 19 71 105 19 106 30 46 47 18 95 15 25 67 33 81 64 105 123 107 181 255 230 255 255 255 216 255 252 210 255 231 255 185 165 224 129 190 186 31 79 31 0 63 27 0 0 42 2 0 74 63 67 109 90 61 0 111 56 0 77 53 3 29 24 17 24 37 23 85 40 21 108 0 0 70 0 30 14 0 138 0 0 170 0 24 255 63 144 255 142 255 255 82 255 255 81 255 255 203 255 255 17 13 62 44 59 0 86 121 0 27 96 0 28 90 0 19 38 4 0 47 33 56 57 87 47 44 127 0 0 83 45 34 64 55 28 0 129 89 50 128 103 123 60 167 41 26 234 2 0 212 0 0 148 0 0 137 86 0 103 143 0 117 30 0 162 22 0 141 94 0 68 99 99 33 255 123 14 255 84 0 255 48 51 255 0 0 230 18 0 225 64 0 255 44 0 255 45 63 255 50 84 255 31 19 179 79 42 108 160 107 77 182 86 57 17 180 51 0 198 103 0 133 199 0 84 203 15 72 77 26 1 0 19 8 0 74 0 0 210 15 217 188 43 186 172 94 104 151 92 66 0 17 47 0 117 153 0 196 235 0 242 207 16 255 159 0 123 143 0 5 131 0 44 185 26 168 240 228 255 255 255 211 181 175 86 56 53 0 0 7 10 0 0 34 0 42 19 0 119 49 0 169 88 47 159 90 73 164 99 67 155 89 15 158 50 0 180 0 230 182 0 255 149 14 216 108 43 161 88 104 165 0 61 190 0 77 255 25 131 255 48 92 175 0 92 195 0 79 196 13 125 255 34 151 255 106 255 255 120 113 203 0 150 157 0 172 147 0 149 102 0 160 139 27 187 137 141 97 74 75 119 140 26 152 225 0 78 170 36 86 185 123 129 229 139 101 210 43 77 238 35 139 255 152 198 255 230 185 255 207 130 255 79 52 255 0 0 145 37 88 147 148 217 211 219 199 255 246 207 255 92 154 241 69 166 187 104 155 172 89 79 140 122 69 205 109 75 201 121 209 245 175 247 255 175 159 255 255 222 255 224 241 255 198 255 255 108 193 255 66 98 229 160 135 255 181 141 255 169 174 255 99 134 255 102 128 255 108 144 244 78 121 142 79 133 85 63 60 0 136 0 0 255 7 34 255 17 210 255 123 255 255 112 255 255 113 255 255 31 255 255 0 255 255 0 234 255 53 39 213 206 0 135 203 0 140 225 112 91 175 93 93 186 111 220 218 255 116 99 255 172 157 255 179 190 255 164 229 161 221 240 111 218 221 104 193 249 0 169 221 0 238 255 28 170 250 0 205 194 0 186 241 0 5 164 0 42 171 0 27 116 0 39 70 0 193 138 0 221 183 0 197 216 0 198 206 0 178 186 0 200 230 0 185 254 0 123 252 122 33 255 132 0 254 135 47 217 168 153 206 255 192 181 255 183 166 255 175 185 164 157 180 150 171 160 164 170 150 200 130 106 216 124 111 189 98 133 149 37 114 96 79 114 60 121 106 11 142 120 0 122 164 0 12 141 1 34 152 114 75 134 154 104 111 170 124 133 224 48 61 151 57 90 153 89 111 175 100 89 195 110 120 195 101 116 157 95 117 155 159 192 245 203 196 255 255 196 255 255 199 255 255 188 255 250 86 223 209 52 243 232 44 255 245 67 255 168 117 200 67 96 255 57 140 222 105 188 132 118 143 11 213 217 33 255 255 83 169 179 34 183 205 46 50 137 18 58 175 194 61 223 255 28 182 240 100 181 199 120 179 145 190 194 145 207 141 235 216 102 255 226 110 246 196 114 210 159 179 252 131 175 190 212 255 210 200 255 255 212 255 255 218 247 255 218 233 255 129 167 255 119 126 255 182 141 255 231 126 255 227 145 91 189 171 93 178 239 96 155 227 67 159 237 129 133 255 186 75 231 255 117 215 255 213 135 232 255 134 134 255 119 141 255 144 53 255 132 0 255 127 0 255 162 0 255 194 4 255 210 0 255 181 0 202 235 0 
152 46 0 57 0 0 4 0 70 27 35 50 16 34 34 16 63 91 0 72 163 0 41 171 0 52 96 0 85 0 50 55 0 126 95 55 148 105 85 61 47 68 0 44 93 0 0 85 0 29 94 0 29 157 97 107 255 73 114 255 28 52 255 20 0 243 0 0 225 23 9 255 125 31 255 134 98 255 101 90 134 0 12 0 0 28 0 101 51 98 185 74 217 144 158 255 214 255 255 211 255 255 225 255 255 196 155 255 89 91 255 0 63 2 0 47 0 42 90 46 51 66 39 22 44 37 10 92 22 32 117 4 240 255 242 232 251 255 228 244 255 208 243 255 147 255 255 158 255 255 200 203 255 199 158 255 152 94 255 121 0 255 93 0 171 164 26 123 167 6 51 121 22 12 0 21 0 0 15 0 0 9 19 0 49 17 0 41 30 0 67 14 0 70 0 13 109 59 20 79 73 0 130 53 47 133 72 0 61 0 0 73 0 40 84 141 14 58 145 55 103 101 60 112 75 2 73 19 11 83 73 13 10 131 36 0 85 86 0 6 95 9 0 55 57 0 4 55 0 55 60 41 85 41 0 233 83 8 250 77 23 254 0 67 179 0 52 224 0 138 255 131 255 255 157 255 255 189 255 255 228 255 182 169 211 136 128 101 83 48 58 88 60 123 130 122 159 132 102 78 94 65 19 26 0 0 47 10 0 126 0 25 147 21 0 100 14 0 93 36 0 85 20 28 84 29 74 155 0 99 165 0 80 221 0 67 255 0 69 247 0 99 217 0 106 179 0 29 178 0 0 219 0 94 180 0 186 115 2 255 101 0 255 99 0 255 83 16 255 58 91 255 27 61 255 18 84 255 59 125 255 6 83 255 86 79 255 108 114 224 0 92 46 11 131 22 54 78 14 115 26 16 238 90 154 176 56 157 10 59 148 0 62 165 0 81 155 0 114 181 6 179 236 14 94 193 0 43 167 0 69 197 89 68 193 200 64 250 255 105 255 236 68 253 80 47 184 0 54 170 34 57 173 112 138 239 215 255 255 239 242 255 224 247 255 231 226 255 255 207 255 157 135 255 0 0 246 52 57 255 62 103 255 56 76 255 94 129 255 0 125 115 0 133 146 116 191 198 152 166 162 188 173 190 122 164 234 67 206 255 106 204 159 205 170 66 255 208 142 249 255 255 197 255 255 182 255 237 242 251 255 240 130 255 211 100 255 116 125 255 123 131 218 128 114 159 120 90 224 239 73 255 255 0 196 255 34 154 255 89 197 255 154 255 255 153 255 255 164 255 255 188 130 255 208 28 255 216 52 255 196 140 196 159 119 168 160 198 173 142 255 157 67 255 197 94 255 251 211 255 200 217 255 195 170 255 214 185 255 108 162 249 108 224 209 66 255 152 85 224 153 126 201 206 129 221 172 140 220 57 202 194 39 214 182 70 212 153 135 227 162 208 189 169 255 133 151 255 115 178 255 57 194 255 93 236 255 55 193 255 23 78 255 72 0 255 92 0 161 122 0 154 115 13 100 166 115 142 189 163 137 141 170 104 63 171 38 66 223 60 130 230 180 249 249 255 255 142 233 245 154 219 147 153 127 78 139 58 196 255 234 133 227 163 208 255 180 191 255 198 152 255 127 170 255 116 166 120 92 137 0 9 175 0 0 178 0 0 178 0 0 199 0 0 255 9 25 255 28 44 255 86 79 179 61 9 154 113 69 128 143 98 110 105 97 104 142 143 65 124 114 104 105 113 105 93 153 85 73 209 102 104 229 76 146 228 52 169 200 21 116 132 35 102 185 139 172 255 128 173 206 139 213 234 97 118 187 112 69 189 166 142 255 143 156 255 152 188 255 147 199 255 182 159 255 255 164 255 255 189 255 189 178 255 102 118 255 0 42 236 0 9 125 0 0 81 0 44 88 0 122 129 101 183 129 153 207 133 141 158 140 196 182 193 161 166 173 119 158 149 153 141 255 107 102 244 155 173 255 127 161 255 141 172 255 176 175 255 144 132 255 164 206 136 140 200 54 156 190 118 182 186 157 199 192 151 200 209 168 130 243 43 118 225 255 109 188 255 145 182 255 185 169 255 201 130 255 231 103 255 255 92 255 255 92 255 229 98 66 197 98 53 230 149 118 255 161 148 232 153 204 80 97 119 0 11 0 8 0 44 
198 92 0 57 0 0 9 0 75 80 88 103 104 122 122 87 134 162 0 70 161 1 132 255 39 198 242 101 188 88 118 123 42 33 2 0 93 50 30 56 42 63 0 51 100 5 33 120 45 78 143 203 233 255 221 231 255 198 239 255 162 186 255 104 56 255 27 30 255 105 91 255 84 0 255 36 0 210 52 41 85 9 38 8 38 95 0 151 101 148 137 26 169 90 104 207 124 175 219 211 255 255 225 255 255 255 214 255 231 233 255 81 159 98 115 186 98 82 130 86 61 76 49 173 195 188 205 255 217 208 255 180 240 255 242 125 144 224 32 48 183 89 124 255 0 92 255 38 143 255 23 26 255 0 0 225 19 0 235 125 0 255 127 0 205 107 0 66 136 0 20 70 0 0 23 53 0 39 69 13 5 40 50 0 86 54 0 52 41 0 80 27 0 95 0 30 126 76 183 242 236 137 255 240 201 255 226 218 255 191 145 220 131 217 255 255 214 255 255 221 255 255 204 255 219 49 120 66 11 83 73 35 32 153 36 0 85 160 61 80 146 60 33 114 116 39 10 61 0 30 35 16 202 158 117 255 218 143 255 209 155 255 167 244 255 62 214 251 0 165 178 0 79 178 0 37 146 0 92 77 20 103 84 71 113 27 19 0 47 12 22 97 69 132 114 106 143 225 195 171 168 139 93 61 30 0 44 7 0 187 61 86 225 99 50 217 131 20 167 110 27 212 147 155 255 233 255 255 193 255 255 178 255 255 85 176 255 21 94 251 0 103 192 0 81 178 0 28 194 0 8 255 7 161 213 2 219 142 29 255 185 71 255 255 143 255 255 203 255 204 237 255 203 237 255 63 129 255 1 67 255 32 109 255 88 81 255 76 82 192 3 104 58 27 147 38 72 96 32 170 81 71 169 21 85 119 0 100 46 95 184 0 89 192 0 96 170 9 152 219 0 135 192 0 73 172 15 103 227 0 56 184 88 67 192 198 62 248 204 39 244 184 16 201 89 56 193 21 80 196 74 97 213 110 136 237 110 150 249 114 117 236 40 63 191 41 36 255 31 0 249 0 0 228 28 41 255 34 39 255 3 44 255 63 83 255 45 80 218 0 147 137 15 173 186 54 129 136 124 138 134 161 146 163 111 153 223 64 203 254 95 193 148 204 169 65 218 153 87 142 148 158 99 177 203 77 190 132 133 142 195 200 90 255 205 94 255 106 115 255 110 118 205 129 115 160 140 110 244 255 121 255 255 76 255 255 76 196 255 79 187 255 56 210 255 74 232 255 67 158 255 108 50 255 77 0 255 66 0 255 144 88 174 137 97 189 181 219 166 135 255 156 66 255 210 107 255 168 128 255 142 159 241 154 129 255 164 135 255 151 205 255 105 221 206 95 255 181 101 240 169 110 185 190 112 204 155 110 190 27 190 182 27 196 164 52 192 133 115 232 167 213 212 192 255 181 199 255 123 186 255 70 207 255 40 183 255 78 216 255 140 195 255 143 67 255 199 28 255 225 68 255 252 150 237 255 236 255 255 250 224 242 255 205 194 255 169 163 255 157 190 255 240 249 249 255 255 208 255 209 118 183 40 46 20 29 90 9 107 186 145 134 228 164 67 152 39 47 154 54 49 210 24 151 254 97 255 244 216 255 116 157 255 69 159 205 0 0 178 0 0 255 11 0 255 29 45 255 176 192 255 187 180 255 225 173 255 216 172 101 116 71 117 112 104 201 239 240 62 121 111 137 138 146 152 140 200 76 64 200 100 102 227 115 185 255 132 249 255 186 255 255 157 224 255 83 116 235 57 102 135 77 151 172 124 145 214 179 136 255 150 126 255 97 110 255 140 176 255 84 136 255 163 140 255 236 102 255 193 117 255 150 139 255 105 121 255 115 180 255 94 169 255 135 151 238 54 160 204 32 161 168 117 199 145 134 188 114 150 167 149 176 162 173 172 177 184 146 185 176 176 164 255 130 125 255 95 113 235 112 146 255 133 164 255 128 127 255 93 81 241 21 63 0 18 78 0 79 113 41 122 126 97 165 158 117 247 255 215 194 255 107 158 255 255 90 169 255 93 130 255 147 131 255 181 110 255 255 147 255 255 143 255 255 166 255 255 158 126 198 99 54 74 0 0 89 0 0 49 0 21 73 90 112 132 165 152 202 181 238 
0 77 170 0 55 227 0 65 217 0 98 109 0 92 57 0 102 188 0 124 255 0 122 255 0 86 255 0 72 250 0 56 245 0 0 244 27 0 255 28 0 255 52 33 255 116 0 255 180 0 227 173 0 225 41 0 250 58 139 255 116 255 255 83 255 255 75 255 255 75 255 255 5 255 80 0 217 0 0 135 0 0 135 0 0 237 0 0 246 0 75 255 0 101 190 0 45 87 0 97 80 0 80 40 0 63 4 56 243 0 149 215 0 128 136 0 59 181 5 92 153 47 141 189 101 233 212 120 147 86 56 70 112 46 69 162 5 38 188 17 127 106 0 52 70 0 0 130 67 0 136 98 0 79 229 0 0 224 8 0 165 0 0 112 0 0 93 0 0 156 113 0 170 80 138 176 165 199 90 109 213 54 108 214 99 126 76 81 37 8 100 39 0 28 0 28 0 0 47 44 13 39 67 4 0 72 10 0 82 65 24 0 114 99 0 250 83 4 255 24 44 255 0 44 255 40 41 255 59 0 255 55 0 142 60 72 0 27 69 0 49 55 17 75 29 54 74 0 0 99 5 7 24 17 73 24 37 190 45 20 239 59 69 171 0 67 93 0 59 178 0 58 231 0 0 233 38 0 255 7 0 248 0 17 255 9 14 255 102 0 255 129 0 255 66 14 255 4 49 244 0 32 84 9 0 5 66 0 54 45 7 42 12 90 0 9 123 0 35 59 0 78 47 0 0 12 0 31 102 56 33 142 75 39 101 40 60 63 44 4 0 31 0 41 59 11 104 45 0 68 0 0 66 6 0 34 43 20 98 114 39 150 96 30 134 0 12 58 0 52 4 50 80 13 79 91 43 71 154 109 74 150 111 32 100 79 134 90 80 251 74 58 153 117 71 130 99 65 111 85 73 125 86 103 184 55 99 160 70 117 33 53 108 0 0 101 0 32 129 25 24 124 37 0 113 48 46 129 97 40 91 124 69 92 210 81 92 246 69 86 204 91 126 255 65 59 223 121 27 187 144 18 157 143 15 164 121 20 170 178 38 221 255 55 246 255 55 155 255 129 255 255 57 255 255 136 255 255 138 255 255 142 255 255 85 232 207 0 61 132 0 135 63 15 183 157 131 255 163 173 255 166 199 255 194 218 255 255 196 255 255 179 255 236 139 255 114 123 114 45 79 14 174 143 160 255 168 255 255 122 255 169 129 255 103 149 255 173 181 255 255 224 255 255 181 255 255 206 255 233 247 255 161 223 255 222 210 255 204 128 248 180 128 250 120 224 255 0 255 209 8 255 196 0 252 245 60 255 255 0 241 228 0 221 185 0 138 81 0 85 30 0 71 102 0 107 107 0 245 183 54 255 255 3 255 250 0 250 255 0 180 210 25 255 240 27 255 194 0 255 196 12 255 229 0 192 138 0 152 82 0 197 99 79 185 73 127 134 52 207 157 144 201 122 155 213 117 167 255 125 215 255 138 247 233 113 255 185 169 255 78 172 255 44 248 255 5 196 255 87 97 255 153 164 255 137 153 255 210 221 237 242 188 200 255 127 146 255 83 125 202 175 132 103 255 131 109 255 96 176 255 12 222 202 0 99 132 0 98 212 0 160 236 0 228 187 0 255 189 0 255 135 0 255 184 0 228 190 176 181 189 226 146 182 222 142 208 208 134 163 181 17 193 179 53 247 255 154 255 240 186 255 139 217 255 104 255 255 109 160 149 9 5 51 0 41 204 0 6 255 0 51 255 0 29 255 0 84 139 0 148 189 0 108 176 0 142 177 0 224 175 86 170 79 168 229 118 164 199 189 246 86 240 228 133 240 255 124 135 255 41 29 231 29 27 102 81 80 100 134 133 135 194 119 208 255 8 202 255 92 107 255 115 123 255 163 255 255 155 255 255 139 255 255 102 255 183 0 185 84 45 202 116 129 255 109 255 255 83 255 255 18 255 255 0 227 255 0 183 194 90 255 255 108 255 255 193 255 255 255 124 255 255 57 255 255 33 255 224 0 255 160 0 255 110 0 251 213 51 255 159 66 255 0 52 255 0 0 225 0 0 225 12 0 93 99 21 118 86 0 81 0 0 44 0 45 24 0 44 31 0 9 37 30 0 40 63 0 17 123 72 93 144 152 166 243 190 198 246 118 129 209 117 140 171 164 144 43 153 218 
142 255 255 165 255 255 61 208 255 0 74 85 0 82 47 0 109 195 0 113 255 0 188 255 0 205 255 0 191 255 0 181 255 71 67 255 13 0 243 16 0 243 0 0 237 108 0 255 255 28 255 255 0 255 155 86 255 24 105 255 0 57 255 0 66 248 0 92 197 0 113 68 0 151 0 0 210 0 0 154 0 0 160 0 0 210 0 0 160 0 0 135 0 0 88 0 27 69 0 131 114 0 255 230 0 255 231 255 255 149 255 255 148 255 255 106 238 202 26 113 147 41 135 46 0 90 61 0 0 19 0 3 43 0 0 106 0 0 107 0 46 123 2 69 88 13 0 92 29 0 67 29 0 0 88 0 0 201 0 0 155 0 0 185 0 61 255 130 122 255 242 122 255 234 139 177 166 161 52 71 129 0 24 111 0 23 46 51 7 0 68 7 48 85 17 191 159 109 255 255 226 242 255 207 189 255 231 148 239 222 125 76 215 126 0 255 84 5 255 4 24 255 0 27 255 0 0 238 30 0 233 104 15 191 62 74 0 55 97 0 16 22 0 60 14 39 99 19 16 104 10 12 25 18 74 2 15 168 65 40 255 35 45 147 6 102 128 0 95 214 0 101 255 20 51 255 28 0 252 0 0 238 0 30 255 44 49 255 86 0 255 91 0 255 14 0 234 0 31 226 16 58 110 148 132 144 255 227 255 255 239 255 211 255 192 121 235 14 87 111 0 33 2 0 4 31 0 5 76 30 59 168 101 83 145 84 55 58 39 5 0 32 0 12 30 0 83 24 37 130 11 4 76 16 2 54 63 0 46 62 0 104 50 76 180 19 144 190 80 224 176 222 198 131 197 189 141 169 130 85 50 74 35 0 13 0 47 41 31 202 132 116 211 223 177 236 143 109 155 36 24 76 0 0 76 0 6 67 0 23 0 0 29 0 0 44 0 0 80 0 0 58 0 79 193 128 72 155 123 51 102 135 163 186 255 142 153 255 208 225 255 214 249 255 240 234 255 255 208 255 255 172 255 155 27 176 91 0 140 184 44 227 255 77 255 255 66 166 255 31 189 255 0 245 240 0 205 241 0 197 255 0 190 218 0 87 255 67 193 236 54 239 62 14 182 66 40 255 48 58 255 130 163 255 187 211 255 255 197 255 255 187 255 255 208 255 180 189 180 53 87 22 110 79 96 213 86 203 255 124 255 175 135 255 88 134 244 139 147 255 216 162 255 255 170 255 170 67 220 114 128 231 45 107 142 101 89 149 219 143 255 167 115 237 108 212 255 17 255 232 20 255 208 0 222 215 0 128 164 0 197 184 0 245 209 74 255 255 75 255 255 0 251 255 0 233 233 0 199 137 0 202 159 0 220 209 0 222 230 66 255 255 30 255 245 1 255 168 38 255 237 0 255 212 23 255 234 20 255 217 0 255 170 134 240 128 171 178 96 202 152 139 214 135 168 249 153 203 255 126 216 255 110 219 220 100 255 130 114 255 78 172 255 0 203 255 15 206 255 142 152 255 147 158 255 157 173 255 182 193 209 209 155 167 255 113 132 255 113 155 179 152 109 38 207 66 23 188 10 132 219 0 238 218 0 201 234 0 129 243 0 137 213 0 253 212 0 255 199 0 255 163 0 255 162 0 206 168 154 176 184 221 128 164 204 93 159 159 128 157 175 81 255 243 78 255 255 61 216 147 52 178 5 41 127 0 136 153 0 197 186 46 82 128 0 31 194 0 0 218 0 60 255 0 120 255 37 247 255 28 252 255 63 145 213 0 132 167 0 184 135 46 182 91 180 204 93 139 142 132 189 53 207 195 66 173 203 112 123 255 117 105 255 116 114 189 159 158 178 148 147 149 187 112 201 255 42 236 255 34 49 255 55 63 255 44 137 255 41 185 255 58 255 255 68 255 255 81 255 182 143 255 141 154 255 30 183 255 16 250 255 6 246 255 0 232 255 0 246 255 13 188 243 11 171 235 111 173 255 255 46 255 255 16 255 255 39 255 255 20 255 255 60 255 255 125 255 252 90 255 197 104 255 139 191 255 84 94 255 95 69 255 87 50 168 67 0 86 140 33 135 67 58 111 0 129 108 63 207 194 221 255 255 255 212 255 247 148 201 200 149 170 147 155 169 253 200 208 255 163 174 218 126 149 194 187 167 92 202 255 
191 255 212 189 255 178 237 255 111 136 90 29 94 106 140 83 120 140 104 162 99 34 85 38 74 21 81 70 0 157 0 19 171 0 64 95 53 19 81 126 3 134 130 0 229 80 0 248 69 12 255 0 12 172 21 0 79 29 63 122 0 63 166 24 94 168 47 103 50 6 40 0 66 65 0 86 39 0 158 31 150 214 31 189 216 17 160 137 0 139 156 37 195 255 176 255 255 136 255 255 153 255 255 170 235 255 190 255 255 186 255 255 198 255 255 236 255 231 255 178 35 147 0 0 0 30 0 2 31 28 82 42 118 107 67 135 68 12 136 55 0 173 138 58 203 255 219 189 255 235 221 255 255 255 149 207 180 0 121 151 0 167 255 41 255 255 120 255 255 124 255 255 134 255 255 207 255 172 255 255 0 172 255 0 55 184 0 76 124 0 164 11 0 173 69 0 239 129 63 255 241 75 255 239 123 255 226 151 215 107 52 55 0 31 1 0 75 44 0 106 60 0 103 55 0 92 113 0 123 189 0 175 255 129 104 255 114 44 255 165 0 181 126 0 62 22 0 10 21 0 0 51 28 45 67 51 42 57 141 17 203 199 0 136 140 0 50 120 34 121 197 57 196 255 145 255 255 148 255 255 171 219 255 159 89 255 42 8 255 117 104 255 139 187 255 50 113 157 5 32 107 0 0 65 0 0 50 0 30 79 20 160 109 94 209 236 167 234 255 217 226 255 199 221 255 162 201 135 166 162 79 128 147 114 114 176 194 127 193 233 69 180 102 106 131 0 106 85 0 43 82 55 31 79 139 107 54 117 87 0 80 146 22 105 152 174 197 74 255 255 124 255 255 158 255 255 53 249 255 92 255 255 133 255 255 129 255 255 142 255 255 148 255 255 157 255 255 158 255 255 152 255 255 54 255 190 0 134 240 0 122 255 50 182 215 21 228 255 87 255 255 54 255 255 132 255 255 156 255 255 124 255 255 125 255 255 94 255 255 7 178 233 0 113 254 0 150 182 21 188 88 134 122 7 212 97 0 190 163 0 178 255 17 110 251 92 120 255 113 229 255 152 255 255 186 255 255 186 240 255 97 177 238 142 236 236 87 255 240 85 216 232 181 163 249 118 65 141 76 93 135 63 181 255 0 216 255 0 129 255 0 47 225 0 47 225 0 61 154 0 62 106 0 36 99 0 19 70 0 22 31 0 7 47 0 14 111 0 16 193 0 50 209 0 105 180 0 141 161 0 160 153 1 158 161 48 225 255 110 255 255 112 255 215 148 255 255 58 233 212 17 233 210 4 231 255 0 220 234 0 183 255 25 180 255 173 127 255 224 94 255 255 126 255 255 70 255 255 59 255 255 98 255 220 102 255 160 178 255 163 132 255 131 112 255 74 90 255 96 96 255 174 180 208 255 210 187 255 172 75 253 216 0 146 233 0 190 217 0 255 165 28 255 84 179 255 98 207 151 192 161 80 228 140 80 200 200 118 198 247 41 254 74 0 255 0 0 255 0 6 210 0 89 184 96 217 130 124 248 185 202 190 223 190 125 199 150 154 197 179 180 167 101 255 160 66 208 197 75 100 252 43 81 255 25 136 255 120 131 149 123 166 150 103 87 118 11 0 87 0 11 43 0 96 0 23 179 0 151 184 87 188 95 136 140 128 238 241 184 230 255 255 166 255 255 219 255 145 215 235 128 213 228 136 164 255 116 156 255 27 183 255 0 228 253 0 164 133 56 111 163 185 154 255 206 168 255 255 212 255 255 115 235 255 130 255 165 112 216 129 148 236 161 182 213 108 90 138 170 134 255 127 154 211 91 161 172 189 200 255 178 153 255 144 121 226 104 91 169 74 147 90 121 226 135 200 232 235 255 244 255 186 182 203 108 131 137 0 33 85 0 10 100 96 115 247 110 128 252 145 181 255 225 250 255 173 175 255 149 170 255 151 168 255 121 111 255 164 116 255 217 154 255 165 104 255 189 149 255 182 142 255 114 109 255 117 145 255 126 167 255 124 163 255 103 184 218 84 169 188 88 156 131 167 189 182 219 189 177 255 206 231 230 144 197 203 79 145 255 130 165 255 180 140 247 208 137 228 197 139 218 208 97 165 196 78 134 210 126 88 249 108 85 220 26 128 214 0 118 255 0 9 184 0 0 130 0 0 87 0 
0 67 0 0 73 0 7 34 0 70 24 0 21 33 67 55 92 112 130 188 125 224 255 228 255 232 255 255 195 255 64 87 239 0 27 58 16 0 44 71 0 79 67 0 166 44 0 212 9 0 217 0 0 145 14 0 72 0 3 62 0 17 120 0 58 132 51 107 54 99 133 6 138 137 0 40 0 0 76 0 68 110 0 85 145 0 89 161 0 163 111 0 150 186 2 208 232 0 203 255 0 139 255 108 173 255 110 178 226 45 170 155 16 145 73 21 47 5 55 0 0 50 0 0 0 30 0 2 31 0 20 0 12 1 0 53 0 0 160 79 22 226 191 111 151 236 167 87 190 133 0 21 13 104 0 25 126 0 67 193 0 209 218 0 255 225 0 255 255 0 255 255 99 255 255 207 255 172 255 255 38 211 255 2 237 255 0 222 255 0 251 98 0 179 75 0 94 0 0 91 0 0 94 0 0 72 0 0 31 0 9 12 0 32 2 0 82 51 0 116 70 0 84 36 0 28 49 0 0 60 0 0 79 0 0 117 0 0 138 7 0 74 19 0 69 29 23 62 73 44 66 117 17 34 56 50 41 56 90 0 152 220 0 157 196 0 106 95 9 96 127 0 126 255 0 192 255 136 255 255 171 219 255 190 120 255 184 150 255 111 98 255 106 154 255 93 156 255 199 226 255 208 210 255 183 168 215 133 195 48 0 129 67 52 167 206 137 204 255 212 221 255 199 221 255 186 225 126 157 153 50 99 118 20 20 82 39 0 38 136 0 83 72 76 101 69 180 159 210 255 255 255 242 255 255 251 198 255 255 146 132 198 74 64 111 133 173 50 251 237 16 205 197 11 160 255 7 203 255 0 204 255 0 245 255 5 255 234 0 167 249 0 152 255 0 123 251 0 103 255 37 200 255 0 213 255 0 199 255 0 150 255 106 238 255 173 255 255 166 255 255 131 255 255 74 255 255 35 255 238 0 255 255 0 255 255 0 222 255 7 178 255 0 158 255 0 157 190 29 196 70 116 104 0 160 45 0 218 191 0 164 255 65 158 255 124 152 255 55 171 208 84 212 248 98 171 255 109 163 255 113 193 254 87 181 181 37 214 190 55 186 202 156 138 224 187 134 210 121 138 180 21 139 215 0 218 255 33 255 255 16 243 255 0 179 255 0 64 157 0 180 224 48 194 255 138 223 255 170 249 255 128 168 208 131 216 255 63 186 255 0 225 255 3 247 255 0 227 247 42 255 255 30 187 190 0 169 211 33 250 183 68 248 171 121 255 255 63 238 217 6 222 199 0 190 255 9 255 255 68 255 255 86 241 255 183 137 255 255 133 255 240 66 255 228 17 255 255 92 255 231 42 255 255 186 255 214 232 255 246 215 255 238 219 255 215 231 255 233 233 255 247 253 255 255 228 205 255 186 89 242 205 0 113 200 0 128 155 0 255 107 0 255 59 154 255 129 238 173 214 183 63 211 123 126 246 246 90 170 219 0 212 32 0 202 0 0 223 0 76 255 47 194 255 201 255 229 223 255 223 240 197 230 197 120 194 145 193 236 218 181 168 102 250 143 49 209 198 76 72 224 15 32 231 0 145 255 129 210 228 202 255 253 206 178 209 102 14 111 0 0 19 0 96 0 23 151 0 123 90 0 94 0 11 15 0 32 35 0 10 38 51 0 83 26 0 111 24 94 114 91 176 191 142 170 255 169 209 255 8 164 252 0 225 250 12 207 176 80 135 187 168 137 255 205 167 255 231 157 230 255 117 237 255 141 255 182 129 233 100 119 207 0 2 33 7 0 37 20 0 106 58 85 142 96 166 177 119 130 188 158 133 238 167 144 249 177 164 242 156 229 172 74 179 88 142 174 177 148 132 181 64 60 81 127 150 156 176 231 255 198 255 255 226 245 255 228 246 255 189 225 255 128 153 205 132 134 221 52 73 164 72 89 217 160 150 255 170 122 255 216 153 255 200 139 255 173 133 255 201 161 255 112 107 255 20 48 255 0 0 225 0 0 182 0 20 54 0 23 42 0 23 0 0 11 4 22 0 0 46 0 1 54 0 21 79 0 21 92 0 0 120 29 0 177 138 67 213 182 124 206 196 85 166 197 79 132 208 124 158 255 178 182 255 123 193 255 42 193 255 28 142 255 2 139 255 11 171 255 26 
42 143 25 121 116 10 135 53 41 20 17 46 0 34 23 0 18 0 90 7 0 107 5 119 51 0 175 60 92 255 0 64 198 19 48 130 49 0 86 50 3 159 30 60 74 58 111 175 84 117 246 133 83 231 255 205 255 255 226 255 226 237 255 241 233 255 61 32 146 16 0 24 0 6 0 14 63 58 75 159 139 53 159 85 0 77 146 0 31 84 14 61 23 29 16 0 73 38 4 65 30 0 14 1 77 8 10 81 11 8 0 0 23 0 5 60 51 85 114 254 86 123 255 46 38 255 78 32 118 25 0 95 7 0 166 8 0 189 30 34 208 0 88 79 0 124 23 7 124 0 112 72 0 104 83 0 85 81 8 132 33 3 217 0 21 235 0 74 207 0 99 210 0 230 204 0 251 206 0 130 218 0 80 255 4 113 255 146 255 255 162 255 255 162 255 255 212 255 53 126 206 0 2 81 24 0 41 148 33 80 115 18 135 100 21 39 84 0 0 92 0 0 178 0 0 237 0 0 232 0 27 230 0 27 255 0 79 229 0 114 245 0 173 228 0 241 138 0 250 62 6 255 110 130 255 164 251 255 225 255 224 255 255 136 201 255 0 144 192 0 76 86 0 61 0 0 151 0 45 140 31 84 94 29 73 108 8 94 8 0 49 34 16 50 120 37 35 92 91 0 42 153 125 0 150 65 0 117 18 25 120 114 128 0 109 70 0 145 0 34 199 48 129 46 121 140 63 93 85 94 86 40 99 0 25 0 0 128 1 62 79 0 89 32 0 46 0 0 23 14 55 7 118 64 0 152 62 0 127 37 0 90 7 0 75 199 0 135 202 10 255 211 0 238 148 0 193 125 37 216 147 176 255 216 231 255 99 253 255 125 239 255 244 152 199 195 54 110 57 105 154 51 181 123 74 148 35 95 41 52 109 0 14 65 0 0 136 0 0 216 0 0 225 88 31 255 21 123 255 0 126 195 10 112 162 117 121 196 195 138 193 204 103 255 100 78 255 0 22 251 0 19 255 107 57 255 133 108 255 71 116 255 3 82 255 9 73 255 68 60 255 117 77 239 149 118 255 69 78 245 79 104 255 56 84 182 0 54 106 0 146 242 12 187 255 42 220 244 82 255 255 69 230 244 103 231 255 194 250 255 248 212 255 208 135 255 130 71 209 29 0 102 39 0 74 65 0 99 65 0 143 71 0 46 182 131 64 255 255 173 255 253 219 210 157 225 66 7 135 135 62 104 191 111 212 255 143 255 255 93 255 255 18 233 255 83 153 255 66 0 255 60 0 173 0 0 116 0 0 0 41 0 1 236 179 26 255 255 0 212 255 0 178 255 0 199 255 0 236 255 5 255 255 0 215 229 56 255 255 163 255 127 229 255 120 255 214 172 111 97 38 192 208 106 241 152 194 220 81 222 209 198 255 143 120 255 141 134 172 178 90 128 255 110 208 255 205 238 255 255 102 233 255 67 212 255 101 118 101 119 93 0 14 70 50 39 0 18 0 7 2 0 88 26 53 148 20 129 255 43 39 255 118 130 255 44 109 255 85 97 255 91 126 255 41 89 255 92 75 255 77 13 255 43 0 255 199 43 255 255 95 193 255 115 133 255 70 51 142 0 0 39 0 0 19 0 0 8 0 37 68 124 153 117 237 255 119 255 145 177 255 74 128 255 82 129 255 98 138 255 144 121 255 255 197 255 235 253 255 207 255 212 255 238 77 255 201 36 255 138 5 119 62 0 86 170 60 42 222 75 32 176 90 24 238 188 0 207 169 0 194 151 0 231 190 0 211 194 0 152 141 0 159 169 0 209 255 0 202 255 0 240 255 0 174 175 0 175 107 49 246 163 87 239 255 117 255 255 161 255 245 105 188 194 97 156 186 153 133 219 71 0 173 43 0 81 28 0 134 0 0 225 0 0 197 102 77 180 172 145 212 188 157 221 200 176 214 187 201 156 182 167 36 207 149 37 150 76 125 136 60 255 183 149 255 255 187 255 255 146 255 252 36 161 255 55 185 234 111 206 255 219 147 255 244 155 178 185 93 72 214 90 0 227 67 0 144 0 0 43 0 56 0 0 161 0 0 178 0 0 202 0 54 255 0 159 255 2 207 255 61 243 237 117 192 219 184 228 105 238 239 60 248 248 131 234 255 72 168 204 
14 115 0 56 51 0 109 27 15 10 7 36 0 49 38 28 49 0 148 65 0 255 211 255 255 212 255 211 243 255 176 255 255 89 118 200 62 0 99 15 0 124 0 10 24 13 66 130 23 56 185 109 59 207 131 27 186 86 55 223 138 149 255 237 229 255 203 174 255 156 126 164 0 15 0 0 15 10 0 60 40 28 134 60 33 138 207 0 101 154 7 54 16 97 84 64 134 99 65 104 69 0 73 60 136 36 38 109 30 27 0 19 43 0 0 24 15 0 0 132 0 24 255 29 21 255 22 0 62 60 3 130 34 0 193 39 0 220 76 80 254 0 87 78 0 124 23 0 92 0 78 38 0 115 94 0 172 168 95 255 172 142 255 38 108 255 0 99 234 0 126 255 0 255 255 104 255 255 144 255 255 156 255 255 161 255 255 160 255 255 162 255 255 146 255 197 119 255 72 145 225 99 138 217 144 112 161 255 174 221 255 212 255 255 229 247 255 185 169 175 42 57 147 0 0 178 0 0 178 0 0 178 0 0 178 0 0 208 0 93 194 0 122 211 0 224 113 0 225 42 0 255 10 30 227 15 102 143 81 131 80 104 123 0 96 158 0 54 102 0 49 59 0 61 0 0 126 0 20 139 30 83 78 13 57 64 0 50 8 0 49 8 0 24 152 69 67 106 105 11 49 160 132 0 116 31 0 73 0 0 39 33 131 0 112 125 0 200 43 80 245 78 159 76 64 83 6 64 56 65 99 53 112 95 168 135 53 204 77 139 156 14 54 0 0 46 0 0 19 10 51 0 104 50 0 143 53 0 157 67 0 115 32 0 124 248 0 122 189 0 255 195 0 238 148 39 255 198 137 255 247 44 158 84 85 151 0 108 135 0 95 120 100 115 162 158 121 177 124 125 174 71 209 151 102 242 129 189 84 95 152 0 14 65 0 0 136 0 0 216 92 78 255 179 122 255 161 255 255 22 161 230 30 132 182 90 94 169 197 140 195 243 142 255 144 122 255 63 138 255 0 0 225 38 0 255 105 80 255 18 63 255 1 80 255 8 72 255 25 17 255 90 50 212 107 76 230 58 67 234 93 118 255 106 134 232 37 132 184 0 135 231 0 147 226 77 255 255 123 255 255 140 255 255 154 255 255 194 250 255 255 219 255 144 71 252 62 3 141 60 25 133 162 88 197 167 49 201 148 21 226 100 2 75 162 111 44 158 172 75 236 218 184 235 182 250 149 90 218 209 136 178 133 53 154 199 34 255 255 129 255 255 90 255 255 99 169 255 25 0 251 15 0 255 89 66 255 128 123 176 240 168 65 255 243 75 255 255 75 255 255 75 255 255 75 255 255 75 255 255 75 255 255 0 251 255 0 255 196 49 212 13 200 255 91 224 165 123 200 186 127 185 201 99 158 69 111 255 127 255 161 150 255 169 146 255 139 132 170 225 137 175 255 120 218 255 159 192 201 209 34 160 229 0 218 255 107 161 144 162 255 171 205 150 130 119 21 68 36 81 76 40 40 0 5 77 0 58 161 0 0 178 0 0 202 0 2 255 78 90 255 173 208 255 171 219 255 181 164 255 189 125 255 171 104 221 164 8 149 161 0 3 123 0 0 80 0 0 43 0 0 39 0 3 60 41 151 174 158 158 189 245 255 220 255 255 187 255 119 151 255 92 146 255 58 105 255 99 139 255 142 119 255 208 113 255 215 233 255 189 255 194 255 238 77 255 228 63 255 233 100 255 248 155 137 221 111 45 225 78 50 194 108 33 247 197 0 232 194 0 234 191 0 251 210 25 255 255 75 255 255 127 255 255 95 255 255 75 255 255 0 246 255 0 242 243 0 255 193 126 255 240 56 208 255 51 193 247 63 157 147 34 117 123 148 207 237 148 128 214 208 136 255 242 161 255 172 103 255 180 151 255 131 129 255 123 98 201 171 144 211 214 183 247 221 197 235 223 237 192 198 183 52 161 103 0 137 63 112 205 129 255 206 172 255 204 129 255 253 77 215 210 0 119 225 18 148 255 147 242 255 239 167 255 251 162 255 255 175 159 255 177 57 255 129 0 198 8 140 241 123 255 242 171 255 185 191 255 170 224 255 144 255 255 53 233 255 104 255 255 79 255 255 146 221 189 154 198 90 223 224 9 197 197 96 199 243 144 240 255 
0 13 1 44 0 0 47 0 0 98 0 0 235 0 80 255 0 216 255 0 211 255 0 165 250 0 160 255 77 240 255 72 167 255 41 155 255 192 255 255 145 235 255 203 255 255 171 255 255 136 255 255 83 255 255 0 255 255 0 255 255 40 255 255 134 255 255 193 255 255 200 255 255 181 242 255 134 255 176 115 170 194 187 58 255 253 161 255 235 207 255 255 189 184 255 146 226 255 42 234 219 0 189 183 51 186 191 201 250 248 255 226 255 255 236 255 242 209 93 204 0 24 204 13 26 228 142 130 255 232 255 255 242 253 255 255 208 255 168 195 255 83 119 255 34 69 147 0 1 93 0 0 141 38 0 140 51 10 124 121 108 209 69 100 55 7 28 71 55 39 115 28 0 79 29 16 143 76 53 173 180 126 198 255 210 255 255 192 255 255 171 219 255 144 224 255 56 104 185 0 0 178 0 0 245 0 52 212 32 107 235 92 255 255 126 255 255 87 235 255 60 213 159 0 190 46 0 246 110 70 255 255 235 255 232 225 255 235 221 255 220 223 255 219 229 255 255 204 255 255 192 255 255 197 255 175 146 255 74 109 115 52 114 87 0 20 0 0 17 0 95 91 75 102 45 68 112 81 101 21 70 36 0 59 162 138 136 255 255 229 255 255 233 255 236 249 255 184 255 255 151 255 238 91 165 38 106 181 12 0 113 65 0 112 88 48 174 122 127 210 150 255 144 180 255 124 255 255 101 253 255 41 205 255 21 190 255 92 227 255 46 168 249 0 191 131 0 138 140 0 120 16 0 99 0 0 60 1 0 92 0 0 104 73 165 154 213 249 201 177 217 194 255 182 244 163 71 134 36 83 43 108 233 163 82 156 151 0 134 74 41 130 120 0 69 0 0 161 0 0 150 0 0 113 0 73 119 33 53 50 117 0 21 49 0 55 0 0 27 0 171 64 104 246 127 223 163 105 255 72 88 198 0 21 0 84 99 116 255 231 255 169 255 255 75 255 255 106 255 255 183 255 255 255 218 255 222 103 255 205 76 255 194 59 255 182 0 255 222 40 255 195 121 255 176 236 255 193 242 191 79 124 11 174 192 0 166 184 0 168 211 32 218 178 255 198 114 255 176 147 255 75 78 255 57 100 255 160 179 255 251 223 255 255 255 28 220 255 0 66 144 0 10 92 0 4 91 0 0 89 0 0 120 0 81 169 83 168 205 255 165 164 255 73 90 208 0 0 163 2 0 173 32 0 106 115 39 177 186 176 227 203 218 255 246 245 255 179 204 236 89 131 169 49 90 0 5 38 0 22 0 0 37 0 15 62 15 107 93 60 197 88 100 226 87 124 255 111 152 255 167 159 255 255 208 255 255 221 255 239 206 255 240 194 255 255 255 194 124 220 0 54 255 0 0 255 0 0 255 0 75 255 0 128 255 0 142 255 0 118 255 0 142 237 0 100 144 0 113 143 0 150 188 125 108 223 240 204 213 255 238 118 229 229 128 234 191 123 188 153 159 73 134 248 0 155 255 0 211 255 4 144 255 2 193 255 0 167 241 0 172 220 0 87 135 0 0 47 0 0 64 0 0 102 0 0 135 0 0 135 0 0 126 0 0 135 0 129 140 0 198 90 0 236 77 34 255 120 31 255 139 0 255 100 0 214 106 0 199 123 0 218 174 0 255 217 0 255 206 37 255 180 169 255 171 217 255 172 214 255 150 255 255 83 255 255 57 255 226 136 96 30 255 88 0 255 94 0 239 198 75 255 255 75 255 230 75 255 185 75 255 251 0 251 255 75 255 255 252 251 255 255 209 194 255 172 235 255 64 241 183 18 223 255 123 255 255 119 236 255 204 255 208 199 230 17 91 78 103 203 187 61 144 110 210 239 255 190 176 255 185 97 255 210 206 255 56 167 255 56 199 255 87 151 255 46 79 255 148 96 255 120 150 255 173 136 255 255 151 255 255 97 255 255 73 255 255 68 255 231 75 255 247 136 255 168 127 255 69 153 255 5 232 255 0 173 255 0 167 255 0 154 255 0 98 255 0 64 242 0 51 205 0 64 136 0 82 44 0 103 0 0 139 22 0 146 78 0 114 84 0 100 15 0 227 63 0 139 92 0 167 190 0 59 164 0 47 225 0 81 255 0 115 255 0 177 255 0 195 255 
32 74 62 107 53 0 215 155 105 255 212 216 255 159 255 255 143 255 255 46 255 178 0 72 180 0 90 203 0 85 244 0 69 222 0 63 130 0 32 127 0 46 103 0 114 159 0 199 181 0 255 226 0 255 222 0 255 219 0 255 215 0 255 197 0 171 101 0 130 111 0 23 162 0 0 100 0 143 90 29 84 138 131 2 180 139 47 205 129 101 213 198 129 121 248 83 154 238 0 251 236 0 158 152 20 89 94 104 192 190 243 85 127 115 112 142 118 195 79 190 0 26 206 22 35 237 0 0 116 17 45 68 170 181 221 255 208 255 208 235 255 207 243 255 95 130 208 133 172 255 215 194 255 255 212 255 255 229 255 252 239 255 215 246 201 215 236 255 255 241 255 255 233 255 249 236 255 180 157 255 59 5 77 71 0 42 125 0 2 204 0 0 186 0 0 178 0 0 178 0 0 204 0 18 255 77 150 255 138 213 255 113 255 233 71 255 200 22 170 203 8 161 188 26 219 59 0 255 0 0 225 51 17 100 73 66 255 127 113 255 115 118 255 23 33 255 14 0 225 71 0 255 154 70 255 215 186 255 229 255 255 201 255 236 172 223 176 89 122 53 56 52 36 62 5 28 147 116 136 224 255 239 183 255 255 242 240 255 228 188 255 215 185 255 194 207 255 184 255 255 175 255 255 212 255 159 148 223 54 120 244 196 79 199 175 63 189 137 68 151 91 130 0 0 201 0 97 116 0 91 166 0 77 178 0 65 188 0 47 255 85 207 255 106 255 255 161 255 255 160 255 255 227 255 232 253 255 182 162 255 74 89 202 25 117 106 28 64 16 90 130 107 192 110 172 212 120 183 99 146 106 0 104 34 107 181 176 155 255 247 153 242 232 57 241 143 0 225 20 0 128 0 46 163 47 79 125 39 86 83 150 113 196 224 128 255 151 213 255 215 255 218 255 255 152 248 169 111 255 48 64 174 0 53 30 146 161 178 191 149 247 169 255 255 75 255 255 106 255 255 112 209 240 211 144 255 150 31 255 125 0 255 195 60 255 202 12 255 245 63 255 236 162 255 122 182 202 84 133 82 39 84 0 43 61 0 38 56 0 82 125 0 175 135 255 197 113 255 245 216 255 208 211 255 204 247 255 213 232 255 184 156 226 100 121 0 0 44 0 0 55 0 0 56 0 60 147 0 148 249 0 158 255 64 189 255 191 109 146 202 164 163 255 124 141 255 111 104 255 161 123 255 123 53 197 208 132 255 181 171 222 122 137 188 219 218 255 136 161 193 148 190 228 167 208 118 155 188 57 214 189 145 207 147 185 191 144 236 123 90 227 87 99 225 160 197 255 198 239 255 231 223 255 190 131 255 49 0 155 33 0 127 93 47 134 160 158 95 125 221 0 71 255 0 33 255 0 18 255 0 85 255 0 83 237 0 65 191 0 70 224 0 120 215 0 178 222 0 213 243 0 213 251 188 116 231 248 188 197 242 195 75 186 219 118 224 211 143 208 155 161 75 164 255 0 124 225 0 210 255 3 106 255 0 112 192 0 153 227 0 131 179 0 217 255 0 164 219 0 135 239 0 90 255 0 0 255 0 27 255 0 0 255 0 62 255 25 213 224 48 255 193 70 255 151 108 255 147 58 255 127 0 255 129 0 255 184 0 227 151 0 187 143 0 177 103 0 255 36 0 255 50 39 255 41 87 255 67 109 255 49 169 255 74 255 255 135 255 255 232 192 104 255 162 0 217 53 0 116 75 0 123 131 0 231 110 0 255 96 0 212 116 0 179 204 0 208 225 176 175 205 255 177 162 255 41 104 230 25 202 136 0 176 126 0 95 232 43 160 185 88 181 126 117 148 130 204 191 96 196 180 120 203 169 161 190 255 183 169 255 190 102 255 193 189 255 60 171 255 6 149 255 99 163 255 93 126 255 128 76 255 70 100 255 120 83 255 212 0 200 255 50 244 255 51 255 255 0 255 255 110 255 173 62 255 187 146 255 170 254 255 75 255 255 75 255 255 99 255 255 16 228 255 0 187 255 14 241 255 0 211 255 73 255 255 65 255 255 58 255 223 75 255 233 11 255 210 0 232 202 0 197 112 0 243 79 0 244 197 54 255 255 2 241 255 0 215 255 24 251 255 0 223 255 0 221 255 15 242 255 
98 73 116 113 203 226 16 190 215 57 255 255 0 123 148 0 100 111 0 75 83 0 193 131 0 255 24 0 255 0 0 255 0 0 237 0 9 255 167 0 245 169 0 213 151 0 53 94 0 31 83 0 45 106 33 0 172 109 0 49 178 0 3 178 0 0 178 0 26 215 0 116 205 0 103 178 0 0 166 0 0 14 0 0 0 49 23 0 51 14 14 116 62 54 167 27 96 252 112 24 145 140 22 80 116 19 0 0 7 5 0 118 172 122 218 255 255 238 232 255 247 231 255 183 156 197 84 49 55 35 0 23 66 0 45 70 0 82 78 2 37 96 19 0 74 0 0 177 28 0 243 0 4 255 7 28 216 0 0 181 0 0 175 0 0 225 0 179 255 88 255 255 237 255 255 244 255 255 187 255 255 206 217 255 255 171 229 255 111 220 255 125 174 206 173 60 126 154 0 101 134 0 49 138 0 0 173 175 0 157 178 0 120 217 0 102 255 136 229 255 193 177 255 197 157 255 141 170 255 11 84 140 11 27 163 1 2 206 0 0 229 0 33 255 0 104 255 0 123 236 0 155 255 1 255 255 170 255 218 246 255 75 255 255 75 255 255 0 213 52 0 194 0 0 134 0 0 130 0 81 153 0 152 67 34 173 73 124 134 65 168 32 35 124 0 87 66 0 97 0 0 109 0 0 129 0 0 135 0 0 135 0 0 139 0 0 145 0 0 90 0 16 98 0 5 106 0 60 153 0 107 156 0 228 224 165 255 209 255 255 223 255 224 251 255 219 246 255 238 222 255 195 177 255 183 129 255 140 159 255 129 200 214 24 57 63 42 64 118 165 201 231 239 255 125 243 255 76 218 255 65 225 255 171 245 244 255 135 106 218 238 139 174 255 215 203 255 202 244 255 97 216 178 0 33 178 0 0 178 0 0 255 43 0 255 48 118 255 0 156 255 2 137 218 0 69 145 14 36 185 158 161 61 157 255 94 159 255 85 142 163 11 34 90 50 28 210 103 148 255 71 165 255 73 156 204 48 132 131 57 127 201 67 120 238 13 106 101 0 38 74 108 41 171 218 91 255 255 163 255 255 104 255 255 43 201 255 37 220 255 68 255 255 68 239 255 61 217 255 0 194 251 0 163 246 86 220 226 168 254 133 161 213 99 147 245 131 132 255 98 154 243 89 154 210 126 142 255 83 117 255 152 194 255 166 255 255 159 255 255 108 184 172 145 116 228 140 106 144 127 38 152 250 128 255 231 141 255 189 140 255 225 212 255 86 131 255 61 117 182 133 122 78 133 161 184 136 142 214 176 153 255 141 150 239 131 137 199 215 168 255 145 169 243 132 149 56 181 202 0 234 168 0 255 131 0 255 155 0 255 127 0 255 131 0 255 136 0 255 131 0 255 123 40 255 70 99 255 65 221 255 80 255 255 158 234 178 240 217 42 255 255 50 233 255 137 143 241 131 133 134 190 169 108 210 166 125 221 149 149 255 158 194 236 128 173 101 246 199 93 238 159 38 194 47 118 240 79 155 255 155 85 255 255 75 255 255 75 255 255 75 255 255 66 255 255 0 203 255 0 214 255 7 251 255 28 255 147 0 255 140 2 255 102 0 236 39 0 215 16 77 157 8 138 182 111 184 222 193 204 201 110 193 179 4 134 174 0 208 103 0 248 130 0 255 70 0 255 31 0 255 0 74 255 18 176 255 32 193 255 110 226 255 55 135 95 119 81 79 217 117 124 246 63 209 227 129 216 140 166 255 184 224 255 181 255 255 163 255 255 161 255 255 159 255 255 100 255 255 56 219 255 49 146 255 89 150 127 255 240 35 209 255 46 201 254 114 223 254 0 203 84 19 255 151 75 255 255 75 255 255 75 255 255 75 255 255 75 255 255 75 255 255 0 247 255 7 170 237 109 144 188 180 148 220 137 121 195 166 91 162 255 68 153 255 98 189 255 158 221 253 142 250 233 102 217 255 138 150 216 127 97 157 150 170 109 192 255 48 223 255 54 255 255 23 255 255 0 194 255 0 196 255 0 235 255 0 239 251 0 227 241 0 48 92 0 18 24 9 0 23 36 0 60 133 16 168 217 63 237 255 106 255 255 91 249 255 74 177 255 88 133 255 78 87 255 141 114 255 213 97 255 247 28 117 255 28 47 255 0 
255 242 255 165 255 255 130 255 255 101 255 255 50 255 255 11 255 255 0 202 210 0 194 132 0 188 0 0 226 0 0 255 0 0 228 0 0 95 0 0 88 12 0 83 21 31 188 229 148 236 255 172 255 255 229 194 255 255 80 195 255 69 164 255 0 65 183 0 31 178 0 79 178 0 76 178 0 0 189 0 0 105 91 53 0 128 102 0 100 63 0 36 0 0 69 0 0 62 0 0 36 31 0 13 49 19 0 0 7 5 0 16 70 20 41 83 145 113 107 255 31 15 178 14 0 28 62 27 33 100 42 88 162 61 141 136 55 148 49 0 8 61 0 0 156 68 0 214 65 19 255 90 108 255 175 196 255 177 187 255 178 182 255 69 154 204 0 158 110 0 113 30 1 81 68 48 89 238 40 111 172 14 25 50 34 0 0 40 0 0 31 0 12 44 11 28 94 122 0 156 189 0 116 205 0 22 205 175 0 157 178 0 120 178 0 63 250 0 73 237 24 8 232 24 0 251 0 21 216 0 23 255 131 147 255 161 162 255 146 164 255 154 224 255 40 162 255 49 186 255 3 210 185 0 196 118 0 233 0 2 149 0 75 83 0 182 127 0 223 62 0 236 0 0 191 0 0 94 0 0 47 0 63 0 0 83 0 34 93 24 127 67 70 159 43 218 197 0 207 62 0 250 47 0 255 0 0 255 0 0 242 0 0 255 0 37 255 0 82 245 0 82 164 0 0 68 0 0 93 0 39 88 0 94 90 31 174 50 124 67 2 106 0 14 119 0 0 136 14 0 241 67 49 245 115 61 255 43 62 205 0 33 47 0 33 39 34 56 110 42 78 108 131 179 17 131 183 0 90 182 0 102 163 48 54 53 141 86 57 169 169 70 105 177 41 29 207 47 89 255 12 131 255 1 132 255 23 68 255 23 0 255 38 0 255 47 117 255 35 198 255 24 159 232 10 83 183 52 74 124 97 100 59 155 254 108 173 255 74 131 152 43 66 122 14 0 174 0 0 139 0 15 127 0 19 67 0 25 24 0 12 86 18 71 189 105 198 193 161 209 245 255 220 255 255 196 255 255 170 255 255 142 255 255 150 255 255 0 163 178 0 93 178 0 67 178 0 54 178 0 97 223 0 135 247 87 221 186 128 214 110 138 190 86 134 232 114 115 255 104 160 249 157 222 255 118 134 255 69 103 255 106 148 255 68 170 223 69 212 168 122 198 186 169 140 252 210 176 214 236 147 255 255 189 255 255 197 255 255 210 255 235 222 255 203 248 255 208 255 255 206 195 151 134 162 185 132 138 210 202 179 255 127 136 225 149 155 217 218 171 255 127 151 225 172 189 96 165 186 0 219 153 0 255 121 0 255 167 0 255 180 0 255 157 0 255 103 0 255 71 0 255 64 0 255 99 128 255 66 222 247 0 194 134 34 110 79 141 118 44 255 255 120 255 255 174 180 255 114 116 117 21 0 0 35 0 0 50 0 0 88 0 0 70 0 7 0 48 1 0 52 0 0 63 0 0 54 0 0 69 0 0 79 37 0 58 168 0 158 255 17 253 255 1 234 255 42 255 255 75 255 255 75 255 255 75 255 194 0 235 99 0 106 0 0 108 0 0 108 0 0 65 0 118 162 91 152 190 161 206 203 112 208 194 19 152 192 9 246 141 10 235 117 0 255 56 0 255 125 83 255 62 148 255 58 216 255 25 186 255 14 130 255 132 212 139 163 125 25 163 63 153 255 92 137 155 57 255 225 251 238 148 188 255 91 170 255 79 176 255 37 143 255 78 197 255 0 143 255 35 198 255 121 218 255 41 102 29 158 142 0 110 159 0 104 157 156 255 255 116 255 214 75 255 207 75 255 255 7 254 255 0 181 157 0 114 65 0 97 50 0 124 100 0 193 239 16 179 246 88 123 167 163 131 203 134 118 192 178 103 174 255 138 223 255 73 164 210 102 165 243 132 240 188 57 172 246 122 134 238 149 119 139 132 152 102 185 255 22 197 255 0 213 255 8 245 255 0 216 255 0 190 255 0 184 255 0 226 238 42 255 255 89 214 255 80 145 151 103 84 117 220 153 244 255 144 255 255 117 255 255 119 255 255 97 255 255 160 255 255 114 159 255 119 128 247 91 64 255 73 0 100 0 0 0 114 0 0 155 0 
0 110 0 0 75 0 36 0 0 103 0 0 85 0 0 113 0 0 171 0 0 244 0 7 244 0 48 219 0 30 107 0 75 47 0 86 0 0 3 0 35 0 0 101 0 0 144 19 0 151 89 0 135 109 0 114 84 0 148 255 0 203 255 8 225 255 73 196 255 0 126 255 0 87 255 0 58 255 0 0 225 0 0 189 0 0 136 0 7 0 16 9 0 43 0 0 96 0 141 178 0 143 178 0 51 178 0 26 138 0 31 138 0 75 220 99 144 207 180 14 126 255 0 41 255 0 139 172 105 130 31 65 153 0 0 251 23 108 255 39 255 255 130 255 255 139 255 255 49 76 255 23 41 195 0 84 135 0 202 102 79 119 79 44 12 92 51 82 59 5 173 24 0 233 31 27 255 11 45 154 29 40 58 0 65 0 0 93 0 0 118 49 0 172 36 9 207 116 156 149 189 255 94 224 249 22 247 142 0 189 113 0 115 103 20 28 244 139 228 249 166 184 151 176 130 65 127 76 0 24 0 23 15 0 157 87 185 224 176 152 130 169 14 43 167 23 0 62 0 0 53 69 30 23 115 1 0 24 25 78 36 107 143 153 245 185 241 217 158 178 107 81 42 2 9 0 0 4 0 171 0 41 255 13 150 255 102 199 255 76 130 255 50 136 205 0 71 178 0 44 226 0 72 214 0 48 245 0 95 147 39 100 95 10 55 90 5 14 79 39 26 198 203 193 255 244 251 255 241 226 255 251 216 255 238 255 210 172 255 236 177 255 255 154 255 255 194 255 237 158 255 255 167 255 255 120 255 255 120 255 255 57 255 178 0 225 178 0 3 178 0 0 229 0 81 229 0 65 163 50 108 100 77 85 86 240 200 192 233 255 147 104 255 48 0 168 51 0 118 29 0 95 30 0 154 52 2 255 0 36 255 0 84 255 0 49 248 0 27 225 0 79 255 0 153 255 64 251 255 67 255 255 0 146 255 9 67 255 32 0 225 136 15 255 179 83 255 124 108 195 99 60 127 145 88 241 188 72 211 77 118 188 111 157 220 91 61 117 255 46 163 255 45 227 255 11 112 255 90 174 132 132 214 94 178 255 0 141 255 0 70 255 0 60 161 0 66 129 0 68 137 0 167 255 107 107 255 230 145 234 255 203 252 227 190 246 230 171 225 192 130 199 0 137 114 0 197 118 0 244 187 75 255 255 75 255 255 75 255 255 75 255 224 0 250 131 0 181 178 16 180 255 113 123 207 146 105 87 186 113 147 185 52 219 216 165 255 73 163 163 50 150 42 109 169 119 139 171 234 187 203 255 142 226 214 98 241 122 82 218 44 160 221 80 186 204 88 180 202 53 157 213 40 101 218 0 25 108 0 12 8 0 25 0 0 0 31 0 127 225 0 190 255 73 218 255 178 243 250 255 222 248 255 201 255 255 59 138 243 0 0 225 0 0 225 27 2 255 160 87 255 181 125 255 133 185 221 33 214 231 0 216 254 25 255 255 0 226 255 20 247 255 43 255 255 107 255 255 170 184 255 185 102 255 149 71 233 141 69 255 208 151 255 184 109 255 171 85 255 167 121 255 166 106 255 255 203 255 216 250 105 81 167 0 132 252 0 122 248 0 158 255 0 170 254 0 180 199 0 255 169 0 255 204 0 255 226 60 255 133 75 255 84 111 255 36 177 254 0 134 255 43 225 255 67 255 255 111 255 255 150 255 137 207 210 175 233 246 151 159 255 159 112 255 144 89 220 87 53 117 191 237 222 211 255 255 255 214 255 171 87 246 66 20 132 0 0 24 4 108 69 90 183 255 196 198 255 255 222 255 141 99 255 58 18 137 12 0 60 42 0 134 155 0 129 178 0 69 134 0 28 124 0 0 178 86 0 255 150 157 250 191 255 89 136 178 68 199 193 104 168 184 117 147 255 175 178 255 172 156 255 222 127 255 255 85 255 255 57 203 255 107 235 255 109 255 255 139 255 255 146 255 255 73 255 255 8 223 215 0 145 208 0 148 255 148 255 227 175 163 197 56 87 123 0 0 140 0 56 178 0 109 178 0 186 237 0 250 255 59 255 255 209 255 165 204 255 156 199 255 82 143 255 84 217 255 55 161 197 205 131 144 248 233 0 163 200 0 199 255 0 77 185 0 126 210 0 255 192 0 
78 255 152 111 255 128 235 195 119 255 225 136 255 237 120 255 223 120 255 143 87 255 58 79 255 36 106 255 86 164 202 69 170 187 98 226 66 69 72 1 86 0 0 174 48 0 119 0 0 122 60 0 80 54 0 81 51 0 79 192 0 127 255 0 160 255 0 64 255 0 93 255 92 235 255 168 255 255 214 232 255 239 226 255 109 106 255 95 115 102 149 142 39 95 46 0 152 0 197 255 47 255 255 154 255 255 159 255 255 182 255 255 129 213 159 38 83 66 39 0 0 93 0 0 107 0 29 62 0 162 63 97 255 148 163 255 177 255 255 37 255 255 39 255 200 0 53 196 0 0 255 19 37 255 25 151 255 179 255 255 243 255 213 178 146 129 88 119 24 0 138 16 0 225 31 27 255 29 63 172 96 107 125 0 157 50 0 140 33 0 163 94 0 132 0 0 172 81 195 188 228 255 190 255 255 161 255 255 171 255 255 169 255 148 65 73 128 23 112 56 0 0 0 12 0 29 91 40 66 124 62 73 65 50 37 0 65 36 0 0 16 55 0 19 143 0 79 196 113 30 88 104 76 69 161 103 96 126 134 187 145 108 144 154 121 61 117 39 0 0 22 0 0 15 22 0 10 16 0 232 0 102 243 0 103 215 0 42 221 0 12 196 0 14 225 0 91 252 0 118 255 17 137 255 14 120 255 81 179 255 184 245 255 224 255 255 228 237 210 170 157 104 109 99 82 49 56 112 62 47 110 84 49 51 16 70 70 32 179 144 85 255 254 104 255 202 108 255 163 84 255 173 0 255 255 0 255 255 0 255 255 0 255 255 3 255 255 16 111 255 10 61 255 32 159 255 20 128 221 108 166 176 153 161 49 203 163 123 164 255 150 107 255 192 108 255 187 86 254 175 112 241 147 71 255 87 37 255 108 153 255 158 255 255 117 255 255 114 255 255 39 190 255 0 127 255 0 148 255 0 112 255 0 165 255 61 119 255 227 134 255 255 188 255 219 123 255 96 80 167 19 0 47 40 0 136 113 0 136 127 168 238 138 184 247 230 200 255 255 121 238 255 54 236 255 53 154 255 35 119 73 73 155 0 55 176 0 138 255 83 255 255 75 255 255 75 255 255 7 252 255 0 98 222 63 63 237 190 105 194 198 118 167 214 177 233 196 137 191 164 102 171 78 228 205 0 252 173 0 248 191 0 221 199 0 194 168 0 193 120 0 255 142 9 255 165 0 249 246 65 229 255 151 161 245 192 151 133 190 117 151 167 34 201 134 83 234 59 149 149 128 228 120 127 187 137 143 175 238 182 198 255 114 198 186 146 255 170 112 248 74 126 187 46 160 178 62 223 245 96 234 255 117 136 253 29 99 182 0 115 111 26 187 156 123 227 255 106 125 223 0 107 218 0 73 143 33 84 91 150 112 138 255 106 176 216 155 234 255 186 246 255 88 116 255 180 155 255 165 92 255 223 167 255 214 255 255 48 229 246 38 255 255 0 216 255 0 190 255 0 213 255 0 220 255 20 190 255 148 162 255 226 143 255 225 147 255 203 131 255 188 131 255 203 128 255 202 116 255 165 119 255 101 41 255 165 108 251 191 225 80 181 255 0 152 255 0 124 250 0 129 233 0 181 255 0 255 255 28 255 249 28 255 212 0 253 94 0 178 0 0 178 0 0 178 0 42 214 0 94 255 76 255 255 140 255 255 73 220 253 0 110 0 20 23 0 15 28 0 0 102 66 19 197 78 23 154 20 0 50 0 15 0 0 15 31 146 75 241 255 197 255 255 228 255 186 196 220 83 187 148 99 192 255 229 231 255 255 222 255 149 107 255 77 37 156 12 0 60 42 0 134 189 0 163 255 0 153 252 43 146 255 135 71 185 93 0 191 82 89 177 118 194 149 196 238 111 242 236 144 208 224 156 186 255 123 126 255 160 144 255 247 152 255 255 147 255 255 155 255 255 73 201 255 57 232 233 0 164 255 0 200 255 93 255 255 55 255 255 129 255 255 85 255 255 95 255 255 235 223 255 209 240 255 172 235 255 128 255 255 65 255 255 128 255 255 137 255 255 159 255 255 209 255 175 214 255 52 95 255 60 121 255 102 235 255 176 255 255 255 231 244 196 181 0 203 240 0 186 245 0 212 255 28 228 255 28 255 255 28 
255 157 255 255 127 255 198 255 231 37 255 158 159 255 228 255 234 253 255 168 236 204 150 190 5 0 5 35 0 8 54 0 33 72 0 124 138 73 255 92 142 255 33 71 220 1 22 67 0 30 23 0 51 21 179 195 118 144 255 72 89 214 0 0 87 0 0 30 0 65 0 14 140 0 44 103 0 31 112 0 0 178 0 0 178 0 44 178 0 56 178 0 58 255 8 71 255 81 80 255 99 185 255 97 243 255 54 225 223 0 151 152 0 0 35 0 0 70 0 0 100 0 68 133 108 160 115 119 118 57 59 0 7 19 0 35 1 0 133 115 89 115 255 193 190 255 228 228 255 244 189 207 181 164 104 164 198 0 103 208 0 102 214 0 43 255 28 93 222 0 36 211 0 77 206 0 104 118 25 102 34 91 94 81 87 123 0 0 47 2 18 63 223 116 206 255 172 255 255 130 255 255 120 255 255 25 255 156 0 255 119 0 225 110 0 225 102 0 246 152 135 255 131 255 255 124 255 255 121 255 255 17 142 218 0 8 76 0 10 0 51 0 0 130 0 0 215 0 0 255 19 114 255 89 211 255 74 169 255 156 255 255 145 255 255 144 255 255 96 246 255 32 89 255 51 61 255 72 38 255 56 30 231 0 0 197 0 0 219 0 34 136 0 6 191 0 0 244 1 0 206 20 81 255 116 255 255 113 255 154 64 137 45 12 0 1 12 0 0 0 134 49 7 227 103 1 135 79 7 93 35 35 83 86 132 255 74 151 255 109 105 255 221 70 255 171 58 255 176 102 239 146 108 179 139 112 109 247 46 0 255 56 0 200 142 0 255 84 0 255 97 0 255 80 126 255 29 156 255 27 168 255 79 157 255 116 151 255 127 197 255 84 174 255 50 162 255 87 152 225 94 100 227 128 147 248 117 255 196 141 255 146 158 255 120 184 208 83 166 90 116 233 177 94 191 255 79 171 162 96 174 126 175 255 251 187 255 255 228 248 255 255 195 255 253 105 211 197 45 158 160 68 255 119 165 255 1 178 174 0 137 113 0 76 94 0 41 147 186 45 197 153 66 69 163 142 99 105 71 135 150 64 223 116 0 99 95 0 23 59 89 67 65 95 105 234 191 255 225 92 255 255 68 255 255 94 255 255 0 236 255 35 255 255 56 255 255 128 255 255 100 255 255 0 255 148 0 222 158 32 255 195 162 255 99 183 255 0 168 255 0 186 255 11 238 255 75 255 255 75 255 255 75 255 255 66 255 255 0 201 228 75 255 255 75 255 255 75 255 255 52 255 255 0 162 255 0 44 155 0 18 104 44 0 125 100 0 131 131 0 111 255 54 255 255 178 246 255 232 109 255 255 74 191 255 118 83 255 177 96 255 253 131 255 255 126 255 255 116 255 255 110 255 255 19 255 255 0 230 156 0 174 100 0 229 139 11 255 128 0 255 115 0 239 97 0 36 0 20 24 0 114 159 54 173 202 36 184 154 10 181 155 46 107 149 51 2 255 150 0 211 118 0 57 17 0 10 0 0 29 25 150 165 94 201 162 45 255 193 65 255 159 21 255 153 0 180 255 24 129 199 0 255 157 119 255 132 185 255 177 226 255 185 231 255 175 196 255 175 198 255 120 183 255 102 110 255 56 129 255 41 204 255 0 179 124 5 160 15 73 106 0 8 0 98 0 0 77 1 0 0 45 0 0 56 0 0 51 0 39 153 0 132 219 4 75 255 226 60 255 227 0 242 140 84 191 172 156 79 137 254 36 196 252 0 233 199 0 61 180 0 23 255 0 131 255 0 172 255 30 255 255 70 255 255 0 255 255 77 255 205 157 255 81 229 255 70 254 255 0 203 200 0 199 109 0 248 131 0 202 255 0 222 255 0 237 255 0 242 212 0 255 202 35 255 236 0 255 180 0 254 0 0 255 0 0 238 0 26 255 0 69 255 12 7 238 0 73 255 83 79 172 238 156 117 255 130 38 215 94 0 255 189 96 255 210 200 255 169 254 255 180 255 255 109 163 223 65 77 177 63 79 179 62 118 145 21 40 22 155 43 107 177 0 180 119 0 112 153 157 183 185 146 155 196 185 180 172 141 255 177 111 255 199 146 214 181 129 138 153 140 110 3 134 76 0 70 105 94 3 56 255 96 60 255 191 160 255 184 150 
237 0 94 231 0 97 0 59 12 0 155 48 43 192 112 255 234 253 255 210 255 255 234 255 255 251 255 219 164 192 255 220 255 255 195 255 207 142 255 51 101 255 0 0 143 0 1 46 59 128 121 153 216 186 242 255 181 166 255 94 97 222 0 35 125 0 100 156 35 189 87 138 255 123 247 255 195 255 255 203 226 255 166 244 255 26 170 179 0 57 178 0 58 178 0 0 178 0 0 191 0 9 178 0 46 178 0 67 169 0 97 194 37 30 150 111 40 128 26 34 72 0 40 26 1 53 122 126 125 200 202 104 255 255 134 255 255 157 255 252 226 81 240 159 0 90 25 8 50 24 29 47 21 49 0 49 218 0 123 209 0 103 211 0 40 201 0 1 223 0 37 255 0 134 235 0 133 113 20 97 0 16 19 21 27 63 18 23 75 32 48 93 255 155 245 255 166 255 255 130 255 255 120 255 255 69 255 212 0 255 133 0 239 129 0 244 194 27 255 230 213 255 131 255 255 124 255 255 99 255 255 30 155 231 1 54 122 72 87 34 80 26 0 211 37 0 255 28 54 238 0 63 244 0 92 217 0 42 232 0 92 212 0 133 226 0 152 255 0 134 230 0 23 255 77 87 255 146 112 255 183 157 255 178 189 255 116 177 255 46 126 155 0 25 176 0 0 178 0 0 157 0 32 219 4 158 203 0 154 70 0 53 30 0 0 23 34 0 26 72 208 128 86 255 135 33 167 80 8 94 54 54 102 31 77 255 0 59 255 21 17 255 74 0 198 98 0 201 120 46 183 168 130 201 132 105 102 207 6 0 255 86 0 223 165 0 255 123 0 255 143 24 255 54 100 255 2 129 255 49 190 216 13 91 197 0 0 255 38 108 255 91 181 255 164 255 255 189 254 158 27 33 158 59 78 202 71 255 194 139 255 208 220 255 79 143 167 101 184 108 138 255 199 93 190 255 84 176 167 101 179 131 35 128 111 103 198 208 132 152 255 232 109 255 255 136 242 207 55 168 178 86 255 35 81 188 0 167 163 13 203 179 0 161 179 60 101 207 169 28 180 139 52 55 177 156 113 152 118 182 193 107 255 214 82 197 221 72 149 144 174 152 122 152 162 182 139 255 255 132 255 255 165 255 255 137 255 255 139 255 255 141 255 255 94 255 255 51 255 255 21 255 255 26 255 255 55 255 227 101 255 117 84 255 35 119 255 0 148 255 0 165 255 0 204 255 15 242 255 0 206 255 0 235 255 5 249 255 0 151 178 0 245 255 0 242 242 40 255 255 75 255 255 75 255 255 41 233 255 64 160 246 170 78 251 220 43 251 243 23 223 248 4 210 254 25 93 255 134 11 255 247 47 109 231 36 69 255 163 46 255 203 31 204 222 62 230 255 0 124 248 29 218 255 0 244 239 0 243 169 0 255 191 1 255 182 0 255 115 14 255 131 4 255 141 121 184 128 187 191 152 121 166 61 160 189 23 209 179 35 237 211 102 209 251 153 1 255 149 0 255 163 34 211 171 154 184 172 135 172 168 165 180 109 196 157 40 255 171 43 255 164 26 248 137 0 161 255 5 218 255 66 255 229 191 255 166 219 255 65 114 227 13 59 255 89 110 255 175 198 255 168 231 255 177 185 255 167 240 255 106 255 255 80 255 255 200 255 210 255 255 187 211 199 204 71 42 68 0 0 0 45 0 69 151 0 147 214 0 83 197 0 158 245 30 0 237 112 75 255 242 88 255 240 182 255 255 255 202 255 255 39 199 255 22 255 255 48 187 255 77 193 255 80 236 255 54 248 255 35 255 255 16 255 255 0 255 218 19 255 151 103 255 63 211 255 100 255 255 90 255 255 25 255 206 0 239 122 0 123 246 0 137 255 0 225 255 0 230 200 0 255 201 0 212 146 0 204 128 0 255 0 10 255 0 1 255 0 17 255 0 10 216 0 0 136 0 0 230 1 138 231 255 255 216 255 255 174 255 166 67 255 111 18 255 70 60 255 54 139 255 31 135 150 127 181 241 179 191 255 129 145 245 173 229 255 179 198 180 228 116 180 255 141 255 208 89 201 156 160 186 255 219 228 208 197 192 239 208 255 241 175 255 223 170 238 243 191 200 205 192 162 116 247 189 167 255 255 255 221 255 255 209 173 255 192 161 255 60 26 
0 11 26 0 0 79 8 0 76 35 0 0 0 16 0 0 20 21 0 0 122 0 0 101 0 0 65 12 0 28 8 0 26 0 0 101 0 0 125 56 0 5 75 0 0 173 72 38 156 76 51 146 121 112 158 161 168 85 29 26 93 82 0 66 106 0 11 14 0 59 32 0 85 82 0 115 98 0 255 255 141 249 255 228 255 219 255 255 93 255 255 16 255 255 23 255 255 16 255 255 66 255 255 62 255 255 0 255 255 0 234 243 27 236 255 212 255 255 224 246 255 234 239 255 255 191 191 255 86 158 255 25 83 244 0 106 182 0 138 182 0 51 103 0 70 98 0 32 27 0 51 17 0 173 141 0 125 123 0 159 199 0 123 175 0 159 252 0 221 255 28 242 255 28 209 255 0 80 115 0 23 0 0 178 0 97 178 0 225 178 0 225 178 0 225 178 0 225 239 0 255 232 0 255 255 0 255 148 0 255 80 0 251 7 56 162 0 38 56 0 41 91 101 121 126 231 219 255 255 225 255 255 224 255 249 199 255 186 72 255 120 63 255 81 111 147 148 222 51 174 254 0 107 162 0 153 63 17 14 0 8 0 4 40 1 0 106 16 0 201 69 2 255 99 1 255 71 84 174 0 35 16 45 99 49 117 196 3 255 255 118 255 213 106 255 215 40 255 170 0 255 38 0 244 19 0 255 0 90 255 46 177 251 121 173 126 50 255 74 122 255 27 121 255 65 36 255 61 0 255 14 0 225 0 0 225 0 0 225 1 0 193 22 0 213 12 0 105 61 112 29 76 146 132 85 102 184 198 180 255 167 153 255 176 107 255 196 141 255 94 142 255 103 123 255 157 160 255 109 95 255 175 0 255 97 0 227 43 0 225 39 0 221 70 21 197 123 66 255 198 119 255 137 166 244 208 215 255 246 136 235 255 0 134 244 0 73 255 54 149 255 76 141 255 94 191 255 129 255 134 94 231 91 121 233 98 218 255 91 223 231 58 176 255 71 218 255 120 240 255 249 246 255 255 234 255 255 231 255 255 195 255 140 145 191 130 170 122 243 206 186 255 241 255 255 224 255 255 220 255 197 185 255 154 84 98 187 0 33 255 10 245 255 0 236 255 81 255 255 58 164 255 47 104 255 113 250 255 101 255 255 154 230 255 191 201 255 103 102 255 83 131 209 91 197 170 148 255 135 114 167 144 100 183 255 108 255 255 124 255 255 138 255 255 139 255 255 146 255 255 151 255 255 157 255 255 129 249 255 75 191 232 0 68 246 0 57 48 42 0 115 9 0 104 37 0 87 123 13 119 172 54 149 248 107 49 224 83 78 255 106 84 255 137 13 255 111 159 255 173 94 188 80 100 207 91 152 196 87 173 163 64 199 196 129 214 255 180 121 255 137 38 236 64 71 176 43 80 102 7 196 187 160 188 198 235 179 169 255 232 138 255 195 63 255 165 72 255 173 136 255 145 148 255 205 185 255 236 154 255 181 112 255 109 137 198 124 181 54 186 237 120 239 255 230 233 255 255 191 255 255 148 255 255 148 255 219 201 255 246 255 255 212 239 255 106 88 127 50 85 83 33 255 188 216 255 209 255 255 215 214 255 218 210 255 100 255 255 104 248 255 105 178 255 169 230 255 167 239 255 154 255 255 132 255 255 0 165 255 71 214 255 134 255 223 184 255 255 228 255 97 143 255 35 127 255 23 154 255 0 126 191 0 137 107 0 105 35 0 94 0 0 157 0 0 154 0 187 244 93 222 254 255 93 167 178 69 147 119 62 43 32 199 72 95 215 168 188 123 176 255 80 136 233 7 59 121 100 96 220 182 109 255 118 213 255 105 229 255 128 133 255 182 193 255 135 162 255 124 98 255 50 60 255 37 47 255 160 112 255 219 178 255 174 154 255 192 182 255 67 87 255 35 109 255 139 229 255 196 255 255 228 253 255 250 250 255 164 164 154 0 65 116 12 155 141 40 175 226 54 203 219 54 255 180 130 246 197 177 187 198 255 164 235 255 116 255 255 84 255 255 123 255 255 160 255 239 199 255 119 255 255 5 232 255 33 167 255 35 66 255 156 145 255 255 240 255 139 175 151 162 228 56 237 185 0 255 255 28 255 255 86 255 248 201 255 154 255 255 135 255 244 0 255 178 0 225 141 0 225 
193 238 253 224 255 255 255 235 255 246 193 207 117 139 52 49 117 118 53 97 220 72 106 209 85 87 160 39 15 55 8 0 26 0 0 101 0 0 125 116 30 65 174 65 70 183 82 48 148 68 43 98 73 64 57 60 67 39 0 0 62 51 0 86 126 16 144 147 26 141 114 0 16 13 0 23 6 0 62 59 0 126 140 105 200 122 232 237 0 255 178 0 225 178 0 225 178 0 200 178 0 189 255 10 255 255 128 255 255 134 255 255 166 255 255 197 255 66 0 0 182 115 120 246 250 177 204 255 99 161 255 28 0 157 0 22 98 0 35 79 0 0 51 0 78 106 0 181 176 0 184 150 0 191 159 0 100 98 0 42 82 0 34 86 0 5 98 0 15 110 0 25 88 0 76 128 0 79 114 0 98 75 7 211 0 130 255 0 255 255 38 255 255 14 255 255 55 255 255 0 255 255 0 255 255 0 255 163 0 255 54 0 225 0 6 112 35 94 112 21 63 113 27 47 52 4 0 30 22 0 98 68 26 186 30 0 223 46 0 225 14 0 182 0 4 40 0 41 0 0 53 0 0 39 0 68 0 0 75 57 69 17 47 83 24 1 129 26 0 211 15 0 225 36 0 223 0 0 83 0 27 8 0 49 0 0 76 0 40 11 0 203 23 0 220 22 0 255 74 0 255 86 0 255 55 0 255 0 94 246 0 101 146 16 68 80 4 255 36 84 255 27 121 255 64 35 255 125 43 255 96 31 255 65 45 255 140 143 255 115 75 255 166 108 255 220 186 255 228 255 196 207 255 255 233 250 255 253 235 255 127 113 255 68 0 255 135 80 255 155 203 255 212 232 255 164 167 255 101 87 255 173 0 255 99 0 229 149 40 255 177 122 255 255 220 255 255 216 255 215 136 255 46 75 153 0 0 54 104 0 93 178 0 47 236 0 65 255 45 140 255 71 136 255 83 180 170 31 190 97 57 194 12 42 154 0 40 79 0 98 106 88 206 255 134 255 255 158 255 255 138 135 202 69 25 90 75 22 90 169 93 203 199 204 250 141 181 133 225 188 168 172 143 183 129 75 198 117 61 216 101 89 173 255 214 228 255 159 255 255 56 255 178 0 127 178 0 86 178 0 12 178 0 0 178 0 38 178 0 102 157 0 0 145 0 0 232 0 0 255 14 62 155 37 143 138 116 228 198 177 230 220 176 255 255 94 255 255 33 255 255 58 255 255 37 255 255 38 237 255 70 237 255 147 255 255 142 255 255 52 168 193 0 29 214 0 25 90 84 38 255 178 132 255 242 175 242 255 168 231 255 166 201 255 159 100 255 134 98 255 126 4 247 57 0 230 84 119 216 133 130 224 116 141 248 132 192 236 127 241 231 132 255 255 194 214 255 180 148 255 164 135 255 161 196 255 168 250 255 177 237 228 201 155 165 202 172 162 255 205 111 255 154 22 255 32 0 225 0 0 225 0 0 225 0 0 225 25 0 225 181 112 255 172 200 255 229 255 159 232 255 166 155 183 146 188 213 245 99 184 216 104 255 228 82 250 153 155 237 200 215 219 170 136 188 3 184 223 146 176 174 124 209 137 165 199 83 144 173 41 40 129 4 0 255 0 207 255 27 171 243 0 50 255 34 95 255 51 123 255 21 171 255 140 255 255 141 255 255 102 245 255 135 255 112 73 188 131 102 255 178 224 255 165 255 255 144 255 255 59 246 255 0 168 138 0 105 35 0 207 97 46 255 171 87 254 92 133 190 39 82 114 123 13 87 98 157 235 207 198 179 168 220 93 116 220 173 193 24 77 161 38 94 191 153 205 255 243 239 255 255 215 255 176 255 255 81 205 255 15 20 248 8 19 217 11 38 203 88 62 255 74 84 255 139 149 255 203 155 255 190 149 255 151 131 255 177 167 255 93 113 255 148 222 255 140 230 255 30 96 202 164 189 255 130 130 144 220 220 210 178 246 255 76 219 205 119 254 255 82 231 247 26 246 152 0 100 51 89 99 110 134 35 106 172 0 185 255 53 252 246 87 245 255 184 255 252 212 255 119 255 255 75 255 255 49 183 255 125 156 255 122 111 243 189 165 229 232 255 244 179 245 73 223 171 0 255 216 0 218 217 27 255 248 201 255 154 255 255 27 255 255 0 255 207 0 254 231 0 255 
35 121 0 73 29 44 92 0 30 91 0 0 110 83 80 160 255 201 106 255 216 81 255 67 73 255 26 0 255 0 0 255 0 0 255 0 2 255 6 75 255 182 75 255 255 75 255 255 75 255 255 221 255 255 246 199 227 159 118 140 60 30 102 11 0 58 44 0 5 84 0 62 36 0 182 25 0 113 16 0 47 22 17 7 27 12 0 225 139 176 255 219 255 189 217 131 197 255 127 205 235 135 186 102 104 255 115 204 252 111 178 81 84 51 94 113 108 0 0 187 0 0 225 15 0 225 0 0 184 0 0 155 47 41 255 88 69 255 86 42 255 36 0 156 2 0 131 0 0 122 9 0 155 42 0 187 71 0 148 99 38 146 100 26 109 86 0 91 43 0 83 25 37 29 0 111 0 0 147 0 0 74 0 29 0 0 9 4 0 49 0 0 61 0 0 80 0 62 164 24 221 196 93 255 28 68 7 0 137 73 0 118 183 0 0 216 48 0 190 34 0 187 36 55 171 123 119 226 94 40 166 114 0 72 100 0 19 59 0 64 71 21 58 136 86 23 102 47 0 86 42 0 34 28 0 0 10 7 0 1 125 0 3 250 46 0 249 104 26 255 123 77 255 45 25 255 38 39 255 0 0 148 65 47 57 129 70 63 143 0 31 236 0 137 178 0 164 191 0 238 251 0 255 221 0 227 202 0 158 168 0 31 131 0 0 121 0 0 228 0 0 178 0 0 151 0 0 227 9 30 255 78 151 255 180 255 255 191 255 253 255 162 235 255 123 117 15 0 142 95 0 103 187 0 78 196 0 60 200 0 0 127 0 24 119 0 143 232 14 66 229 36 158 195 140 221 178 220 154 79 248 255 139 255 239 56 255 60 108 255 89 183 255 123 174 255 179 219 207 171 203 134 138 158 81 219 128 111 255 119 135 255 128 98 255 80 59 255 61 175 255 71 255 255 28 246 255 57 192 255 69 160 255 6 238 255 14 255 255 22 255 255 63 171 255 98 153 255 163 255 255 64 255 255 22 210 237 4 100 118 65 47 81 230 150 0 255 211 0 208 140 0 253 62 0 255 54 0 255 32 34 255 121 17 225 101 112 186 103 96 31 0 96 0 0 143 0 3 178 0 19 178 0 28 179 0 0 173 0 1 45 1 0 0 50 0 0 67 0 0 76 0 31 164 0 206 255 169 255 254 251 255 245 224 255 222 163 155 87 50 91 72 62 23 97 22 174 239 95 223 192 35 255 168 60 255 141 128 255 54 244 255 112 255 255 42 255 255 82 255 237 137 255 145 81 255 5 158 255 0 95 199 0 144 93 43 255 231 32 255 206 0 255 86 22 255 100 0 218 67 0 229 142 30 215 169 0 107 95 18 179 111 120 250 208 255 245 255 255 191 255 255 205 255 255 214 247 255 220 228 255 141 255 255 85 255 255 50 255 255 70 255 255 150 255 232 178 255 164 138 255 172 116 255 40 25 180 0 4 173 0 31 225 0 1 225 19 0 244 40 0 225 43 0 225 0 0 225 0 0 225 0 0 225 0 0 225 86 78 255 240 227 255 166 245 255 65 165 105 157 77 154 255 96 255 255 188 219 90 188 185 32 252 220 0 195 190 108 185 255 204 199 255 115 141 214 140 135 205 255 193 255 255 126 255 255 139 255 255 148 255 255 139 255 255 79 180 255 43 149 255 30 180 255 127 250 250 183 178 143 189 138 35 86 145 0 0 108 0 0 108 194 145 241 182 152 152 203 185 255 211 203 255 157 196 191 239 255 196 159 151 72 152 63 11 204 0 33 255 10 198 255 105 205 255 151 255 255 71 255 255 0 255 255 0 255 255 0 255 255 38 253 255 35 157 255 81 201 255 118 243 255 115 218 255 64 167 186 32 72 208 126 90 222 188 102 174 195 76 77 255 59 0 255 44 0 242 113 24 255 214 0 249 242 0 220 255 14 241 255 37 255 255 2 234 255 0 212 116 0 180 0 0 137 0 0 214 0 108 255 0 255 255 28 255 178 0 255 134 0 255 81 0 248 22 0 246 3 0 255 22 89 255 30 186 255 213 255 226 255 200 169 253 143 28 255 0 1 127 0 0 47 0 29 50 0 141 168 0 226 210 0 255 255 52 255 255 28 255 255 28 255 255 28 185 206 0 96 79 0 
49 135 0 104 60 75 163 18 101 178 43 71 74 47 44 0 43 0 0 101 0 0 204 0 27 255 0 75 255 28 75 255 28 68 255 21 3 255 7 0 255 77 0 182 131 0 110 141 0 89 106 0 13 57 41 0 22 64 23 45 59 29 101 92 63 139 143 75 104 119 0 97 93 3 239 70 10 158 202 168 233 255 254 244 255 255 214 255 221 255 115 46 140 0 18 0 0 46 0 0 20 0 58 0 0 156 0 53 134 0 60 25 28 0 36 55 50 96 72 255 51 47 255 100 33 255 0 0 184 0 15 179 80 74 255 126 107 255 168 124 255 162 87 255 46 17 175 0 0 122 16 0 162 69 0 214 131 0 208 90 29 137 46 0 55 90 0 95 76 0 116 46 58 50 0 114 0 0 153 0 0 60 0 86 44 42 83 78 24 100 50 0 139 65 0 90 0 72 125 0 182 121 18 181 9 49 0 0 84 20 0 124 189 107 154 255 255 208 255 255 222 255 228 247 255 173 169 255 109 55 181 142 0 100 255 144 212 255 226 255 255 235 255 255 247 184 255 254 113 255 254 141 180 174 98 146 179 176 132 185 255 203 213 255 244 166 255 115 37 255 1 0 225 0 0 228 95 96 255 116 113 255 169 151 161 188 129 122 180 25 68 234 0 135 255 7 255 255 15 255 255 122 255 255 128 255 255 138 255 255 163 255 245 73 81 194 59 0 255 42 31 255 115 76 255 166 141 255 112 133 255 77 150 255 116 219 255 87 159 121 141 30 108 163 0 216 114 18 255 255 102 217 255 113 197 255 95 186 255 65 63 247 0 136 231 0 109 198 0 52 215 22 235 255 217 255 237 255 255 213 255 255 169 255 255 164 255 196 244 255 168 255 255 207 255 255 228 255 255 186 218 149 194 214 137 255 190 173 245 92 108 255 89 59 255 121 100 255 102 216 255 117 255 255 78 255 228 0 87 178 0 0 178 0 118 178 0 170 254 0 221 255 20 128 255 66 121 255 141 255 255 115 255 255 148 255 255 174 255 177 124 106 17 166 86 0 120 73 0 95 27 0 172 0 0 148 0 0 227 0 5 255 92 15 223 99 212 255 203 255 241 189 255 215 207 255 181 255 255 160 255 255 127 252 255 54 134 251 48 79 142 98 41 4 118 0 11 150 0 71 220 0 170 255 84 165 215 128 214 212 209 249 210 189 255 243 184 255 222 185 191 172 162 59 133 58 164 229 85 255 229 72 244 144 36 255 86 73 251 0 156 255 16 255 255 106 255 255 157 255 255 194 255 170 106 255 0 123 255 0 80 184 0 164 113 0 255 180 0 243 145 0 238 66 0 192 0 0 129 0 0 143 56 0 147 101 89 237 225 90 251 183 44 174 132 121 111 172 200 36 160 255 147 225 255 206 239 255 198 206 255 144 255 255 60 255 255 77 255 255 61 255 255 167 255 204 150 255 42 16 135 22 0 115 0 0 132 0 4 173 48 227 255 166 255 255 255 211 255 148 43 255 43 0 225 0 0 225 0 0 225 0 0 225 10 38 255 115 107 255 97 84 212 9 88 109 0 36 0 47 0 44 113 0 139 87 14 45 113 211 208 104 255 255 24 227 222 91 168 255 158 153 255 60 86 159 139 134 204 255 118 230 255 140 255 255 139 255 255 148 255 255 158 255 255 162 255 255 161 255 255 32 182 149 0 104 47 0 0 138 184 133 158 209 255 135 169 255 99 93 217 103 54 150 146 116 116 120 102 176 76 68 202 0 27 22 37 72 0 140 132 53 191 102 50 255 107 207 255 47 235 255 19 119 255 61 232 255 53 255 255 102 255 255 102 255 255 117 255 255 144 255 255 159 255 255 159 255 255 158 255 255 150 253 255 161 255 255 144 184 250 168 132 255 254 168 253 255 155 127 255 109 54 255 115 0 220 91 0 159 80 0 123 116 0 99 217 0 112 255 0 199 255 0 183 255 0 177 81 0 221 0 2 255 0 88 255 28 170 255 28 255 255 28 255 217 28 255 208 28 255 174 0 255 181 7 255 175 105 255 90 157 255 3 159 40 0 17 22 75 0 0 60 0 0 247 0 104 230 0 247 255 28 255 255 28 173 200 0 159 143 0 186 158 0 233 154 0 255 211 0 216 207 0 142 163 0 137 120 0 
21 105 164 0 110 255 0 60 238 0 52 200 0 47 225 0 123 255 0 155 255 0 184 255 0 89 255 0 37 61 0 80 0 56 113 0 199 255 6 208 255 28 255 255 28 255 255 28 229 255 40 191 255 153 78 159 255 81 112 255 112 71 255 248 149 255 255 188 255 255 184 255 255 173 255 147 2 255 55 0 245 25 0 228 50 0 255 32 21 255 0 0 242 0 0 232 0 0 225 74 0 104 209 0 52 255 92 1 255 137 0 255 101 0 140 0 0 70 8 0 18 34 0 0 184 0 0 188 0 187 250 0 188 255 11 224 255 28 255 255 52 214 255 5 184 236 0 128 123 0 0 81 0 29 5 0 117 19 0 168 11 0 170 0 0 173 0 0 194 0 77 187 0 117 161 44 134 78 41 44 61 82 35 0 63 3 15 49 49 143 100 219 114 165 208 153 192 247 106 103 208 180 160 255 255 209 255 255 199 255 212 232 255 159 151 255 158 112 255 191 150 255 255 209 255 219 229 255 173 212 255 200 166 255 127 100 251 48 14 244 79 12 255 137 0 161 175 0 31 231 0 17 214 0 2 255 33 81 255 145 22 255 208 28 255 208 28 255 229 28 255 145 0 134 129 0 59 241 0 94 255 12 109 248 0 139 140 0 199 105 0 241 158 0 255 255 56 255 235 125 190 0 5 148 0 0 143 0 87 255 160 255 255 203 255 255 218 255 239 139 255 252 150 255 168 122 181 168 175 146 173 147 144 199 98 154 211 98 158 141 104 144 118 190 118 148 244 120 133 248 167 68 118 167 0 57 105 0 120 147 40 170 190 214 255 255 172 255 255 86 255 255 75 255 255 75 255 255 69 255 255 0 185 180 0 84 35 0 116 0 0 135 0 0 154 0 0 122 0 0 74 0 0 148 0 0 175 0 116 228 0 92 216 72 0 255 154 0 255 152 0 237 174 0 251 255 0 214 255 0 227 255 0 228 242 0 140 154 0 149 255 16 188 255 24 194 255 0 157 255 0 99 255 0 145 255 0 212 255 31 255 255 0 211 162 0 94 133 75 161 174 60 162 64 26 221 45 94 255 119 127 210 82 135 228 99 207 184 118 228 70 45 218 99 0 255 161 49 255 233 148 255 207 116 225 216 163 100 215 160 13 255 130 52 255 246 106 205 255 64 86 111 151 172 141 188 204 156 138 146 73 27 94 0 0 99 0 0 130 0 0 98 0 0 117 0 130 202 88 178 244 122 198 196 61 255 131 58 255 66 0 216 140 32 217 215 67 123 149 186 208 198 255 199 70 255 148 64 255 229 84 255 255 29 255 255 59 255 255 39 255 255 94 100 255 115 0 255 162 0 255 208 28 255 171 0 255 134 0 255 194 0 101 164 0 114 255 5 47 255 30 11 255 97 0 255 71 24 156 68 40 9 52 175 50 130 246 63 123 255 189 79 255 208 28 255 117 0 208 149 0 74 193 0 168 255 0 229 255 83 255 255 164 255 179 166 249 77 165 198 0 186 122 0 179 47 0 189 0 14 132 0 66 111 0 65 134 0 68 116 0 82 33 0 59 51 0 38 148 34 47 166 136 0 52 145 0 0 86 0 0 36 0 0 0 5 33 120 162 174 131 226 94 136 255 194 101 255 255 25 231 255 0 220 255 43 255 255 59 255 255 92 255 255 155 255 255 137 215 216 147 168 239 232 162 255 207 139 226 124 148 190 200 139 255 255 46 255 255 93 255 255 107 255 244 73 179 255 127 141 255 108 190 255 120 223 255 204 213 249 94 112 255 110 80 255 104 173 255 146 255 255 182 255 91 13 255 31 0 238 1 4 255 0 127 255 14 129 255 96 151 255 120 94 255 125 0 255 144 0 154 92 0 26 37 0 60 0 0 76 0 32 10 0 85 0 0 182 0 57 255 13 21 255 0 0 183 0 0 135 0 0 127 0 0 90 0 0 102 0 0 100 0 0 105 0 0 82 0 0 55 0 69 128 0 92 255 0 142 255 0 166 235 0 134 142 0 97 82 0 137 35 0 216 0 0 179 0 0 178 0 0 178 0 0 151 0 0 132 24 0 58 68 0 0 128 0 0 125 0 0 160 0 0 106 0 0 92 0 102 146 0 121 198 78 39 144 213 51 208 255 28 207 255 0 224 255 75 255 255 
0 84 143 0 134 255 0 87 255 0 52 200 0 87 255 19 246 255 75 255 255 75 255 255 83 255 255 67 177 201 38 119 0 72 129 0 44 139 0 0 81 0 9 39 0 64 55 0 38 118 0 38 153 0 0 79 234 0 10 254 157 116 255 207 108 255 231 120 255 196 74 255 165 9 255 211 66 255 167 70 255 83 5 255 38 0 255 0 0 225 0 0 226 24 90 255 123 160 255 255 141 255 255 49 165 255 32 0 255 76 0 255 187 7 255 227 28 255 255 28 255 255 28 100 255 28 115 255 0 0 50 0 0 69 0 0 59 0 9 35 0 144 194 0 118 170 0 101 96 0 0 50 0 29 5 0 81 0 0 123 0 0 163 0 0 173 0 0 167 0 50 159 0 89 112 0 85 105 68 71 66 87 40 19 85 25 65 99 99 81 38 157 33 84 127 45 84 139 60 57 162 41 21 246 27 0 225 41 0 243 0 4 252 28 20 255 170 124 255 131 90 255 110 62 255 62 72 255 0 32 255 24 0 238 16 0 140 28 0 224 121 54 255 255 45 255 255 0 122 178 0 0 178 0 0 178 0 0 255 37 0 255 44 0 253 28 0 235 72 0 254 76 0 120 115 0 4 186 0 0 201 0 59 198 0 214 215 0 226 132 0 102 19 0 74 0 0 88 0 0 151 0 0 226 2 78 234 53 178 232 86 243 247 132 255 255 218 255 255 202 255 255 211 255 255 234 255 240 247 218 253 227 224 255 218 255 255 182 242 212 175 215 100 172 100 44 140 16 183 255 217 214 255 255 170 255 255 121 255 255 161 255 255 160 212 248 32 124 255 27 237 255 0 225 255 37 255 255 0 207 255 0 143 138 0 253 204 0 237 0 0 255 0 0 255 0 0 157 0 103 236 0 79 255 0 138 255 28 152 255 0 148 255 128 32 255 187 0 218 99 29 255 232 18 255 255 0 184 255 0 240 255 0 184 198 0 209 223 45 255 255 104 255 255 119 255 255 100 255 255 49 209 255 98 255 255 0 176 255 0 231 229 0 103 54 0 30 69 0 24 37 0 41 0 0 78 0 0 103 0 0 78 0 139 232 103 225 202 136 255 210 185 255 231 123 255 239 127 255 233 148 135 79 0 53 44 0 0 40 0 0 103 0 0 73 35 0 93 147 53 75 100 205 226 195 182 198 150 255 255 192 221 255 168 109 255 123 75 255 52 37 255 0 44 181 17 0 70 0 63 129 7 197 195 60 255 115 42 255 68 0 196 120 12 86 84 0 82 108 145 48 38 175 56 0 225 26 0 225 162 17 255 255 37 255 255 26 255 255 75 255 255 66 72 255 121 0 255 117 0 255 114 0 255 125 0 255 181 1 255 237 24 115 178 0 43 255 0 0 255 0 0 255 81 24 255 120 98 230 142 196 165 208 254 129 209 255 123 183 255 112 2 255 183 3 255 208 28 255 255 28 205 255 28 180 255 1 144 216 0 138 153 46 244 126 113 242 70 158 230 22 218 168 0 225 126 17 255 51 145 255 0 127 172 0 148 217 0 190 238 0 180 131 0 189 181 23 195 255 115 128 247 255 189 253 255 204 217 255 195 195 255 206 212 74 103 131 37 79 91 0 73 0 0 52 0 0 160 147 53 255 255 24 255 255 8 235 255 0 188 208 0 211 185 102 248 225 107 185 186 162 183 254 197 127 247 174 106 193 187 211 253 146 85 202 187 0 214 86 0 225 103 0 189 107 0 42 184 40 54 255 124 206 255 143 246 206 121 130 134 0 0 198 0 0 255 90 159 255 131 255 255 138 255 206 128 255 181 110 255 141 144 255 128 255 255 90 205 255 99 154 255 168 142 255 145 8 255 113 0 123 92 0 26 37 0 60 0 0 76 76 177 155 93 245 148 144 255 132 23 255 0 75 255 28 64 255 17 72 255 25 90 255 28 163 255 28 154 255 31 111 255 115 123 255 58 179 255 28 225 255 45 203 255 8 53 222 0 0 77 0 0 52 0 120 128 0 244 229 0 255 249 28 255 208 28 255 191 11 255 189 9 255 185 5 255 198 0 255 247 28 255 255 28 130 255 28 95 255 28 83 255 28 144 255 0 150 249 0 162 206 0 103 180 60 90 195 255 93 250 255 29 208 255 0 164 255 0 57 175 
0 240 255 0 170 255 0 115 193 0 128 123 0 100 0 0 97 0 0 111 51 0 151 31 49 97 0 47 48 0 0 44 0 0 48 0 4 52 0 55 156 64 0 173 126 0 116 201 0 109 184 8 0 101 124 0 15 196 0 0 222 0 0 242 0 88 255 0 255 223 0 183 178 0 58 145 0 46 107 0 155 61 0 239 87 31 255 124 45 255 255 21 255 255 0 255 80 0 255 0 0 225 0 0 225 14 0 231 0 1 252 0 112 154 0 102 78 0 104 61 0 46 49 0 10 97 63 0 191 84 0 177 184 0 182 255 179 255 255 216 255 255 248 242 255 231 175 255 255 120 255 255 113 255 255 109 255 255 81 207 181 0 159 107 0 168 159 0 146 162 15 128 176 44 5 139 0 0 135 0 0 170 156 0 132 184 0 52 32 0 70 42 6 58 6 56 69 71 118 58 106 141 58 56 78 48 0 0 39 0 9 4 0 50 25 0 107 43 27 127 42 0 195 42 0 255 71 0 255 104 243 255 92 255 255 111 255 255 34 165 255 20 148 255 4 169 232 0 158 186 0 91 82 23 0 0 46 0 0 101 46 0 147 79 152 114 187 255 114 255 255 145 255 255 174 255 255 196 255 255 198 233 255 115 250 255 97 255 5 29 141 13 142 151 26 233 89 0 226 69 0 240 255 0 184 255 0 117 199 81 219 244 141 208 166 143 191 179 211 229 255 178 171 255 215 143 109 210 186 0 0 75 0 0 113 0 219 145 0 255 230 22 255 234 28 233 205 0 99 99 0 69 117 0 70 218 0 71 255 132 64 255 248 9 214 161 79 150 180 67 72 201 42 47 176 87 107 148 73 181 84 30 255 88 55 255 190 15 255 255 25 255 255 12 253 255 0 178 255 0 96 255 95 73 255 71 0 255 169 36 238 255 133 222 255 166 168 255 255 162 204 255 28 172 255 28 151 255 28 134 255 28 116 255 28 114 255 28 131 255 14 229 255 58 255 213 255 255 137 255 255 40 255 255 0 255 255 0 255 255 0 255 241 0 255 178 0 225 178 0 225 182 0 255 210 86 255 255 159 255 255 139 255 255 181 255 233 222 255 214 254 255 155 215 227 53 241 29 53 255 73 23 255 0 0 243 0 0 156 0 0 168 0 0 255 0 26 255 0 11 255 0 0 255 0 37 255 0 135 232 53 255 221 255 255 152 255 255 169 255 255 211 255 245 216 255 144 177 255 136 116 255 118 112 255 169 255 255 150 255 255 85 194 205 163 187 249 208 67 255 176 135 255 180 200 255 190 244 255 162 255 255 131 255 255 173 255 255 212 255 86 200 255 35 216 139 81 225 63 152 255 110 231 255 166 242 255 172 214 255 192 233 255 249 200 188 255 205 17 206 52 42 161 0 91 17 0 150 113 135 98 149 216 55 145 255 115 205 255 82 255 99 39 255 89 26 255 58 0 255 0 0 255 0 51 255 4 0 255 0 0 255 0 0 225 0 0 255 23 197 255 196 232 253 255 255 215 255 255 164 255 229 0 255 178 0 225 145 0 225 0 0 225 0 0 225 0 0 225 18 0 225 8 0 159 0 24 0 0 48 0 28 29 0 40 23 0 72 76 0 11 86 0 0 108 55 0 162 255 0 156 255 33 255 255 34 255 255 75 255 255 73 255 255 0 221 255 0 150 255 0 174 220 7 255 126 46 255 14 25 255 0 42 255 0 10 245 0 75 255 0 51 255 0 174 255 134 156 255 255 112 199 238 233 158 255 240 75 228 255 191 253 255 222 210 255 255 100 155 212 0 56 81 0 57 14 0 255 236 0 255 226 255 250 229 255 208 251 255 59 102 255 76 51 255 195 45 255 196 76 255 91 30 255 51 0 14 176 0 0 178 0 8 180 0 0 255 139 187 255 173 255 255 132 255 255 120 255 255 19 255 246 0 255 109 0 225 100 0 255 140 0 255 255 68 255 255 94 255 255 98 255 255 136 255 255 18 173 251 0 0 218 14 0 161 55 0 177 75 0 118 24 0 0 85 0 0 135 0 0 135 0 0 255 45 0 250 182 0 180 255 0 98 255 0 101 255 0 225 255 74 255 255 75 255 255 75 255 255 75 255 166 75 255 28 75 255 28 75 255 28 40 255 0 0 234 0 0 247 0 
75 255 255 35 255 255 75 255 255 75 255 255 75 255 240 21 255 169 0 220 160 68 245 125 252 255 28 255 255 28 240 255 61 203 255 164 166 214 154 28 129 37 0 84 37 0 62 147 0 65 140 119 87 212 255 194 255 255 180 173 255 179 178 255 159 255 255 129 255 255 137 255 255 71 232 255 50 180 158 0 206 68 0 246 8 0 225 23 0 225 172 0 225 172 0 225 102 5 255 103 116 255 142 131 255 136 80 255 136 146 255 46 255 255 75 255 255 75 255 255 75 231 234 135 203 255 125 0 253 109 0 202 120 0 118 119 0 74 182 78 141 255 248 242 255 231 175 255 255 120 255 255 113 255 255 109 255 255 81 255 255 28 255 243 5 255 255 40 199 215 68 236 255 152 154 255 127 39 224 70 0 66 52 0 38 90 0 39 19 20 98 70 134 186 134 112 125 127 94 34 82 58 0 0 32 2 0 74 123 0 135 130 78 255 246 204 255 220 204 255 234 189 255 216 152 255 194 97 255 156 255 255 115 255 248 0 114 178 0 33 178 0 31 178 0 62 178 0 104 128 0 33 81 22 0 74 199 117 45 255 213 134 255 249 255 235 255 255 182 255 255 161 255 213 60 255 92 0 197 201 25 60 255 111 246 248 57 245 207 231 255 130 255 255 126 255 189 96 255 191 75 255 255 75 255 255 75 255 255 142 255 255 98 165 123 10 58 46 0 0 104 0 0 92 54 0 0 40 16 0 0 69 0 0 114 0 211 137 0 255 200 0 255 170 0 127 99 0 134 134 0 63 111 0 0 140 0 0 127 0 0 129 57 0 191 138 120 191 221 200 205 255 236 241 255 186 206 247 133 241 144 0 234 20 0 156 12 0 228 255 0 158 238 0 137 231 0 199 255 61 161 255 151 129 255 173 83 255 108 0 177 120 0 23 107 0 0 4 15 0 0 69 0 0 107 0 24 224 0 50 255 0 51 255 0 0 213 0 46 255 0 168 245 0 232 143 255 255 84 255 255 89 255 255 120 255 255 120 255 255 120 255 255 120 255 255 91 255 255 39 255 255 136 255 255 184 255 255 159 255 255 64 255 232 100 255 127 116 255 67 107 217 60 120 132 0 145 0 0 224 0 0 255 0 0 224 0 0 215 0 0 224 0 0 149 0 0 208 0 0 255 0 0 255 0 0 159 0 0 49 0 56 0 23 144 0 147 82 0 225 0 0 225 0 0 225 0 0 225 0 0 225 84 78 255 105 215 255 91 233 255 151 255 255 155 179 241 233 92 255 130 89 255 127 147 255 99 153 255 102 211 255 38 203 255 0 107 114 149 246 23 204 255 39 255 212 154 255 142 231 255 24 145 254 0 63 255 53 95 255 136 177 255 249 200 145 247 162 31 220 66 47 166 0 184 110 51 211 174 196 146 197 255 93 183 255 104 194 255 110 255 127 75 255 125 75 255 107 75 255 44 20 255 0 0 205 0 0 255 0 0 255 0 0 255 0 0 255 29 66 164 65 96 117 184 144 85 255 255 89 255 255 130 255 255 120 255 255 137 255 250 213 255 219 229 255 255 211 255 253 182 255 198 154 255 160 224 178 170 245 18 148 149 0 135 118 0 160 164 0 198 255 72 112 255 204 9 174 255 0 34 225 0 47 225 1 228 255 41 255 255 75 255 255 35 255 255 27 254 255 75 255 255 51 255 170 55 255 23 2 255 0 81 255 21 92 255 0 155 255 28 122 255 2 183 255 143 166 255 255 143 230 255 81 6 149 98 0 86 107 0 5 79 0 0 39 9 0 12 69 0 162 187 0 255 229 0 255 255 28 158 80 126 36 15 182 0 0 139 0 27 180 82 57 255 250 100 255 255 149 255 176 115 255 255 220 255 255 133 221 255 151 252 255 169 230 255 171 219 255 173 255 255 98 255 255 0 255 178 0 225 178 0 225 109 0 225 63 0 225 72 0 225 192 0 255 255 64 255 255 93 255 255 65 255 247 0 151 233 0 0 199 0 0 99 0 0 96 0 0 91 0 0 0 85 0 0 246 0 0 255 0 20 255 93 0 206 138 0 87 230 0 47 225 0 118 255 0 91 255 0 110 255 0 51 205 0 75 79 0 131 0 48 255 1 75 255 28 75 255 28 75 255 28 75 255 28 75 255 28 
0 0 124 0 80 7 0 92 0 53 166 110 210 167 242 222 0 127 178 0 1 178 0 0 178 0 12 178 0 101 178 0 225 131 0 221 150 24 255 186 68 255 164 131 255 2 66 255 0 18 235 0 113 255 99 246 255 107 255 255 75 255 255 75 255 255 89 255 255 44 223 189 0 156 9 235 112 66 255 124 221 255 126 255 255 140 255 255 46 162 255 28 165 255 99 208 255 110 122 255 73 37 255 44 0 191 0 0 178 0 0 223 0 0 255 41 0 228 0 0 178 0 0 178 0 0 121 0 7 127 40 43 125 0 55 61 20 148 0 10 81 0 0 7 211 0 130 255 0 255 255 16 255 255 0 255 186 0 255 223 0 255 255 4 255 255 120 255 255 123 255 255 144 255 255 61 255 234 12 119 223 0 124 59 12 106 0 98 57 0 116 6 0 108 1 0 156 13 7 248 25 0 216 49 17 255 209 75 255 255 75 255 255 75 255 255 0 210 255 0 203 255 0 168 255 0 130 255 0 88 182 0 66 125 0 58 170 0 66 178 0 54 191 0 56 180 0 20 150 0 0 198 130 48 255 255 167 255 255 124 255 255 120 255 255 120 255 255 120 255 255 100 255 255 27 255 255 0 255 239 7 255 96 71 123 0 146 28 0 255 49 0 217 0 101 170 0 100 167 0 0 164 0 137 250 97 127 134 140 134 151 131 85 249 141 0 161 70 0 134 108 0 39 74 37 34 0 215 141 0 255 156 4 255 105 16 255 55 0 255 85 0 255 59 0 255 175 0 255 223 0 114 255 0 42 255 0 0 255 0 0 255 0 0 255 0 0 255 0 0 235 0 0 218 0 0 171 0 0 237 0 125 255 0 238 255 28 238 255 28 75 172 0 0 51 0 0 51 0 120 168 0 255 240 0 201 255 10 37 227 19 18 218 79 98 255 171 114 255 234 55 255 255 0 125 254 0 62 163 0 148 142 52 207 155 75 255 212 75 255 255 97 255 255 95 255 255 76 255 255 168 255 255 152 255 255 95 159 255 9 24 69 0 20 0 0 3 10 7 0 67 40 188 200 179 188 205 255 151 204 255 48 164 255 9 163 255 51 121 255 73 0 255 41 0 98 0 0 0 49 0 255 60 0 255 100 0 255 188 31 204 65 14 178 0 0 178 0 0 178 0 0 176 0 17 49 0 0 50 0 0 0 23 0 0 105 0 110 228 242 238 242 255 255 191 255 125 69 255 0 27 254 12 76 255 141 108 255 192 121 255 154 106 255 71 144 255 100 179 255 174 128 255 247 106 255 255 2 255 255 120 255 255 120 255 255 120 255 255 120 255 255 37 255 255 19 190 216 0 0 255 130 0 220 207 0 0 172 0 0 89 0 0 71 12 0 57 62 0 31 164 0 0 225 12 0 253 187 90 255 255 143 255 203 145 255 255 186 255 255 68 255 255 89 255 247 109 255 169 83 202 184 208 24 147 179 20 119 163 52 82 233 44 24 255 73 75 255 255 89 255 255 173 255 255 219 234 255 133 96 255 228 11 255 255 29 255 255 107 255 255 70 187 207 126 171 210 237 255 207 184 255 183 255 255 111 255 184 0 255 79 0 189 0 0 120 0 0 113 0 0 110 0 44 255 0 70 255 0 161 250 0 217 164 0 192 86 0 122 52 30 0 0 131 0 2 109 0 31 47 0 77 14 0 125 42 0 251 136 12 255 170 0 208 0 0 208 0 0 80 54 0 51 203 91 7 255 185 0 255 232 0 255 202 0 255 171 0 249 222 0 206 255 57 115 215 177 80 82 222 0 120 255 0 182 201 0 239 171 0 255 211 2 255 255 28 235 255 153 176 255 255 165 255 255 95 255 255 52 255 255 49 255 255 46 214 255 185 86 255 255 16 255 255 58 255 255 110 255 255 112 255 255 72 255 255 92 255 255 121 203 255 194 106 255 118 0 255 112 0 255 145 0 255 208 13 255 237 28 255 255 28 255 255 28 255 255 28 204 226 0 160 196 0 162 147 224 255 218 255 240 218 255 154 255 255 106 255 255 36 194 255 0 11 242 2 0 225 68 0 249 25 0 129 42 1 0 114 0 0 192 0 0 255 63 0 255 134 0 74 130 0 0 80 0 0 133 170 0 164 248 36 255 255 75 255 255 75 255 255 
207 255 255 95 255 255 61 255 178 170 255 227 255 216 255 255 100 255 255 39 132 191 0 0 255 0 102 232 0 155 255 0 255 255 35 255 128 2 255 84 0 255 0 0 225 0 0 225 0 8 225 0 11 225 0 45 250 0 98 255 0 110 173 0 115 151 0 67 85 0 143 109 126 255 135 242 119 73 255 82 179 255 74 241 255 113 255 255 150 255 255 144 255 255 117 226 255 149 161 255 170 134 255 89 0 212 0 0 255 91 0 255 154 0 255 163 0 240 11 0 228 0 0 228 0 21 255 168 232 255 228 231 255 208 255 253 212 255 41 103 174 25 26 34 255 10 217 255 78 255 255 120 255 255 120 255 255 137 255 255 120 255 255 120 255 255 120 255 255 123 255 255 71 255 204 0 254 171 0 56 193 0 94 63 16 110 0 122 81 0 238 128 0 223 116 72 253 110 19 255 37 15 255 131 3 255 195 0 136 150 0 145 255 0 141 255 0 208 255 14 241 255 0 168 255 18 246 255 23 255 255 72 255 255 75 255 255 0 238 255 0 209 255 34 255 255 156 255 255 236 225 255 255 198 255 255 186 255 255 124 255 255 120 255 222 0 255 178 0 225 178 0 225 213 0 255 236 0 255 126 0 212 11 0 38 0 71 0 0 111 0 0 123 0 0 52 0 0 51 0 0 84 0 0 51 0 0 1 7 24 41 21 0 131 23 0 203 112 0 149 123 0 95 130 98 95 14 224 150 0 255 203 51 255 193 104 255 193 102 255 160 0 250 25 0 110 0 0 58 14 0 0 78 0 0 123 0 0 135 0 0 236 0 0 243 0 29 255 0 0 255 0 0 178 0 0 255 0 0 255 0 5 193 0 132 201 0 120 189 0 123 220 0 240 255 28 229 255 18 219 255 0 188 156 0 163 255 0 76 255 58 59 255 120 0 172 71 0 73 0 0 74 74 0 55 184 0 107 208 0 212 206 64 219 167 0 219 77 41 255 255 0 196 255 0 151 178 0 104 130 0 18 131 0 24 143 0 10 192 45 60 105 105 148 80 175 190 197 177 153 237 108 255 255 134 143 160 217 88 141 255 49 165 255 70 224 255 166 236 255 57 0 255 61 0 162 58 0 0 59 0 192 0 0 255 41 0 180 52 0 245 106 55 255 126 134 255 129 171 255 134 216 255 161 255 222 148 169 238 176 113 189 218 86 50 176 55 170 255 255 235 239 255 255 191 255 255 207 255 172 253 255 81 145 255 75 42 255 18 0 225 2 0 225 0 0 225 0 0 225 1 0 225 64 0 225 196 0 243 255 0 255 255 22 255 255 0 255 251 0 255 178 0 177 178 0 67 178 0 0 255 75 0 255 255 28 156 255 31 123 255 141 110 255 255 119 255 255 73 229 255 100 184 255 239 219 255 255 193 255 255 169 255 182 124 255 93 0 255 110 0 225 220 0 255 255 118 255 255 215 255 255 255 99 250 255 123 236 255 169 170 255 132 70 255 119 0 217 200 0 162 188 7 93 255 80 95 255 93 56 255 255 46 255 255 135 255 255 144 255 255 173 255 255 225 255 232 255 255 250 227 255 183 255 255 111 255 184 0 255 60 0 160 0 0 226 0 18 255 0 151 255 28 131 255 28 138 255 28 225 255 28 179 126 0 93 0 0 51 0 0 109 92 246 207 255 255 175 255 255 96 255 255 75 255 255 0 255 160 38 255 196 42 255 90 46 255 123 27 255 255 0 168 255 99 15 255 126 0 231 144 0 225 140 0 225 138 0 216 142 0 126 133 0 0 37 0 0 0 129 0 111 254 0 255 255 28 255 241 8 255 163 0 160 81 0 39 88 0 0 77 137 0 102 251 0 126 255 0 104 255 0 136 255 0 125 255 255 192 255 255 120 255 255 59 255 255 117 255 255 59 255 255 123 255 255 119 255 255 101 183 255 166 78 255 122 0 252 67 0 141 0 0 148 0 0 174 36 0 205 132 0 255 255 28 255 255 17 231 253 0 226 255 0 255 241 255 255 218 255 240 218 255 154 255 255 95 255 255 86 244 255 135 204 255 255 209 255 255 188 255 255 217 255 255 240 118 255 236 49 255 218 28 255 211 28 255 233 28 240 255 77 145 255 231 156 255 255 116 255 255 56 255 255 0 219 255 75 255 255 
255 197 255 255 180 255 255 40 255 131 0 225 110 0 225 144 0 255 255 156 255 252 255 153 161 255 28 89 255 28 158 255 28 186 255 28 200 255 28 107 255 0 42 167 0 16 29 0 134 0 70 120 0 225 242 0 255 255 0 255 215 0 255 185 0 255 181 0 255 135 0 255 51 14 255 0 38 180 0 193 218 75 255 255 75 255 255 75 255 255 75 255 205 92 255 255 205 244 255 255 198 255 247 127 255 214 76 235 113 0 177 88 0 225 87 0 255 0 8 255 0 56 117 0 39 38 18 14 89 88 0 151 128 18 91 62 0 67 97 29 198 142 45 255 50 15 255 69 0 241 53 0 228 22 0 225 131 16 255 178 143 255 163 255 255 111 255 255 74 255 255 37 255 255 0 217 255 0 146 255 0 136 140 0 111 0 0 171 0 0 255 30 57 255 255 33 255 255 0 97 52 0 50 210 0 0 225 0 0 225 0 0 225 0 6 225 0 37 168 89 104 211 169 31 138 94 107 0 19 16 0 5 25 0 5 18 0 32 0 0 4 0 93 0 41 136 0 64 139 0 198 255 75 255 255 75 255 251 75 255 255 0 252 129 0 239 0 172 255 0 255 255 28 255 134 0 178 0 0 178 0 0 178 0 0 173 0 0 123 0 0 21 16 0 17 95 0 52 255 176 75 255 223 75 255 189 75 255 159 0 222 181 0 119 0 0 105 0 0 131 18 71 197 161 139 191 245 255 150 255 255 41 94 213 0 0 188 0 0 184 0 0 255 39 0 255 162 109 255 188 130 255 182 159 255 163 255 255 169 230 255 171 219 255 157 255 255 142 255 255 130 255 255 80 255 255 0 255 85 0 63 44 0 56 0 8 3 0 49 0 0 65 0 0 92 0 0 94 0 0 86 26 0 79 63 0 179 196 0 228 255 0 170 255 0 117 101 0 115 43 0 137 255 0 180 255 42 255 255 110 212 255 81 71 255 0 54 241 0 29 225 0 47 161 0 44 72 0 34 108 27 210 255 45 255 255 0 216 255 4 236 255 59 212 255 184 247 255 203 237 255 186 252 255 225 255 255 247 108 113 177 0 0 107 0 0 92 3 0 162 99 96 255 44 133 255 1 3 155 0 0 88 46 46 16 65 156 60 158 255 0 128 255 74 255 255 116 255 255 0 126 255 0 69 255 0 0 225 4 0 225 158 0 255 255 79 255 255 168 255 255 179 255 255 179 255 255 195 255 255 183 255 238 173 255 160 170 255 153 143 255 210 169 255 207 108 255 255 154 255 210 188 255 177 250 255 134 236 255 193 242 255 183 247 255 137 255 255 107 255 255 58 181 255 24 76 255 62 27 107 78 93 74 0 120 0 17 217 0 123 255 7 137 255 28 156 255 28 115 255 0 48 247 0 122 255 0 196 255 0 171 172 0 243 216 99 168 147 56 97 122 34 60 117 27 50 83 80 78 49 223 206 148 255 166 157 236 163 207 255 142 182 255 96 138 255 146 136 255 211 49 255 179 31 129 255 93 114 255 89 150 255 152 255 255 165 230 255 89 59 255 33 5 255 46 173 255 23 255 198 0 255 21 0 225 0 0 132 0 67 208 0 92 255 53 255 255 0 255 157 0 222 0 0 255 14 0 106 0 0 11 147 70 39 82 181 0 11 178 0 95 178 0 168 178 0 168 178 0 225 255 0 255 255 86 255 255 107 255 255 217 255 255 220 255 255 204 255 255 192 255 255 255 52 255 252 28 255 238 184 255 229 255 205 255 255 218 251 255 149 255 255 93 255 255 92 255 255 117 255 231 95 255 0 72 180 0 192 255 0 0 255 0 0 239 0 0 164 0 0 114 0 0 103 0 0 85 26 0 233 150 0 242 146 75 255 255 65 255 255 0 176 255 0 219 255 0 184 245 0 171 191 0 190 240 0 144 136 0 255 37 22 255 0 41 255 0 73 226 98 49 169 155 153 181 204 203 255 202 124 215 188 204 156 230 255 146 85 201 114 0 193 156 0 168 204 0 82 223 0 99 255 0 0 255 0 0 255 0 0 255 0 0 239 0 87 166 0 234 243 90 253 255 95 240 255 171 255 255 249 173 130 76 99 145 0 0 161 0 0 244 0 40 255 0 55 255 8 75 255 28 8 255 0 75 255 28 86 255 28 
147 63 255 204 69 255 246 12 255 145 0 239 123 0 238 137 0 255 98 0 140 66 90 0 0 142 0 0 192 0 0 128 0 0 144 0 71 197 0 173 255 18 201 255 28 255 255 60 255 90 243 201 0 255 223 0 255 255 0 255 226 0 255 166 0 255 146 0 255 83 0 233 0 0 227 0 38 180 0 139 164 0 122 149 0 131 158 0 83 38 0 101 0 0 146 67 55 94 255 125 26 255 127 7 217 112 0 133 138 0 202 92 0 229 29 0 225 12 34 255 136 246 255 176 255 255 212 208 255 230 127 255 161 51 124 156 91 161 83 15 184 113 16 255 133 98 255 112 0 255 104 0 255 22 0 225 63 0 241 29 0 255 0 50 255 0 66 255 0 134 255 0 190 217 0 195 255 0 183 255 0 127 131 0 121 0 0 129 0 0 142 0 54 255 255 75 255 255 55 255 255 0 200 255 0 4 245 95 136 255 113 147 255 42 147 255 0 28 159 0 0 99 84 0 53 7 20 0 19 16 0 5 25 0 5 18 0 32 0 0 4 0 93 0 46 141 0 120 195 0 189 250 0 157 138 0 144 48 0 173 122 0 225 102 59 255 54 200 255 28 255 255 28 255 239 28 255 208 28 255 208 28 255 189 9 255 90 0 240 98 0 127 122 0 52 130 22 0 205 76 0 181 52 0 181 11 0 109 0 0 83 42 0 98 0 0 105 0 0 63 0 0 117 81 212 255 255 255 190 255 255 170 223 255 187 136 255 176 192 255 176 194 255 187 134 255 91 38 255 149 91 255 105 82 255 79 174 255 148 209 255 74 122 255 66 197 255 119 255 255 0 255 255 14 255 255 18 255 249 108 227 255 220 255 143 170 165 35 162 59 0 65 0 0 169 69 0 238 126 32 255 238 75 255 255 3 255 255 18 255 255 0 206 255 0 120 104 0 153 81 0 73 220 0 57 246 0 43 225 0 5 225 0 0 182 0 4 191 0 29 225 0 87 201 17 176 204 133 215 255 56 239 255 0 212 255 0 216 255 0 159 255 0 122 255 1 64 255 0 4 247 83 149 255 121 165 154 255 121 126 255 185 193 255 134 111 255 225 173 255 236 233 255 171 255 255 178 180 255 203 173 255 242 242 182 231 255 0 90 255 0 15 225 0 39 225 102 255 255 134 255 255 133 255 255 208 234 255 255 205 255 255 90 255 255 76 255 255 144 255 253 116 255 249 110 255 212 88 255 240 114 255 255 204 255 145 155 255 145 135 255 166 125 255 191 92 255 233 111 255 43 21 255 0 9 239 0 45 255 62 111 255 151 215 255 102 236 255 46 225 255 89 212 255 151 203 255 255 235 255 246 255 242 121 255 99 123 255 0 144 255 28 100 255 0 31 224 0 0 89 0 0 96 0 0 85 0 0 59 0 140 141 0 250 223 106 225 204 113 120 145 57 70 127 37 169 202 199 236 207 255 255 222 255 187 178 255 147 191 248 180 220 255 150 192 255 169 159 255 159 0 208 255 131 229 255 190 211 255 170 231 255 152 255 255 168 233 255 183 153 255 187 159 255 166 255 255 137 255 255 152 255 255 200 255 175 221 255 116 207 255 0 130 255 0 127 255 0 255 156 75 255 138 75 255 122 75 255 177 186 255 255 255 240 255 255 131 232 255 17 222 255 41 255 255 2 255 255 83 255 255 75 255 255 0 255 255 0 255 46 0 208 134 88 255 201 108 255 255 101 234 222 159 0 162 68 0 88 13 0 25 0 65 0 8 85 89 122 239 72 212 255 56 255 255 27 247 255 0 174 76 20 214 0 30 138 0 7 73 0 0 156 0 0 149 0 0 255 0 16 255 79 18 255 137 103 255 255 36 255 223 0 255 170 0 235 239 0 110 250 0 193 255 70 255 255 75 255 255 75 255 255 67 255 255 0 246 238 0 227 0 0 255 0 0 220 0 24 177 49 134 254 240 154 182 205 158 232 157 135 226 199 247 199 255 255 220 159 255 235 9 255 255 28 255 255 28 190 255 28 161 255 28 59 255 12 75 255 28 39 255 0 63 255 33 218 255 129 224 233 80 243 255 85 214 252 145 255 255 249 255 248 194 253 255 28 61 255 14 14 255 0 0 255 0 0 255 0 75 255 28 75 255 28 58 255 11 0 250 0 
0 1 223 71 36 255 170 83 255 226 51 190 108 0 96 0 32 76 75 53 253 221 107 255 251 121 255 175 59 255 152 71 247 255 177 255 255 172 255 255 142 255 255 193 247 255 103 15 109 0 0 10 70 0 0 192 61 0 202 109 0 190 109 0 79 33 0 73 77 0 58 86 23 39 136 81 29 162 37 48 90 65 101 23 59 53 0 160 9 0 242 44 21 186 73 0 223 60 0 255 82 0 255 142 0 255 234 28 255 255 28 207 255 28 194 255 28 255 255 28 249 255 28 116 232 0 43 184 0 29 133 0 0 63 0 43 21 0 46 20 0 0 71 0 103 177 0 223 210 127 255 246 150 255 237 162 255 255 228 82 255 255 38 255 255 0 252 198 0 180 0 0 191 0 0 238 87 75 255 255 233 255 205 255 232 184 255 216 160 251 105 80 255 89 180 255 113 235 255 125 211 255 120 255 255 120 255 255 36 255 202 0 249 222 0 255 255 31 255 255 0 255 185 25 255 32 0 63 43 0 24 204 128 119 255 244 187 255 224 237 255 207 255 255 166 138 233 140 255 46 11 215 21 85 255 101 178 255 138 143 255 209 120 255 120 0 190 79 0 157 63 0 58 203 72 140 237 108 179 131 84 202 92 231 255 0 146 89 0 223 0 0 220 0 0 129 0 0 154 0 0 123 0 0 102 0 5 184 0 0 243 0 5 255 0 15 255 0 0 255 0 28 255 0 22 255 0 35 255 0 58 255 39 75 255 139 75 255 255 61 255 255 0 179 255 51 255 255 50 255 255 74 255 255 173 255 255 198 199 181 255 255 84 255 255 28 255 255 28 255 255 28 135 139 0 0 154 0 48 191 160 255 193 255 255 158 255 255 34 255 230 0 207 178 0 93 186 0 0 255 61 0 167 84 0 240 79 0 229 106 0 80 162 0 77 255 0 72 243 0 144 142 0 255 176 0 255 205 0 255 162 0 255 157 0 255 158 0 255 165 0 255 190 0 112 175 0 0 140 0 0 255 0 7 255 0 73 255 29 75 255 162 75 255 161 75 255 247 72 255 255 0 179 255 0 135 255 0 172 255 0 128 153 0 126 81 0 48 72 0 0 225 0 0 225 0 0 225 0 0 225 45 76 255 202 91 255 99 36 255 65 0 251 14 0 225 0 18 255 80 69 255 101 5 225 75 0 147 46 0 47 0 43 0 0 85 0 0 107 0 111 50 0 122 17 0 7 2 0 0 29 37 0 0 152 86 1 255 255 121 255 255 195 255 105 189 255 0 172 224 53 26 119 53 34 6 210 234 36 156 236 0 146 255 0 246 255 28 255 167 60 245 201 255 99 244 255 0 189 255 0 142 238 0 30 186 0 16 225 0 88 255 0 244 91 66 255 205 99 255 255 106 215 255 44 205 203 29 171 83 73 101 12 140 0 2 255 62 66 255 76 0 255 148 0 255 30 10 203 0 32 255 37 187 255 55 199 255 113 255 255 0 255 178 0 225 178 0 101 161 0 0 18 5 0 35 46 0 129 211 0 106 231 0 100 163 0 2 106 0 96 0 0 164 0 0 164 0 24 255 65 156 255 56 45 255 23 0 178 0 0 0 61 0 0 90 0 57 37 0 255 173 0 255 211 28 255 208 28 255 208 28 255 183 3 255 111 0 211 146 76 140 237 144 207 196 255 255 203 255 195 160 255 171 145 255 235 151 255 237 125 255 255 75 244 255 124 183 255 240 99 255 255 28 255 255 28 255 227 28 255 210 28 151 68 0 0 95 0 0 107 0 0 93 0 40 61 0 151 233 135 110 255 230 83 255 207 154 255 191 255 236 212 255 201 221 255 248 90 253 255 70 255 182 0 255 135 0 255 68 0 91 14 0 0 68 0 0 78 63 0 24 58 0 0 15 0 14 37 0 30 76 0 14 218 50 131 255 226 242 255 255 199 255 187 128 255 239 181 255 255 178 255 255 125 255 255 122 255 255 0 255 255 51 255 255 97 255 225 101 255 106 94 254 0 185 218 0 228 255 10 241 255 71 255 255 3 244 255 75 255 255 75 255 255 75 255 251 75 255 123 58 255 11 0 207 0 0 135 0 0 135 0 0 128 0 0 159 143 0 96 146 0 17 101 0 0 81 70 0 35 255 4 16 255 102 0 255 163 0 
40 86 255 0 0 225 97 10 197 255 128 255 255 209 255 219 255 255 247 225 255 255 187 255 255 182 255 255 192 255 255 210 255 255 211 255 255 167 255 196 0 233 169 0 38 150 0 0 131 19 0 62 122 12 0 104 0 0 73 0 0 113 32 0 176 130 81 255 255 107 255 255 232 248 255 255 224 255 185 196 238 198 234 156 89 83 0 161 10 0 160 0 0 92 0 0 229 66 0 202 0 0 178 0 0 127 0 0 32 27 0 0 68 0 0 74 0 147 187 0 249 255 28 207 255 28 184 255 22 106 210 0 187 255 0 255 255 28 255 255 28 201 255 28 170 244 39 100 87 4 156 91 0 199 111 36 255 248 221 82 255 255 0 248 229 0 163 109 0 106 0 0 119 0 0 212 61 0 166 104 100 142 72 186 92 44 187 58 2 223 77 52 255 105 196 255 87 209 255 122 208 255 34 255 240 0 255 193 0 240 220 0 255 255 29 255 255 120 255 255 124 255 255 172 255 255 226 255 177 107 158 85 9 0 46 0 0 67 0 0 77 0 44 70 0 0 51 0 77 35 0 204 0 37 255 0 69 255 0 0 210 43 0 120 202 36 255 255 121 255 255 196 255 255 146 214 100 0 42 19 0 90 0 33 104 0 85 28 0 118 0 0 124 0 0 186 0 52 255 0 83 255 0 118 255 0 165 255 28 120 255 28 70 255 23 75 255 28 0 255 0 0 255 0 0 254 0 0 135 0 0 255 0 0 254 25 75 255 255 75 255 255 75 255 255 75 255 255 75 255 255 40 255 255 0 51 156 1 2 0 40 12 0 85 85 0 213 202 0 255 230 0 255 255 4 154 255 155 127 255 239 255 172 255 212 5 255 197 0 221 255 21 255 255 20 222 255 100 0 255 206 37 255 255 28 255 229 28 235 112 0 0 56 0 0 103 0 0 86 0 47 45 0 132 0 0 72 6 0 155 0 0 178 0 0 231 6 0 255 83 0 255 188 0 242 255 28 70 255 0 60 255 0 75 255 28 75 255 31 75 255 162 75 255 161 75 255 247 0 245 255 0 173 255 54 255 255 75 255 255 75 255 255 66 255 255 0 157 181 56 114 255 158 127 255 133 138 255 173 252 255 116 147 255 166 55 255 225 162 255 255 191 255 255 204 255 214 232 255 195 184 255 172 76 255 164 21 236 54 0 55 0 43 0 44 211 0 212 255 28 255 254 99 255 220 176 127 122 88 63 164 172 87 129 255 133 48 255 117 0 255 60 0 237 0 46 244 0 149 201 219 192 255 255 252 224 252 255 78 177 255 0 0 150 0 199 255 0 255 223 116 255 229 255 144 255 255 15 254 255 0 59 155 0 30 186 0 36 245 0 204 255 60 255 188 56 255 195 117 255 255 164 255 255 14 175 173 0 52 0 0 18 0 99 0 0 255 112 116 255 208 28 255 208 28 255 144 124 255 99 199 255 50 200 255 155 255 255 140 255 255 120 255 255 120 255 255 144 255 255 156 226 224 211 131 167 178 0 90 172 0 66 191 0 16 79 0 0 46 0 146 13 0 255 101 140 255 166 255 255 164 255 255 156 145 255 105 0 255 73 0 54 149 0 15 197 0 42 22 0 98 0 0 172 0 0 178 0 0 178 0 0 205 0 0 197 0 0 108 43 0 0 62 0 195 184 255 255 203 255 249 214 255 243 217 255 255 197 255 255 197 255 255 146 255 194 0 6 50 1 0 22 52 0 54 39 0 254 86 0 255 179 0 255 255 28 154 255 28 130 255 28 158 255 28 239 255 85 82 164 66 0 207 104 29 255 153 0 132 5 94 22 0 124 0 0 194 112 0 253 255 70 255 255 33 255 208 28 255 98 0 162 85 0 8 190 68 0 209 194 45 140 174 237 236 254 211 255 255 166 255 255 165 255 255 172 253 255 226 242 255 255 169 255 238 179 255 140 82 255 39 0 225 168 0 225 217 0 253 255 14 255 255 120 255 255 95 255 118 0 255 6 0 154 0 102 135 0 183 255 31 255 255 0 230 255 0 156 247 0 235 255 0 241 192 59 255 235 75 255 123 11 255 0 0 255 0 0 225 0 0 255 0 0 219 0 10 200 184 0 123 173 0 66 150 80 77 170 113 0 78 255 46 58 230 0 0 181 0 0 
8 39 0 0 79 0 0 135 0 0 135 0 19 34 0 98 0 0 158 0 0 205 0 0 255 54 0 255 119 2 255 8 86 255 4 255 255 131 255 255 153 255 255 196 255 255 255 217 57 142 0 0 100 0 0 141 0 0 199 0 0 208 0 22 253 173 57 252 224 76 235 255 157 221 255 79 133 255 0 141 255 27 254 255 42 222 255 84 127 255 67 85 255 0 12 228 0 99 255 0 159 255 88 255 255 134 255 255 62 255 255 1 237 247 0 147 15 0 132 0 0 114 0 0 99 0 0 104 93 0 139 255 59 255 255 75 255 255 75 255 255 75 255 255 75 255 255 75 255 255 51 255 184 12 255 0 0 241 0 0 164 0 0 135 0 0 124 0 0 113 0 93 38 0 148 25 0 94 0 25 35 0 51 0 0 120 0 28 47 17 173 33 0 230 96 0 255 197 73 255 255 75 255 255 75 255 255 100 249 216 15 179 202 0 81 78 0 32 13 50 73 67 138 172 136 240 255 134 159 255 51 190 255 40 226 213 68 210 115 63 163 72 39 45 18 0 0 8 30 0 6 83 15 0 85 57 13 60 0 62 0 0 88 0 0 46 0 65 1 0 93 0 0 88 0 0 71 9 0 154 0 0 255 88 100 255 27 124 255 13 135 224 0 0 158 0 0 226 0 10 255 3 186 233 0 140 70 0 19 106 76 40 175 94 187 255 47 255 255 71 255 235 19 218 255 80 134 255 210 157 255 217 132 255 190 231 255 190 118 255 240 60 255 199 17 210 93 0 164 59 0 128 0 127 250 71 125 255 108 14 255 197 73 207 238 87 154 239 35 220 255 53 161 255 23 40 255 0 40 255 0 1 255 0 131 255 0 153 254 0 17 114 0 12 22 0 81 0 0 148 0 23 255 39 249 255 196 255 214 232 255 219 229 255 210 255 255 255 212 189 255 238 113 169 240 0 0 93 0 57 14 0 112 0 0 81 2 0 79 164 0 42 246 249 68 255 255 78 255 255 120 255 255 131 255 255 91 185 255 0 0 253 65 0 225 225 0 234 255 111 255 255 138 255 255 67 255 255 84 162 255 0 49 255 1 255 255 17 255 241 0 255 174 0 240 88 0 157 1 0 127 0 101 255 86 239 255 75 255 255 75 255 255 1 233 255 0 208 255 0 168 255 0 69 215 0 62 65 0 54 119 0 155 255 75 255 255 75 255 255 164 167 255 58 48 255 0 0 238 72 135 255 117 255 255 116 255 255 141 255 255 75 255 255 32 255 255 7 234 255 34 255 255 0 186 255 0 171 255 27 254 255 75 255 255 75 255 255 75 255 255 0 212 255 171 202 255 188 125 255 217 112 255 69 0 245 57 0 225 71 0 225 85 0 255 141 182 255 139 205 255 141 175 255 198 194 255 68 173 255 84 235 255 83 179 255 123 125 255 255 93 255 255 83 229 255 65 116 240 3 0 178 0 0 178 0 0 178 0 0 120 90 0 130 239 22 137 226 150 0 143 240 0 55 182 0 47 225 0 114 255 22 171 255 196 241 255 243 217 255 255 211 255 255 216 255 252 210 255 97 152 246 21 204 234 0 246 255 48 255 255 75 255 255 75 255 219 75 255 77 75 255 28 75 255 28 218 255 28 255 255 28 255 244 28 255 208 28 255 208 28 255 208 28 255 143 0 255 92 0 255 86 0 255 112 54 255 84 255 255 110 255 255 63 255 105 72 255 14 127 255 0 58 236 25 252 255 29 255 255 13 248 255 6 254 255 177 255 255 255 192 255 255 134 255 255 60 255 255 53 255 255 98 255 255 145 255 255 144 255 255 83 208 245 0 0 229 0 0 255 101 107 188 54 253 253 79 242 116 170 255 66 146 221 188 233 255 185 209 255 150 184 255 116 140 255 159 255 255 121 255 255 83 255 255 0 192 255 0 203 162 2 255 42 95 255 127 114 255 136 135 255 136 229 255 228 255 182 255 255 162 255 255 154 255 255 97 255 255 0 154 255 32 72 146 49 0 0 119 0 0 66 0 0 13 31 18 0 125 109 69 242 166 255 255 169 255 255 211 246 255 208 252 255 255 197 255 255 210 255 228 224 255 255 145 255 211 0 255 178 0 225 110 0 225 19 41 255 0 140 255 0 112 255 0 54 95 0 88 14 
8 39 0 0 111 0 0 249 0 75 255 28 255 255 28 255 249 28 255 218 28 255 159 0 255 164 0 255 198 81 255 166 244 255 134 255 255 96 255 255 7 165 114 0 35 125 119 79 218 255 102 180 255 28 183 255 28 79 255 0 0 181 0 22 253 173 97 255 255 135 255 255 187 251 255 190 244 255 116 255 255 75 255 255 0 174 255 0 0 225 0 0 225 0 9 225 0 62 240 0 69 248 0 62 208 0 36 127 0 69 142 0 136 146 0 185 53 148 255 146 0 216 49 0 250 103 0 240 229 42 255 255 75 255 255 75 255 255 75 255 255 75 255 255 75 255 255 75 255 255 75 255 208 0 255 0 26 255 0 12 255 0 16 255 0 0 251 0 0 168 0 173 118 13 255 221 191 255 218 255 255 227 255 222 248 255 78 181 200 43 199 59 0 117 0 0 86 24 0 85 28 0 84 35 0 90 3 0 114 81 0 159 182 56 184 181 14 59 40 52 75 69 213 247 211 240 255 134 159 255 51 190 255 40 255 255 122 255 198 146 168 77 44 143 116 73 125 162 184 150 201 255 162 122 232 243 199 246 168 255 101 169 255 122 228 255 84 255 191 9 255 154 0 255 207 0 255 255 28 255 214 107 255 177 189 255 163 255 255 155 255 255 180 171 255 195 143 255 171 217 255 149 255 255 147 255 255 225 255 255 250 214 255 185 255 255 0 255 255 0 255 255 43 242 255 71 125 255 198 145 255 183 98 255 190 231 255 123 51 193 75 0 139 15 0 137 20 0 242 137 58 184 29 183 184 5 59 184 0 0 242 146 22 250 255 130 218 255 99 235 255 68 43 221 0 78 255 0 53 255 6 75 255 28 191 255 28 217 255 28 219 255 28 255 255 107 255 189 174 255 126 230 255 11 221 189 88 255 99 117 255 219 229 255 210 255 255 255 212 189 255 238 113 235 255 42 204 255 28 255 255 28 255 135 0 143 64 0 0 54 0 0 146 149 0 115 255 0 102 255 21 180 255 60 203 255 163 255 255 203 204 255 220 77 255 255 22 255 255 52 255 255 0 223 244 0 236 178 0 0 178 0 0 178 0 141 178 0 225 178 0 225 159 0 225 88 0 157 1 0 127 70 175 255 124 255 255 75 255 255 75 255 255 75 255 255 75 255 255 75 255 255 88 255 255 106 255 255 121 255 255 107 255 255 75 255 255 75 255 255 163 166 255 112 102 255 24 14 255 77 140 255 30 194 255 0 140 255 0 84 255 0 70 248 0 160 255 32 255 255 75 255 255 75 255 255 55 255 255 0 158 255 0 47 225 0 61 154 0 195 152 24 240 255 164 195 255 138 75 255 48 0 233 49 0 225 57 0 225 71 0 225 112 22 255 98 139 255 159 225 255 203 237 255 211 207 255 34 139 255 25 176 255 42 138 255 112 114 255 255 116 255 255 155 255 255 166 217 255 140 34 178 0 0 178 0 0 178 0 0 65 35 0 129 238 21 193 255 206 75 221 255 0 206 255 0 47 225 0 45 225 0 64 255 113 158 255 243 217 255 255 211 255 255 216 255 255 220 255 184 239 255 83 255 255 0 239 255 75 255 255 23 255 226 6 255 150 49 255 51 9 255 0 75 255 28 203 255 13 115 66 0 106 0 0 178 0 0 178 0 0 178 0 0 210 0 0 247 22 0 255 153 47 255 188 130 255 148 255 255 42 255 194 0 255 14 0 247 29 142 255 0 176 255 0 136 255 0 143 255 0 123 250 0 162 214 57 155 230 176 77 255 255 83 255 255 42 255 255 127 255 255 120 255 255 89 255 255 144 255 255 80 205 255 186 139 255 197 83 255 201 207 255 191 255 191 17 180 122 176 255 80 160 235 194 239 255 210 234 255 203 237 255 212 236 255 161 255 255 126 255 255 111 255 255 75 255 255 75 255 255 82 255 122 95 255 127 114 255 136 135 255 136 217 255 216 255 180 255 255 162 255 255 127 255 255 103 255 255 29 192 255 77 117 255 193 100 51 252 0 99 251 66 144 197 215 255 221 255 255 223 255 166 255 255 153 246 255 128 163 255 208 252 255 255 197 255 162 116 255 0 0 247 67 0 225 255 39 255 255 120 255 255 143 255 88 110 255 0 21 225 0 28 194 0 54 95 0 154 80 
0 172 255 75 255 255 75 255 255 75 255 255 75 255 255 31 255 255 43 6 255 152 0 225 178 0 139 178 0 0 246 0 50 255 59 159 255 152 255 255 136 255 255 176 212 255 92 77 233 0 19 255 24 182 255 164 255 255 190 255 255 233 228 222 255 171 75 255 255 75 255 255 75 255 255 11 238 255 0 70 248 0 47 225 0 51 229 0 59 240 0 56 242 0 72 65 6 55 0 0 44 0 14 36 0 61 12 0 37 24 0 60 87 0 176 255 0 152 255 28 161 255 28 75 255 0 0 207 0 0 94 0 0 64 0 0 54 0 4 12 0 44 0 81 172 0 175 207 0 222 255 0 255 186 33 255 175 36 255 255 84 255 255 182 255 255 209 210 255 244 200 255 198 238 255 8 124 171 0 0 127 0 0 130 0 0 178 0 0 181 0 0 255 62 255 255 135 255 255 120 255 255 120 255 255 120 255 255 120 255 255 98 255 127 87 255 19 0 205 146 0 121 249 94 138 241 50 0 214 79 0 176 49 20 255 61 249 255 144 255 255 209 255 47 164 255 23 173 255 20 113 255 30 152 239 0 180 108 23 242 64 0 254 175 59 255 249 0 216 156 0 167 159 0 133 86 0 244 255 51 255 255 69 255 209 35 245 48 21 76 0 255 25 125 255 8 255 255 45 255 56 0 115 105 0 255 111 0 233 255 0 255 214 62 255 55 56 255 114 140 255 12 49 255 138 86 255 255 196 255 71 228 255 71 255 255 75 255 255 67 255 255 30 255 174 0 180 8 0 93 0 0 70 0 47 19 0 106 0 0 144 0 0 195 0 2 241 0 143 159 0 133 101 0 175 123 56 255 169 255 255 123 255 233 119 255 255 131 255 255 163 255 255 131 255 255 123 255 242 147 255 194 28 179 114 0 162 134 103 255 122 72 238 56 202 255 122 179 176 59 198 142 17 255 131 46 255 171 82 255 168 195 255 187 134 255 191 115 255 179 158 255 147 157 237 0 0 218 0 0 254 29 0 255 63 0 255 112 0 255 130 17 255 169 82 255 136 231 255 0 255 178 0 225 178 0 225 178 0 202 255 0 186 255 88 255 255 61 255 178 0 111 178 0 12 182 0 0 255 68 220 255 147 255 255 150 255 255 209 255 255 245 231 167 145 71 90 35 1 0 0 150 0 64 139 0 57 173 0 79 254 0 59 237 0 47 225 0 47 225 0 54 232 0 142 255 0 162 255 23 250 255 0 208 255 232 222 255 240 179 255 164 61 255 124 0 255 178 0 225 255 5 255 255 65 255 255 54 255 255 46 255 192 0 239 233 0 255 208 41 255 133 113 255 255 69 255 228 0 255 134 0 0 161 0 0 213 0 0 255 177 0 255 212 28 255 255 28 156 255 28 106 255 28 75 255 28 109 255 28 142 255 97 187 239 255 164 161 255 122 177 255 149 208 255 115 98 255 76 155 255 118 201 207 133 255 109 104 255 0 13 176 0 74 158 0 33 79 0 66 68 7 76 79 136 255 72 228 255 56 189 255 58 255 255 12 255 255 0 120 255 28 153 255 0 218 255 0 255 139 138 255 173 255 255 205 255 255 255 174 255 255 194 255 240 234 255 255 154 255 255 91 255 255 105 255 255 40 255 255 43 245 255 126 219 255 164 253 255 172 212 255 255 136 75 255 90 0 204 0 0 126 0 0 121 0 0 131 0 0 135 0 0 135 0 0 218 0 14 255 0 218 255 28 255 241 0 154 155 0 168 235 0 69 162 0 112 216 0 198 252 0 205 254 16 162 255 28 212 255 28 211 159 0 175 0 0 178 0 0 255 73 0 255 177 0 255 175 19 216 54 0 255 85 0 255 192 0 255 208 28 255 192 109 255 189 125 255 170 79 255 178 9 255 140 0 255 141 0 255 154 0 255 103 0 255 208 28 255 215 0 107 211 0 0 174 0 0 94 0 76 154 0 0 240 0 0 235 21 0 146 0 0 156 60 14 255 185 75 255 239 75 255 255 41 255 255 0 255 145 22 255 216 75 255 255 41 255 255 26 184 218 52 38 135 130 0 79 255 0 182 255 65 252 255 169 249 255 216 191 255 235 143 186 179 255 242 159 255 115 144 255 132 198 198 143 117 169 107 133 255 0 120 255 0 163 174 0 189 151 
35 255 255 75 255 255 75 255 255 75 255 255 12 239 255 0 47 225 0 0 225 152 0 225 178 0 139 201 0 19 238 0 42 178 0 7 178 0 58 178 0 143 176 0 0 240 0 0 255 0 41 255 72 230 191 0 125 183 9 120 108 35 30 21 86 0 0 126 41 0 185 254 0 214 255 6 233 255 58 255 255 0 85 255 0 47 225 0 44 225 0 17 203 0 26 19 0 26 0 0 44 0 66 88 0 218 169 0 163 150 0 75 102 0 0 64 0 0 96 0 0 91 0 0 100 0 0 121 0 0 94 0 11 116 0 82 156 0 140 148 58 166 83 203 255 0 255 255 0 255 255 107 255 255 179 255 255 179 255 255 121 255 255 95 201 255 209 210 255 244 200 255 207 247 255 167 255 255 188 150 255 234 28 255 232 28 255 201 63 255 185 146 255 109 255 241 0 211 255 0 255 232 0 255 205 0 252 199 0 246 77 0 225 0 0 225 0 0 177 120 0 95 103 0 0 178 0 0 200 65 0 172 45 16 137 0 108 255 140 255 255 209 255 148 255 255 130 255 255 173 255 255 159 255 255 127 255 249 71 255 112 0 179 100 0 91 12 0 174 114 0 236 228 75 255 255 75 255 255 85 255 255 81 255 221 130 255 143 224 255 200 255 166 255 255 134 255 255 158 255 255 204 255 255 176 255 212 12 255 178 0 225 71 0 225 0 0 225 0 0 225 0 0 225 5 0 225 33 0 200 7 164 255 6 239 255 75 255 255 75 255 255 95 255 239 18 255 84 0 195 50 57 195 0 255 229 0 255 223 57 255 194 170 255 175 228 255 157 255 255 165 255 255 177 255 225 158 255 176 255 255 123 255 233 8 202 197 38 198 255 0 22 122 0 103 129 95 255 214 147 255 194 156 255 242 66 244 216 0 78 0 0 70 0 0 49 0 15 12 0 53 0 0 178 0 0 178 0 0 181 0 0 255 10 0 255 106 30 255 137 116 255 177 187 255 183 153 255 199 74 255 208 28 255 208 28 255 118 0 218 0 0 178 0 0 250 0 75 255 0 255 255 42 255 255 0 255 255 0 255 255 104 255 255 11 231 255 28 241 255 28 252 255 54 160 255 107 193 255 7 159 210 0 117 178 0 72 86 0 100 199 161 147 223 201 127 225 170 136 88 137 255 50 255 255 75 255 255 62 255 255 0 202 255 0 112 255 0 162 255 0 188 255 0 187 255 0 180 255 0 183 255 50 255 255 232 222 255 255 205 255 255 191 255 255 174 255 255 120 255 255 117 255 255 41 255 255 18 255 255 61 255 255 13 255 255 0 255 238 71 255 185 165 255 255 150 255 255 120 255 255 212 120 255 201 13 255 106 0 255 95 0 255 84 0 193 180 0 57 250 0 35 255 0 47 255 0 94 255 13 139 255 94 212 255 255 231 228 255 193 248 255 193 252 255 242 225 255 187 255 255 196 255 255 170 255 146 155 255 35 83 246 0 78 162 0 62 108 0 66 68 7 86 89 146 178 0 54 255 0 118 255 83 255 255 83 255 255 114 236 255 17 142 249 0 202 255 1 255 27 26 240 0 19 113 0 47 113 131 0 255 111 15 255 47 41 205 252 0 176 255 0 234 255 24 255 241 0 255 224 0 139 255 54 147 255 134 223 255 172 212 224 239 100 0 255 0 0 224 0 13 255 12 75 255 100 75 255 45 0 255 0 0 255 0 0 255 0 0 241 0 107 206 0 46 20 0 28 29 0 0 51 0 0 60 0 0 64 0 79 133 0 139 188 0 99 255 0 13 121 0 58 6 0 133 0 0 255 88 0 255 208 28 255 229 28 255 239 83 255 217 120 255 182 51 223 64 0 255 93 0 255 79 0 255 186 122 255 144 53 255 177 8 255 186 6 255 127 0 255 154 0 255 104 0 255 112 0 255 251 15 177 255 0 89 255 0 195 255 16 121 199 0 0 239 0 0 255 62 12 255 144 2 255 178 50 255 221 0 255 152 31 255 255 60 255 255 0 234 106 0 170 96 0 126 39 0 99 67 0 68 102 0 0 81 130 0 79 214 0 112 255 82 255 255 199 255 255 216 191 255 253 161 249 242 255 255 187 255 182 211 255 75 141 141 116 90 142 0 0 127 0 22 198 0 74 85 0 149 111 
187 67 255 255 138 255 255 126 255 255 150 255 204 61 255 117 0 255 35 0 196 160 0 161 229 10 186 255 0 221 255 60 255 255 54 163 255 68 242 255 106 255 255 144 255 204 135 255 99 133 255 0 28 255 0 18 225 0 16 225 0 76 255 222 228 255 255 178 255 255 178 180 255 167 133 232 0 22 192 0 68 255 0 151 255 168 235 255 177 189 255 210 210 236 255 255 133 255 255 0 225 195 0 162 134 0 87 255 0 174 255 0 214 255 0 183 255 0 229 255 0 219 255 0 227 255 0 233 255 0 130 252 0 54 232 0 57 235 0 64 249 190 157 255 255 120 255 255 120 255 255 120 255 255 120 255 255 81 255 255 4 252 255 0 91 222 0 0 178 0 0 168 0 0 178 0 0 178 0 0 178 0 0 178 0 0 178 0 0 178 0 0 255 86 0 255 117 0 226 71 0 187 0 0 178 0 44 178 0 113 255 0 246 255 58 255 255 126 255 255 150 255 255 204 255 114 255 255 75 255 255 65 255 255 0 91 255 0 0 225 22 0 225 15 0 225 37 0 147 232 93 255 238 44 255 159 66 133 0 8 0 0 0 76 30 31 255 31 0 255 255 18 255 255 93 255 255 162 255 255 199 255 195 132 255 49 0 161 36 0 47 24 103 96 0 205 19 103 255 0 50 130 0 0 103 0 0 95 0 0 98 0 0 69 0 4 31 0 64 32 0 104 157 89 191 255 246 210 255 255 106 185 255 62 84 182 63 67 41 0 86 0 0 59 0 50 10 0 110 0 0 178 0 33 184 0 0 220 138 17 215 226 14 127 189 0 11 144 0 0 115 0 0 135 0 0 135 0 0 134 0 0 87 21 0 47 225 0 133 255 0 159 255 0 39 241 0 0 225 68 0 225 255 13 255 255 46 255 255 173 205 255 196 35 255 93 0 255 66 0 96 83 0 114 230 0 0 255 0 0 255 119 72 229 224 253 163 255 255 118 255 255 83 255 255 153 255 255 119 121 255 148 127 255 85 197 73 11 60 80 77 48 93 5 15 137 0 76 150 37 255 82 114 255 0 235 255 40 255 146 15 83 0 146 71 98 255 68 255 255 0 215 255 0 104 178 0 67 178 0 108 178 0 150 178 0 129 233 0 85 255 69 117 255 103 160 255 130 233 255 70 184 255 153 255 255 143 255 255 120 255 255 120 255 255 120 255 255 99 255 73 0 255 26 0 139 0 3 118 0 31 132 0 57 0 30 77 0 255 237 159 255 219 155 255 186 255 255 67 255 178 0 10 178 0 0 191 0 0 236 72 93 255 218 251 255 237 255 212 158 178 255 116 220 255 212 255 193 255 255 203 250 255 255 210 255 202 70 255 255 0 255 178 0 255 224 0 255 255 0 255 255 110 255 255 113 255 255 0 255 178 0 225 141 0 225 73 8 255 0 146 255 0 156 255 0 76 177 0 78 67 0 87 19 0 119 117 13 255 242 75 255 185 0 186 105 0 0 26 86 0 0 148 42 0 255 255 28 255 255 28 255 255 33 214 255 106 109 255 136 75 255 224 75 255 255 75 255 255 119 255 255 231 223 255 255 187 255 255 148 255 255 125 255 255 123 255 255 116 255 255 0 234 255 101 255 247 162 255 216 170 255 110 250 255 0 147 255 0 81 240 0 78 84 0 185 56 0 212 64 0 201 0 0 135 0 0 110 0 0 73 0 56 14 0 178 0 0 183 0 0 255 14 46 255 32 228 247 0 159 167 0 44 75 0 0 21 25 0 0 55 0 118 255 0 114 255 28 114 255 28 149 255 28 255 255 31 255 197 160 255 108 214 255 0 167 255 0 255 255 25 255 255 59 255 255 150 255 255 29 168 255 0 255 209 0 255 226 0 205 255 98 255 255 138 255 255 132 255 222 93 255 135 5 255 61 0 187 0 0 225 0 30 232 8 182 255 21 248 255 33 255 255 89 255 255 75 255 255 75 255 255 234 240 120 247 170 4 157 31 0 200 0 0 205 0 0 178 0 0 178 0 0 178 0 0 178 0 0 178 0 0 255 69 122 255 151 255 255 138 255 255 125 255 255 71 255 255 79 255 255 187 255 232 222 255 149 255 255 75 255 255 75 255 255 27 255 255 0 191 255 0 239 255 9 93 214 108 135 255 
202 82 255 255 127 255 255 162 255 255 190 255 255 139 255 252 105 255 133 45 255 234 69 235 255 169 255 255 117 255 255 139 255 255 161 255 255 150 255 255 120 255 255 149 255 68 0 255 16 50 255 94 164 255 133 255 255 137 255 255 0 74 255 2 8 254 183 13 235 243 0 0 238 0 0 178 0 0 178 0 54 255 78 245 255 168 235 255 146 158 255 120 120 130 155 164 30 203 206 0 207 177 0 81 53 0 47 225 0 69 247 64 255 255 75 255 255 75 255 255 75 255 255 75 255 255 13 255 255 0 169 255 0 182 255 44 255 255 89 255 255 247 214 255 255 45 255 178 0 225 178 0 225 178 0 225 178 0 225 178 0 131 178 0 3 178 0 0 200 0 0 230 20 0 255 113 0 255 60 0 255 208 28 255 208 28 255 208 28 255 208 28 212 0 0 199 0 0 233 78 0 255 90 0 255 34 178 195 0 130 209 0 179 255 0 255 255 0 255 229 5 255 135 72 255 0 139 255 0 184 255 0 94 255 0 56 243 0 0 225 48 0 251 127 60 255 237 155 255 255 148 255 255 167 255 255 219 255 223 243 222 124 152 229 37 38 255 0 0 225 135 0 225 178 0 225 96 0 225 76 0 255 43 0 255 119 13 231 69 5 80 0 55 48 0 171 0 0 126 0 13 93 0 27 137 0 131 255 5 148 255 28 204 255 28 255 255 79 255 249 212 225 255 210 201 255 255 195 248 255 117 196 255 136 158 255 199 203 177 189 255 60 229 255 77 255 254 152 255 200 244 255 44 175 255 149 169 255 192 71 255 255 57 239 255 56 102 235 0 0 237 0 0 141 0 0 148 0 0 255 0 0 241 175 53 255 255 21 248 255 10 237 255 6 161 255 93 64 255 110 0 255 202 0 255 255 0 217 222 0 0 178 0 0 178 0 0 178 0 0 62 49 0 133 249 0 75 255 91 34 255 171 68 225 220 179 89 255 255 64 255 255 169 255 255 165 255 255 145 147 255 155 134 255 89 201 248 186 235 241 238 209 180 92 102 205 37 144 92 0 221 34 66 255 0 236 255 102 255 208 219 255 180 255 229 255 255 91 255 255 18 238 255 45 159 255 40 211 255 98 255 255 83 255 255 38 255 255 50 177 255 107 155 255 159 216 255 0 95 178 0 19 178 0 56 178 0 108 226 0 255 255 18 255 255 27 255 228 0 255 29 0 217 26 0 139 1 56 171 34 178 255 142 255 147 221 255 142 153 64 0 107 0 0 134 0 1 178 0 92 178 0 10 193 0 0 255 54 107 255 145 166 255 191 224 247 206 252 219 165 185 255 118 222 154 68 217 0 58 200 77 124 255 157 111 255 177 45 255 172 0 225 123 0 225 178 0 225 206 0 253 255 9 255 255 51 255 255 0 255 255 23 255 255 64 255 168 103 255 95 248 255 0 211 255 0 178 255 63 255 255 26 255 225 0 226 224 9 255 238 0 237 63 35 246 165 166 175 202 234 111 109 239 133 72 255 236 0 255 255 28 255 255 25 106 196 0 0 121 0 0 97 0 0 77 69 0 197 255 5 169 255 115 107 255 90 0 255 123 0 225 178 0 198 178 0 101 255 6 199 255 133 255 255 99 255 148 63 255 21 0 245 0 66 255 0 179 255 9 239 255 0 216 222 0 231 102 0 180 32 0 175 0 0 251 0 91 255 0 197 255 28 255 255 35 255 199 76 255 177 50 255 173 205 255 147 255 255 146 255 255 153 245 120 22 0 21 25 0 0 53 0 0 80 0 0 170 0 60 255 0 147 255 26 255 255 31 255 237 200 255 191 255 255 77 255 227 0 227 230 0 206 255 0 213 247 0 141 178 0 40 178 0 216 166 0 225 169 0 148 143 0 138 82 0 194 82 0 194 56 0 225 57 0 225 60 0 186 0 0 225 0 23 225 0 29 225 38 255 255 75 255 255 89 255 255 75 255 255 31 255 255 222 228 108 255 250 84 255 239 26 255 130 0 255 131 0 255 162 0 255 208 28 255 208 28 255 208 28 255 208 28 255 74 127 220 0 107 178 0 131 178 0 200 178 0 225 107 0 225 223 109 255 232 222 255 149 255 255 75 255 255 0 138 255 0 49 214 0 47 225 0 65 134 0 11 132 20 47 210 
255 231 28 255 232 28 255 233 28 255 211 28 255 150 0 255 127 0 255 82 0 134 34 0 45 53 0 158 146 50 158 178 219 91 187 255 131 255 255 140 255 219 159 255 111 179 255 43 126 162 0 116 94 0 146 91 0 74 6 0 74 0 0 53 0 0 57 0 19 30 0 0 0 41 47 60 88 175 211 126 255 214 130 206 176 170 140 169 178 119 98 130 123 85 153 150 83 180 89 41 209 0 149 122 0 255 78 27 255 128 115 255 177 192 255 163 255 255 131 255 255 78 255 252 0 255 155 0 225 158 0 225 229 0 255 255 3 255 213 120 255 66 0 255 137 0 255 75 0 225 29 0 225 0 0 225 0 0 225 42 0 244 100 89 205 109 255 255 75 255 255 75 255 255 0 255 164 62 243 154 109 105 232 103 21 255 77 0 216 157 87 255 255 161 255 255 151 255 255 58 255 223 73 255 181 70 248 255 83 255 255 132 255 255 107 255 255 120 255 255 45 255 220 0 255 178 0 225 178 0 225 241 0 255 255 0 255 255 0 255 178 0 225 185 0 164 146 3 255 255 69 255 255 150 255 134 144 255 126 189 255 51 40 255 158 0 255 255 21 255 255 171 255 255 209 255 255 143 255 255 83 255 255 74 152 255 179 255 174 121 255 96 106 255 255 54 255 101 0 255 0 107 255 0 64 255 0 24 241 0 99 255 0 59 255 0 98 255 0 47 225 0 125 255 0 162 255 0 164 255 0 212 255 1 255 243 75 255 182 75 255 28 75 255 28 75 255 28 5 255 0 136 255 3 152 255 3 149 212 0 255 255 205 205 255 255 128 255 255 78 255 255 91 255 192 79 255 209 112 255 189 109 203 129 103 48 0 178 0 0 209 0 0 255 41 123 255 140 255 255 134 255 255 146 255 255 186 212 255 212 122 59 129 8 0 168 29 0 200 158 0 94 0 0 60 0 0 43 0 0 37 0 0 43 23 0 42 0 0 51 0 0 58 0 12 37 0 145 101 0 241 153 101 255 131 230 210 124 237 206 163 255 215 224 255 116 255 255 0 219 255 0 177 255 0 255 142 35 255 165 12 255 115 0 255 139 0 255 229 0 240 255 15 242 255 125 255 255 231 224 255 255 204 255 255 216 255 255 218 240 255 214 116 255 221 28 255 255 28 150 255 0 62 184 0 124 164 0 106 68 0 78 41 0 170 129 0 255 172 0 255 204 49 255 197 83 255 207 89 255 255 45 255 210 0 255 59 0 169 1 0 102 58 0 215 132 24 255 212 196 255 215 228 234 202 251 31 235 255 0 181 255 6 233 255 0 226 255 0 221 255 0 204 255 0 63 241 0 13 241 73 57 255 86 27 255 152 187 255 172 253 255 229 230 255 255 192 255 220 151 95 166 153 148 146 192 255 203 250 255 255 221 255 255 227 255 255 218 255 255 221 255 255 77 255 255 39 255 255 109 255 255 169 228 255 171 219 255 96 131 255 37 0 161 0 0 122 92 0 217 162 0 250 164 0 255 251 77 255 255 65 188 246 51 90 213 48 0 90 0 0 116 0 0 94 0 0 91 0 109 81 32 255 150 157 255 180 171 255 192 109 255 162 68 255 36 0 178 0 0 178 0 62 226 0 44 255 161 207 255 211 255 158 255 255 113 255 255 90 255 216 117 255 80 80 255 75 93 140 46 97 98 68 0 19 0 42 79 37 151 167 64 90 154 43 0 88 2 0 78 0 0 86 0 0 178 22 18 219 41 107 255 212 73 255 255 75 255 255 75 255 255 0 240 254 0 177 227 0 84 175 0 122 200 0 92 138 0 45 77 12 0 67 53 0 116 89 0 159 255 2 255 255 48 255 255 0 255 178 0 225 178 0 225 178 0 225 255 0 255 255 93 255 255 120 255 255 125 255 255 139 255 255 151 255 255 232 111 255 255 23 255 255 25 255 255 28 255 255 28 220 232 0 145 146 0 122 87 0 86 171 82 0 152 71 0 166 161 0 193 193 0 243 232 71 255 255 75 255 255 63 255 255 117 255 209 137 255 244 66 244 255 2 238 255 0 146 205 0 181 79 46 255 211 75 255 255 75 255 255 75 255 255 36 255 239 4 255 153 12 255 190 14 255 255 75 255 255 56 255 255 16 255 224 0 237 218 0 174 199 
255 115 0 255 137 0 255 160 0 255 39 0 178 0 0 166 0 0 151 0 0 95 0 0 21 29 0 148 136 40 147 167 208 120 216 255 131 255 255 124 255 203 159 255 111 204 255 68 255 255 28 255 255 28 255 255 28 242 174 0 255 186 6 255 234 221 255 221 255 255 245 224 210 255 255 213 241 255 225 140 255 160 76 152 66 60 30 217 226 167 233 255 255 207 255 255 173 255 179 0 167 0 113 86 0 205 6 0 187 0 0 184 0 0 178 0 1 178 0 170 178 0 225 178 0 225 235 0 255 255 1 255 255 68 255 172 0 249 32 0 225 16 0 225 82 0 225 75 0 225 53 0 249 72 77 255 87 92 255 61 0 255 0 0 99 0 72 255 0 171 255 0 157 125 0 93 0 0 64 0 0 0 114 220 138 255 255 200 255 255 204 255 255 180 255 255 151 255 255 134 255 255 177 255 255 201 255 255 69 255 217 0 203 255 0 255 255 0 255 255 0 255 229 0 255 178 0 225 178 0 225 189 0 236 255 0 255 255 120 255 255 120 255 255 92 255 252 109 255 255 135 255 255 160 255 219 229 255 184 247 255 208 197 255 255 124 255 255 69 255 255 174 255 255 209 255 255 143 255 255 141 255 255 168 246 255 220 255 255 217 255 226 236 255 255 52 255 112 0 255 0 8 225 0 72 255 146 255 255 148 255 255 154 255 255 39 255 255 0 73 251 0 47 225 0 47 225 0 47 225 0 49 217 0 79 62 0 105 0 0 135 0 0 135 0 0 135 0 0 135 0 0 138 0 0 121 0 82 145 0 166 158 105 123 189 215 128 255 255 40 255 238 0 173 37 0 81 0 0 62 0 0 46 0 235 180 112 255 99 35 255 118 79 255 46 128 255 56 231 255 100 255 255 146 255 255 186 212 255 235 145 219 255 168 124 255 194 117 255 255 149 255 221 169 255 168 198 255 177 158 255 221 73 210 190 81 205 159 30 154 28 0 58 0 12 37 0 56 12 0 175 87 35 255 202 255 255 216 255 255 224 255 228 237 255 0 22 225 0 47 225 0 57 173 0 97 0 0 101 0 0 106 0 0 99 0 0 156 124 38 255 255 75 255 255 70 204 255 46 39 255 30 0 178 136 54 178 213 99 121 255 116 18 255 120 0 146 152 0 118 243 0 203 255 28 255 255 28 255 255 28 255 255 28 247 206 0 255 129 0 255 90 0 255 139 25 255 216 98 255 255 52 255 212 0 255 136 0 218 50 0 120 76 0 207 124 16 219 71 55 120 0 7 25 0 42 0 53 118 0 142 255 63 255 255 64 255 255 75 255 255 0 184 255 0 109 255 0 31 255 0 0 234 206 147 255 210 245 255 172 253 255 229 230 255 255 149 255 255 194 138 233 220 215 191 237 255 95 142 255 117 65 221 51 0 3 57 0 38 30 0 143 255 19 255 255 83 255 255 111 255 255 82 141 243 0 29 255 145 180 255 186 135 255 205 111 255 255 102 255 255 93 255 248 81 255 251 77 183 174 0 80 138 0 44 167 2 8 218 0 0 254 8 0 185 75 0 225 68 179 151 102 255 179 186 255 180 171 255 192 109 255 194 100 255 202 58 255 169 226 255 71 236 255 86 172 255 96 142 255 158 209 158 255 255 34 241 209 0 200 76 0 127 0 0 88 0 0 24 0 2 3 0 20 69 28 123 160 118 255 255 168 222 255 175 159 255 223 73 255 206 0 163 59 0 90 0 0 80 0 0 192 66 0 223 142 0 228 174 0 188 177 0 206 220 1 249 255 57 255 255 75 255 255 75 255 255 135 255 255 255 235 255 255 205 255 217 51 255 255 0 255 255 120 255 255 120 255 255 120 255 255 120 255 255 120 255 255 120 255 255 120 255 255 11 255 255 0 255 255 30 255 255 52 233 255 141 20 223 191 0 227 165 0 212 133 0 119 66 0 21 33 0 28 29 0 36 1 0 0 35 0 0 89 8 0 77 72 0 76 76 0 78 67 0 66 125 0 77 69 0 197 130 88 255 180 150 255 255 52 230 255 0 188 255 0 200 255 0 191 89 0 247 138 22 255 255 0 192 255 52 255 255 15 255 218 0 255 131 12 255 190 0 214 203 0 220 243 23 255 247 60 255 255 29 255 255 14 255 255 
15 0 102 8 0 120 25 0 180 38 0 252 22 104 106 102 224 99 41 255 121 39 255 220 137 254 255 142 175 255 222 45 255 255 0 255 178 0 225 178 0 225 247 0 255 255 48 189 255 167 240 255 166 242 255 152 255 255 134 255 255 104 232 255 0 110 215 0 100 151 0 79 164 48 47 230 207 17 115 255 0 61 255 6 104 255 28 168 255 28 246 255 28 255 255 28 255 255 28 255 244 28 230 52 0 103 71 0 18 34 0 16 35 0 0 74 0 0 98 0 0 86 0 0 39 26 143 146 255 237 179 255 255 197 255 255 139 255 255 51 255 255 157 255 255 147 255 255 137 255 255 117 255 255 11 255 255 0 255 186 0 255 222 0 255 255 163 255 196 255 231 247 255 49 255 255 28 255 255 97 156 238 105 50 255 148 0 255 86 75 255 249 75 255 255 68 255 255 75 255 255 61 255 255 49 144 250 16 0 223 88 0 225 178 0 225 178 0 177 255 47 255 255 62 255 255 181 255 255 160 255 255 186 255 255 130 182 229 97 161 179 3 38 213 0 0 255 69 0 255 59 0 163 34 0 0 64 0 0 143 0 0 236 0 0 255 38 0 196 158 4 255 255 75 255 255 75 255 255 75 255 255 0 192 255 0 166 255 5 245 255 75 255 255 75 255 255 39 255 255 0 191 255 6 255 248 0 202 121 0 243 48 0 189 0 0 255 0 50 255 3 75 255 28 75 255 28 75 255 28 75 255 28 57 255 10 0 249 0 90 117 54 164 0 248 152 0 235 184 0 255 154 0 225 186 0 233 178 0 225 166 0 175 178 0 0 238 8 0 255 106 0 255 149 0 255 152 0 255 150 0 255 208 28 255 208 28 255 208 28 255 208 28 255 137 0 255 71 0 175 135 62 107 159 88 146 194 120 165 220 89 80 255 93 0 241 131 0 210 255 0 206 231 0 109 147 0 47 225 0 47 225 0 23 225 0 32 225 0 60 159 0 84 153 0 146 255 0 137 255 0 124 255 0 47 225 0 47 225 0 159 255 0 227 255 70 255 255 26 255 255 75 255 184 111 254 174 188 110 218 239 87 255 116 15 155 87 104 146 121 155 108 255 187 55 255 141 0 255 140 0 255 224 0 255 152 0 255 205 25 255 171 0 255 85 0 204 47 0 166 0 0 178 0 0 178 0 0 255 85 43 255 193 47 255 195 15 255 106 151 255 12 255 255 133 255 255 240 187 255 255 155 130 56 35 159 11 99 174 164 125 70 180 0 187 255 12 253 255 45 255 235 125 255 199 168 255 207 208 255 234 195 207 176 134 158 141 99 126 104 199 128 177 255 59 253 255 0 226 255 0 103 255 0 47 225 0 120 255 15 204 255 77 240 255 211 233 255 248 143 255 255 166 255 255 144 255 255 165 255 255 183 255 255 156 255 174 160 255 0 129 239 0 103 95 0 94 0 0 139 0 135 239 0 255 245 180 255 217 255 255 192 255 255 160 255 255 124 255 240 0 255 105 0 225 47 0 200 134 0 152 178 0 111 203 0 88 255 32 188 255 108 255 255 85 255 255 100 255 255 74 255 255 54 255 197 35 255 146 37 255 0 183 255 0 213 255 50 255 255 0 175 255 43 255 255 75 255 255 75 255 255 196 241 255 255 146 255 237 117 255 167 106 255 255 164 255 255 183 255 255 159 255 144 213 255 0 174 234 0 34 203 0 8 225 0 0 225 0 0 225 0 0 239 102 40 255 155 88 239 129 152 158 97 130 73 42 73 17 47 31 46 190 96 145 196 195 179 194 255 255 138 255 255 21 153 242 0 50 105 0 70 108 0 73 92 0 72 97 0 90 102 0 65 100 72 0 85 151 0 139 178 0 173 255 45 255 255 61 255 255 153 255 255 128 255 255 218 255 235 239 255 253 240 255 255 227 255 114 0 0 79 0 31 2 0 88 171 161 255 255 209 255 246 215 255 203 237 255 128 255 255 61 225 255 169 254 255 204 237 255 255 209 255 255 205 255 175 134 255 43 23 192 0 14 10 0 130 0 34 231 252 75 255 255 26 253 255 0 211 255 42 227 255 130 146 255 255 158 255 255 35 255 255 15 255 255 6 255 246 0 255 149 59 255 171 134 255 240 218 255 217 169 255 221 177 255 250 213 255 
255 227 255 168 132 255 92 19 247 48 2 255 36 118 120 171 255 168 95 255 175 102 255 255 65 182 255 85 118 255 126 0 255 226 0 255 224 0 255 231 0 255 255 48 255 255 156 255 255 167 240 255 166 242 255 38 201 195 0 169 178 0 31 255 26 153 255 103 255 255 185 255 255 220 219 255 254 64 152 255 1 0 154 0 0 123 0 0 144 0 144 201 0 255 255 27 255 255 28 255 244 28 255 224 28 255 255 28 243 255 0 90 109 0 0 74 0 0 98 0 0 86 0 0 39 26 0 0 97 141 83 181 140 62 194 255 191 255 255 109 255 255 157 255 255 147 255 255 112 255 255 0 255 178 0 225 178 0 225 152 0 225 161 0 225 95 0 175 0 34 0 15 66 0 54 62 0 103 98 0 31 113 0 0 104 0 0 104 0 0 92 0 0 72 95 67 255 255 75 255 255 97 255 255 176 255 255 255 203 255 253 76 255 178 0 225 178 0 177 178 0 125 145 0 125 98 0 120 82 0 86 245 48 129 255 113 165 184 52 116 183 7 42 239 0 0 255 204 24 255 208 28 255 240 28 199 255 13 0 191 0 0 180 0 0 115 0 0 115 77 0 102 122 0 140 171 0 74 86 0 60 161 0 47 225 0 170 255 0 230 255 0 208 255 4 231 255 4 231 255 70 255 255 75 255 255 75 255 255 75 255 168 75 255 28 75 255 28 55 255 8 75 255 28 0 247 0 0 217 0 39 255 0 1 255 0 39 255 0 10 37 0 86 0 170 120 0 203 126 0 223 154 0 225 178 0 225 178 0 225 255 0 255 255 180 173 255 203 51 255 208 28 255 90 0 178 0 0 178 0 0 178 0 0 178 0 0 255 171 0 255 208 28 255 208 28 255 68 0 36 0 0 112 164 93 229 255 203 229 255 153 100 255 113 0 255 150 59 255 255 75 255 255 75 255 255 75 255 255 0 145 255 0 23 225 0 32 225 0 60 159 0 174 243 6 244 255 0 188 255 0 119 255 0 83 255 0 128 255 0 209 255 49 255 255 75 255 255 75 255 255 75 255 184 163 255 226 255 219 255 255 189 255 255 208 255 238 255 255 102 136 89 98 0 0 178 0 0 148 0 0 235 171 0 255 165 0 255 208 28 255 145 0 255 208 28 255 231 28 255 214 28 255 184 150 255 167 237 255 206 164 255 88 0 255 61 0 255 88 133 255 24 255 255 42 217 239 170 117 193 162 60 161 87 66 255 179 255 174 164 125 171 255 0 122 244 0 100 112 0 128 20 0 162 0 0 170 12 13 160 86 47 178 147 105 206 189 147 208 186 255 203 252 255 102 255 255 75 255 255 75 255 255 11 238 255 0 114 255 20 209 255 61 224 255 211 233 255 255 190 255 255 166 255 255 144 255 255 165 255 255 179 255 255 188 255 225 211 255 142 255 255 7 255 255 0 116 6 0 137 0 147 251 0 255 247 182 255 217 255 255 192 255 250 56 255 171 0 225 178 0 225 159 0 255 214 103 255 255 138 255 255 142 255 255 151 255 255 153 255 255 119 255 255 87 255 255 41 255 255 13 255 202 0 255 78 0 225 113 4 255 100 255 255 75 255 255 75 255 255 56 255 255 0 174 255 0 69 247 0 47 225 0 0 225 82 0 235 193 73 255 172 111 255 184 43 255 147 0 107 138 0 230 8 77 255 0 191 251 0 145 255 0 85 255 0 24 254 0 0 225 0 0 225 16 0 189 29 0 113 0 6 12 0 22 0 62 93 37 121 105 120 207 113 162 216 215 199 89 175 174 39 166 221 0 127 216 0 82 137 26 255 255 17 255 255 0 216 241 0 222 234 23 129 164 163 37 176 255 11 255 250 0 245 255 0 243 255 89 255 244 39 206 126 0 104 29 0 109 0 0 131 0 0 76 49 0 12 114 0 0 79 0 31 2 0 88 101 91 251 149 96 255 168 137 255 113 147 255 52 189 255 98 255 255 73 158 255 0 0 238 2 0 225 11 0 225 44 3 254 224 204 255 222 255 255 149 255 173 114 255 255 75 255 255 0 214 255 0 186 255 0 156 255 113 129 255 199 0 255 255 17 255 255 26 255 255 0 255 194 0 255 30 0 225 0 0 225 103 81 255 161 113 255 221 177 255 83 46 255 
61 0 0 20 70 0 107 255 38 200 255 132 146 247 35 48 255 0 0 255 0 0 240 0 0 249 0 155 192 0 205 107 0 53 91 18 0 9 44 0 3 81 0 0 58 137 49 158 189 159 255 107 231 255 129 240 255 27 117 255 112 79 255 231 223 255 222 227 255 204 237 255 255 192 255 246 5 255 191 8 0 132 0 0 148 0 0 189 0 0 213 0 0 255 57 118 254 64 102 255 27 59 255 161 215 255 117 108 255 129 4 255 24 0 249 0 8 193 0 35 97 103 77 20 100 23 11 130 0 11 188 46 0 133 0 0 63 76 0 59 83 0 21 138 158 143 255 179 250 255 145 255 255 141 255 255 135 255 255 79 255 255 75 255 255 21 255 255 75 255 255 0 255 162 147 240 138 136 204 107 14 24 0 63 0 0 85 0 30 79 0 67 31 11 71 0 171 241 13 245 255 31 255 255 0 177 255 0 217 255 42 255 255 140 255 255 224 248 255 255 199 255 255 159 255 255 180 173 255 169 76 161 56 0 191 133 120 105 167 156 13 234 57 1 255 106 0 184 0 14 207 24 125 238 24 255 194 0 255 171 0 255 208 28 255 208 28 255 208 28 255 208 28 255 223 12 236 255 28 75 255 28 75 255 28 75 255 182 75 255 255 75 255 255 45 255 255 66 116 129 71 53 143 106 20 205 192 69 225 255 118 100 255 146 153 255 186 219 255 172 255 255 165 255 255 69 255 207 0 255 178 0 225 178 0 225 178 0 225 178 0 225 178 0 225 178 0 225 199 0 228 247 0 255 255 74 255 255 169 255 235 221 255 245 216 255 255 200 255 255 179 255 255 196 255 235 221 255 246 215 255 194 242 255 72 255 255 0 142 255 0 87 209 0 128 255 161 255 255 154 255 255 130 255 255 97 223 255 39 14 255 246 0 255 255 89 255 255 68 255 124 0 255 110 0 225 133 0 225 56 0 225 0 80 54 0 102 0 0 217 25 231 255 69 255 255 28 255 255 100 231 255 255 176 130 255 82 0 255 47 78 255 55 250 255 38 255 255 0 233 255 0 118 76 0 31 33 0 80 118 150 197 255 222 109 255 255 95 255 250 62 255 255 54 255 255 34 255 255 0 255 255 0 255 255 82 255 106 229 255 27 255 255 0 201 179 0 158 164 22 255 253 62 255 178 75 255 162 75 255 255 0 231 255 58 255 255 0 230 255 9 249 255 40 255 255 0 162 255 32 255 255 19 255 255 0 219 255 23 255 255 0 149 255 0 145 255 20 247 255 39 251 255 24 250 255 0 227 250 0 213 255 220 242 255 255 169 255 255 181 255 216 197 255 143 43 255 125 0 254 178 0 225 178 0 225 5 0 225 0 0 225 0 0 225 0 0 225 0 0 212 28 0 145 59 133 255 200 250 255 228 253 255 208 255 255 240 237 255 255 172 255 255 215 255 255 162 255 246 0 218 207 0 193 195 0 236 255 21 255 255 120 255 255 120 255 255 120 255 255 80 255 255 0 255 255 10 255 255 90 255 37 166 255 20 250 255 0 169 255 0 53 193 0 62 147 0 64 138 0 129 241 0 187 255 0 207 255 19 255 216 0 248 0 0 235 0 57 255 0 255 233 138 255 178 180 255 170 224 255 123 255 255 120 255 255 120 255 255 120 255 255 120 255 255 0 255 107 0 225 37 0 180 11 0 69 11 0 44 35 0 161 67 0 131 147 0 104 190 0 144 205 0 252 223 0 255 178 0 225 178 0 225 178 0 225 255 0 255 255 24 255 255 55 255 255 0 255 162 0 221 178 0 131 178 0 101 134 0 83 77 0 140 173 83 255 198 252 255 149 255 255 117 255 255 154 255 255 255 159 255 255 112 255 255 128 255 255 138 255 255 158 255 255 138 79 255 98 11 221 0 0 147 0 0 178 0 0 190 0 0 255 0 147 255 163 255 255 199 255 255 220 255 246 229 255 162 255 255 77 255 255 0 95 181 0 48 148 89 176 255 198 239 255 197 240 255 127 176 255 83 117 255 141 241 255 173 252 255 182 248 255 221 228 255 177 250 255 33 152 255 0 120 255 37 210 255 70 255 255 64 255 183 36 255 74 0 255 0 0 255 0 0 246 0 0 186 0 0 243 0 63 255 20 190 255 130 163 249 196 
61 0 0 0 38 0 0 136 0 129 216 61 81 182 0 0 233 0 0 119 0 0 134 0 0 185 0 67 104 0 155 57 0 35 73 0 12 58 93 25 66 144 55 48 116 170 82 191 249 219 255 162 255 255 152 255 255 116 206 255 166 133 255 42 34 255 0 0 226 0 0 225 104 4 255 255 151 255 255 184 164 255 145 1 255 96 79 255 118 134 255 184 148 255 169 230 255 193 231 255 143 175 255 2 56 178 0 0 178 0 0 178 0 0 178 0 0 131 0 0 28 34 8 97 177 100 91 210 78 83 255 118 0 130 0 0 144 157 0 99 123 0 97 214 118 103 255 16 87 255 100 222 255 140 255 255 135 255 255 79 255 255 75 255 255 75 255 255 75 255 255 75 255 244 201 255 192 218 255 189 186 196 145 137 43 63 85 0 30 79 0 67 185 165 225 110 255 255 75 255 255 75 255 255 0 194 255 0 141 255 0 182 255 50 201 255 192 216 255 242 130 255 255 33 152 255 15 8 208 19 0 163 58 0 200 142 129 160 222 211 63 255 107 0 205 25 0 189 0 25 218 35 18 131 0 228 167 0 255 136 0 255 165 0 255 208 28 255 208 28 255 208 28 255 239 28 236 255 28 75 255 28 17 255 0 75 255 182 75 255 255 75 255 255 75 255 255 86 136 149 2 0 74 45 0 144 246 123 255 255 214 196 255 194 201 255 195 228 255 172 255 255 165 255 255 151 255 255 124 255 255 120 255 255 120 255 255 120 255 255 120 255 255 2 255 178 0 225 178 0 207 135 0 225 153 0 255 223 55 255 203 189 255 245 216 255 255 200 255 255 187 255 255 196 255 235 221 255 104 73 255 0 32 255 0 125 255 4 231 255 75 255 255 88 255 255 161 255 255 154 255 255 92 236 255 88 214 255 221 196 255 255 109 255 255 93 255 237 37 255 77 0 225 110 0 225 133 0 225 56 0 225 0 80 54 0 127 0 0 98 0 0 59 0 130 113 0 144 155 0 228 254 255 246 200 255 202 120 255 75 106 255 0 36 225 0 47 225 0 62 125 0 65 23 0 31 33 0 24 62 0 0 152 99 0 255 255 60 255 255 93 255 255 78 255 255 124 255 255 120 255 255 130 255 255 161 255 162 255 255 0 246 246 0 216 194 0 233 239 0 245 215 55 255 171 47 255 134 75 255 255 75 255 255 0 234 255 0 159 255 0 193 255 0 209 255 0 175 255 0 67 171 0 63 141 0 61 155 0 52 198 0 47 225 0 47 225 0 47 225 0 42 225 0 66 74 0 72 95 0 56 180 0 0 137 234 20 210 252 120 255 157 138 255 255 192 255 255 162 255 255 107 255 255 49 255 140 88 255 107 140 255 66 90 255 32 63 255 0 0 212 28 0 145 0 50 235 0 12 185 57 82 160 89 138 245 240 237 255 255 172 255 255 215 255 255 207 255 255 135 255 255 84 255 255 0 255 255 41 255 255 0 255 255 0 255 255 0 255 246 0 255 255 0 255 192 0 239 128 0 225 0 14 225 0 85 244 0 199 255 57 255 255 53 255 255 75 255 255 75 255 255 75 255 255 75 255 255 75 255 255 75 255 116 75 255 54 21 255 0 255 186 91 255 178 180 255 170 224 255 123 255 255 120 255 255 93 255 255 88 255 255 120 255 255 120 255 255 156 255 255 200 255 255 235 255 182 156 215 170 85 255 129 2 193 255 63 255 255 57 255 255 4 255 255 41 255 244 0 255 255 0 255 233 0 255 178 0 225 178 0 225 178 0 225 255 0 255 255 78 255 255 138 255 255 134 255 255 140 255 255 179 255 255 200 255 198 252 255 149 255 255 51 224 255 49 164 255 173 0 255 197 0 240 209 0 215 255 39 255 255 104 232 255 176 117 255 122 35 255 152 29 255 212 90 255 197 86 255 181 86 255 45 192 249 5 166 157 27 175 34 0 94 0 0 154 0 3 225 0 116 255 0 215 255 102 255 255 168 255 255 198 239 255 142 185 255 0 18 255 0 27 255 92 192 255 88 167 255 92 158 255 0 0 225 0 0 225 0 11 225 0 17 225 0 33 229 0 81 195 0 151 0 0 118 0 0 129 0 0 202 0 0 216 0 0 217 0 0 255 5 38 255 0 119 240 59 55 141 88 
255 62 255 255 0 255 178 0 145 212 0 104 172 0 49 126 31 11 25 60 0 0 91 0 0 127 0 0 255 0 75 255 60 75 255 132 7 255 91 0 187 0 0 126 0 0 123 0 0 81 49 0 56 177 0 70 106 0 120 58 0 255 190 75 255 255 75 255 255 75 255 255 44 255 254 0 255 153 0 169 86 0 171 81 0 134 28 0 152 0 7 83 0 63 0 0 83 0 0 100 8 17 56 0 92 22 0 33 0 21 19 0 79 1 0 91 8 0 233 253 59 255 255 0 244 93 2 255 180 0 208 255 0 182 255 0 189 233 0 93 14 0 90 5 0 90 109 0 106 189 18 109 140 110 0 0 200 0 0 178 0 0 178 0 0 217 0 0 255 83 0 255 72 0 255 92 170 255 154 238 255 162 255 255 148 255 255 129 255 255 120 255 255 43 255 255 0 193 255 61 255 238 82 255 122 159 255 50 255 255 75 255 255 75 255 255 156 255 255 161 255 255 158 255 168 219 255 130 255 242 255 195 91 198 0 44 56 0 117 0 0 90 3 0 117 161 0 153 212 31 255 255 71 255 222 59 255 136 90 255 138 255 146 55 255 216 9 255 226 58 255 192 111 255 195 93 255 171 44 255 103 41 255 176 194 255 162 255 255 152 255 255 151 255 233 239 255 162 255 255 111 211 255 50 173 255 0 46 225 0 44 214 60 94 255 255 152 255 255 120 255 255 124 255 255 125 255 255 58 255 255 104 255 255 92 255 255 0 255 178 0 225 178 0 225 151 0 225 103 0 255 145 10 255 161 154 255 101 163 255 179 255 255 142 255 255 17 132 255 0 14 214 0 69 115 0 62 65 0 56 125 0 47 225 0 37 225 0 6 203 25 42 255 99 9 255 150 0 255 238 0 255 255 0 255 255 83 255 255 120 255 255 50 255 255 0 255 238 0 255 122 64 255 90 195 255 86 171 255 227 56 255 255 129 255 255 114 255 212 128 255 212 143 255 255 137 255 255 159 255 255 183 153 255 108 0 178 0 0 178 0 0 180 0 0 255 83 0 255 197 0 161 139 0 51 17 0 89 0 0 0 59 0 0 66 0 30 46 0 43 21 0 166 0 0 182 0 0 255 40 0 255 58 144 255 146 255 255 138 255 255 128 255 255 122 255 255 134 255 255 181 255 236 240 255 255 211 255 255 155 255 255 155 255 255 144 255 255 206 255 255 225 143 255 196 88 255 178 180 255 161 255 255 65 247 255 26 170 248 0 179 255 19 255 255 106 255 255 63 255 255 0 255 255 0 255 255 0 255 255 123 255 255 104 255 255 66 255 255 77 255 255 154 228 255 241 130 247 186 241 255 88 255 255 130 255 255 149 255 255 77 207 255 21 0 178 0 0 178 0 19 178 0 77 178 0 187 178 0 225 178 0 209 231 0 255 255 13 255 255 47 255 255 103 228 253 0 135 255 0 138 244 36 208 255 121 255 255 169 255 255 179 255 170 254 255 75 255 255 75 255 255 158 255 255 255 187 255 255 190 255 255 220 255 204 169 255 165 106 200 47 49 26 0 129 142 0 105 103 0 79 62 0 65 131 4 116 255 113 147 255 141 121 255 91 110 130 117 119 104 249 255 255 222 255 224 76 255 194 75 255 136 50 255 86 0 225 0 0 198 0 0 249 0 0 255 0 72 255 0 206 255 0 212 203 0 190 93 0 245 112 229 230 125 255 200 110 255 105 136 255 0 63 249 0 47 225 0 67 245 0 163 255 27 254 255 9 236 255 7 234 255 0 112 243 0 26 124 30 0 97 57 0 81 22 0 76 29 0 225 74 0 225 93 0 104 61 0 0 0 71 0 24 255 46 53 255 51 146 255 0 204 32 0 154 0 0 130 0 0 119 0 0 117 5 0 98 0 0 117 0 0 16 35 0 28 77 0 199 78 81 255 86 154 237 0 165 210 0 255 178 0 225 178 0 225 255 0 255 255 0 193 255 131 255 192 74 255 255 189 255 255 249 244 255 176 255 255 122 255 255 17 255 255 37 255 255 97 255 255 125 255 255 146 255 255 205 255 134 255 217 43 255 168 14 255 174 0 233 142 38 203 73 189 133 0 255 255 72 229 114 0 255 55 54 255 36 106 255 14 255 255 120 255 255 111 255 221 113 255 
126 0 225 178 0 225 178 0 145 178 0 70 121 0 0 68 0 0 0 27 0 0 91 0 9 255 0 75 255 29 75 255 60 0 255 51 0 148 0 0 157 0 10 255 7 75 255 91 75 255 255 75 255 255 75 255 255 0 229 167 0 110 36 0 69 113 0 137 255 38 255 255 75 255 255 75 255 246 75 255 255 75 255 255 75 255 242 75 255 130 225 255 90 255 241 161 255 212 183 141 49 58 56 0 92 22 0 33 0 21 19 0 79 1 0 90 7 0 73 93 0 67 122 0 255 111 75 255 253 75 255 255 75 255 255 5 254 255 0 151 72 0 91 6 0 176 195 74 255 255 187 255 255 255 222 169 255 183 157 255 114 6 255 90 0 246 21 0 255 33 0 253 28 0 202 0 13 255 104 188 255 79 179 255 148 255 255 108 255 255 0 255 255 33 255 202 0 139 138 0 158 77 0 200 0 0 171 0 97 122 0 159 108 75 255 255 156 255 255 161 255 255 158 255 168 203 255 114 198 162 178 207 103 210 175 227 239 50 255 104 75 255 255 75 255 255 75 255 255 75 255 255 75 255 226 75 255 152 95 255 143 255 222 131 255 164 0 255 225 57 255 192 111 255 195 93 255 146 19 224 0 0 178 0 0 178 0 8 246 0 130 255 25 192 220 226 255 162 255 255 159 255 255 144 255 255 59 255 255 0 133 255 11 45 255 200 0 255 255 4 255 255 95 255 255 32 255 255 29 255 255 49 255 255 83 255 255 123 255 255 87 255 215 0 255 151 0 225 47 0 225 80 0 245 82 75 255 78 140 255 0 15 116 0 42 76 0 9 225 0 14 214 0 137 183 0 210 213 95 255 255 25 252 255 0 144 255 50 148 255 69 86 255 192 102 255 255 131 255 255 47 255 255 96 255 255 83 255 255 120 255 255 24 255 255 0 255 203 0 255 70 12 255 0 75 255 0 30 255 99 0 240 255 75 255 255 167 255 255 203 255 255 216 255 255 106 255 255 156 255 255 92 62 255 123 0 255 99 0 255 103 0 255 148 0 255 176 0 255 160 0 255 233 0 246 212 0 255 196 0 138 227 0 58 169 0 209 225 0 255 255 28 255 214 28 255 112 0 255 50 0 255 26 112 255 146 255 255 148 255 255 146 255 255 144 255 255 134 255 255 153 255 46 50 187 74 0 26 178 0 44 213 0 81 219 0 143 107 0 114 118 0 0 178 0 0 255 107 109 255 161 255 255 149 255 255 68 212 219 0 150 255 16 255 255 120 255 255 120 255 255 120 255 255 120 255 255 82 255 255 81 255 255 38 255 255 55 255 255 27 255 255 79 153 255 235 124 255 230 255 255 171 255 255 148 255 255 149 255 255 61 191 208 0 0 178 0 0 178 0 19 178 0 77 207 0 216 211 0 255 205 0 236 178 0 225 178 0 225 255 39 255 255 158 255 255 152 255 255 124 255 190 0 154 100 0 157 88 0 207 147 8 255 106 190 255 75 255 255 75 255 255 87 189 255 66 0 255 149 44 255 90 47 237 97 62 212 40 0 75 1 3 0 4 148 161 0 193 191 0 250 233 0 239 255 118 230 255 212 246 255 135 115 250 0 17 37 90 92 77 144 151 155 222 255 224 76 255 194 64 255 125 75 255 111 75 255 97 75 255 28 75 255 28 75 255 28 89 255 0 0 53 0 35 26 0 81 0 0 79 0 63 49 0 155 30 0 225 0 0 225 0 39 225 0 47 225 0 47 225 0 50 228 0 170 255 34 255 255 0 183 255 0 194 255 59 185 255 255 220 255 255 209 255 255 228 255 255 196 255 83 0 234 91 0 102 60 0 0 0 57 0 0 104 0 0 99 0 0 66 0 244 72 0 255 156 0 255 232 28 255 238 28 255 246 28 255 249 28 255 239 28 255 255 28 239 255 120 255 218 221 255 176 244 255 143 255 255 92 255 255 90 255 255 0 255 255 56 255 255 86 255 255 169 255 228 110 255 255 203 255 255 249 244 255 189 255 255 128 255 255 120 255 255 128 255 255 151 255 255 146 255 255 130 255 171 61 210 0 68 0 0 102 0 0 95 0 0 91 0 0 64 0 56 0 0 89 27 0 96 0 0 178 0 0 247 0 51 255 71 255 255 120 255 255 165 255 237 129 255 
99 0 250 25 21 255 43 69 255 153 86 255 0 0 225 0 21 252 0 12 248 2 45 255 255 15 255 255 104 223 255 168 235 255 149 255 255 145 255 255 124 255 255 127 255 255 161 255 204 237 255 205 236 255 2 157 255 0 113 255 0 60 254 0 30 255 105 0 225 226 0 255 255 0 255 255 14 255 239 58 115 124 2 0 107 68 0 174 255 0 140 255 14 129 255 0 255 255 116 255 104 195 255 28 208 255 0 121 217 13 125 255 208 231 255 233 116 255 244 54 255 154 0 255 30 0 255 21 99 255 155 255 255 152 255 255 155 255 255 141 255 255 49 255 255 30 229 255 151 112 255 192 111 255 208 29 255 255 28 156 255 0 0 132 0 0 118 0 0 107 0 0 248 0 56 255 9 75 255 166 0 251 130 0 255 111 0 247 64 0 225 81 63 223 255 155 100 255 255 82 255 255 139 255 255 60 255 255 73 255 255 0 255 245 0 255 209 0 201 218 0 68 215 0 0 166 0 0 116 13 0 61 6 0 44 28 0 145 18 122 255 145 255 255 214 255 211 233 255 103 152 255 151 184 255 167 138 255 105 112 255 125 198 255 91 161 255 91 183 255 45 203 255 0 177 255 0 219 255 0 224 255 0 176 255 0 47 225 0 47 225 0 47 225 0 41 225 0 0 225 0 0 225 2 0 225 65 0 225 61 0 225 19 0 187 0 0 225 0 0 237 157 102 255 209 220 255 165 233 255 219 255 255 140 164 242 150 178 108 217 202 0 58 113 0 161 203 0 236 184 0 223 170 0 222 206 171 106 92 255 0 113 255 0 216 255 53 255 255 75 255 255 94 255 255 150 230 217 112 149 0 228 139 0 255 154 0 255 159 0 255 172 0 242 17 0 255 30 0 255 65 0 255 28 0 255 37 17 255 15 61 255 46 100 255 144 255 255 114 255 255 60 254 234 0 255 207 0 255 160 31 255 255 187 255 140 255 255 128 255 255 130 255 255 145 255 112 183 255 0 255 205 78 255 180 140 251 87 30 255 122 79 255 190 179 255 223 194 255 234 196 213 211 122 9 91 125 0 49 24 38 255 184 135 255 255 233 222 255 255 208 255 255 197 255 255 220 255 255 214 255 255 171 255 255 157 255 147 169 255 56 232 255 146 255 255 176 224 255 138 83 255 218 154 255 255 248 248 255 255 49 255 238 28 255 245 28 237 196 0 74 6 0 95 0 0 91 0 0 161 39 0 255 162 53 255 150 86 255 37 0 178 0 0 91 0 0 91 39 0 67 68 0 141 0 0 32 27 0 22 32 0 213 27 0 204 0 0 178 0 0 178 0 0 178 0 0 175 0 0 178 0 0 255 35 0 255 181 148 255 218 182 255 117 129 255 82 65 255 60 28 255 142 255 255 121 255 255 73 255 255 100 255 255 47 255 255 151 255 136 170 255 100 169 255 132 137 144 237 213 255 255 236 255 255 219 255 255 223 255 182 255 255 0 126 255 0 81 255 0 0 227 0 77 255 0 67 255 162 12 255 255 0 255 255 11 255 255 154 255 250 213 255 132 187 255 54 67 255 0 0 225 0 126 255 114 255 255 70 255 207 0 117 41 0 30 116 0 30 214 0 79 62 0 215 75 57 255 187 75 255 255 75 255 255 50 255 255 0 192 137 0 74 88 79 3 255 255 0 255 255 127 255 255 124 255 255 91 186 255 127 118 255 65 38 247 213 52 22 255 0 0 210 0 0 191 52 0 52 110 201 2 255 180 53 216 131 136 29 168 238 180 130 254 232 44 255 255 0 148 236 0 91 1 0 120 60 0 90 107 0 112 169 0 64 139 0 124 116 75 255 169 90 255 208 75 255 255 75 255 255 75 255 255 75 255 255 75 255 168 75 255 77 32 255 0 0 207 0 0 135 0 0 132 0 0 189 0 0 181 173 24 192 255 0 141 255 0 40 255 7 0 225 0 0 225 0 82 255 16 243 255 75 255 255 41 255 255 9 151 255 37 209 175 0 238 72 0 255 191 0 240 255 1 236 255 75 255 255 75 255 83 75 255 104 49 255 131 75 255 146 75 255 28 12 255 0 0 255 0 0 99 0 0 70 106 0 47 225 0 69 247 0 130 255 0 138 255 0 152 255 0 147 255 0 147 255 77 174 255 
221 65 255 114 110 255 0 12 255 72 5 255 74 92 255 174 244 255 189 244 255 197 240 255 255 144 255 255 100 219 255 143 210 255 149 255 255 145 255 255 145 255 255 127 255 255 128 255 204 237 255 152 183 255 0 130 255 0 43 239 0 40 234 80 114 255 255 101 255 255 122 255 255 127 255 255 150 255 255 175 232 212 90 57 42 3 0 0 68 0 0 95 0 0 79 0 151 156 0 255 176 255 255 156 255 255 156 255 255 181 255 255 208 231 220 103 0 212 105 0 255 177 0 255 191 113 255 166 244 255 94 238 255 0 139 180 0 48 204 0 142 255 0 255 255 87 255 255 166 127 255 137 56 255 192 13 255 255 13 208 255 28 168 255 28 173 255 28 197 255 28 63 255 16 0 255 0 0 196 0 0 104 0 0 102 0 0 122 0 0 102 0 0 69 119 102 47 255 255 49 255 255 82 255 255 13 255 255 4 255 255 74 255 255 120 255 255 131 255 255 161 255 255 173 205 255 204 168 255 248 37 255 226 23 187 171 62 134 7 111 246 74 255 132 86 255 19 41 255 0 0 225 0 0 225 0 0 225 0 0 225 0 0 225 0 38 255 0 38 255 0 24 225 0 47 225 0 47 225 0 64 139 0 49 214 0 74 252 0 180 255 75 255 255 86 255 255 95 180 255 157 181 255 200 152 255 255 177 255 255 179 255 255 208 255 205 236 255 214 232 255 255 207 255 232 243 255 201 255 255 124 161 243 116 140 218 223 251 181 255 255 28 247 255 28 255 255 28 255 222 0 176 123 0 45 29 0 34 20 218 70 185 255 31 255 255 25 253 255 0 164 255 0 89 133 0 25 12 1 38 0 88 0 0 255 88 0 255 170 0 255 180 0 255 197 17 255 146 0 255 195 53 255 188 129 255 169 149 255 105 151 255 114 168 255 73 200 255 148 255 255 147 255 255 120 255 255 134 255 255 182 255 255 197 255 140 255 255 127 255 255 130 255 255 155 255 122 205 255 18 255 250 123 255 201 161 255 156 99 202 57 14 215 81 70 255 139 110 167 85 47 233 231 142 13 95 129 19 175 150 64 255 210 64 237 222 233 222 255 216 164 255 160 74 255 30 0 99 78 0 87 137 0 206 142 0 255 49 71 255 0 119 208 0 140 208 149 197 255 229 174 255 195 131 255 173 155 155 52 41 0 181 45 0 255 158 0 255 255 28 255 255 28 255 249 33 255 252 28 181 59 0 144 0 0 178 0 0 178 0 0 178 0 0 121 27 0 127 75 0 98 99 0 219 49 0 134 129 0 149 159 0 255 100 0 250 25 0 248 23 0 255 137 0 255 147 0 255 110 55 255 98 51 255 86 28 255 146 113 255 153 117 255 108 120 255 64 47 255 67 35 255 94 255 255 101 255 255 80 255 255 24 255 255 0 255 152 0 255 79 113 255 74 143 255 216 221 228 249 225 255 209 161 199 255 164 221 62 22 193 0 0 189 0 17 225 0 37 225 0 46 255 43 127 255 162 239 255 255 175 255 255 128 255 255 130 255 255 154 255 233 196 255 134 189 255 61 74 255 0 0 225 0 126 255 59 218 255 60 255 197 104 255 194 0 116 202 0 30 214 0 79 62 0 99 0 0 101 0 0 80 58 0 62 150 0 204 255 75 255 255 75 255 255 255 200 255 255 120 255 255 123 255 255 122 255 255 152 247 255 180 171 255 121 94 183 149 0 0 254 0 29 255 88 85 255 210 210 255 255 255 165 255 255 198 255 255 255 161 212 255 224 124 248 226 0 144 227 0 100 188 0 133 43 0 86 26 0 73 90 0 67 124 0 64 139 0 77 69 0 182 0 41 255 159 75 255 255 49 255 255 0 183 216 0 116 53 0 183 0 0 255 0 0 255 0 0 135 0 0 135 0 0 132 0 0 114 0 0 59 51 0 27 225 0 35 236 136 243 255 255 207 255 218 229 255 98 236 255 0 144 255 29 255 255 0 193 255 33 175 255 99 255 237 0 220 54 0 230 162 0 220 255 55 255 255 75 255 255 75 255 83 75 255 104 75 255 157 75 255 146 32 255 0 0 255 0 0 190 0 0 99 0 0 70 106 0 84 255 27 254 255 75 255 255 75 255 255 75 255 255 0 218 255 40 255 255 45 142 255 
255 0 255 199 0 255 58 0 51 0 34 0 0 36 0 0 28 0 0 65 0 0 127 0 91 146 0 226 255 39 255 156 255 244 27 255 156 0 255 53 0 225 123 0 225 176 0 255 255 95 255 160 36 255 71 40 255 0 0 225 0 29 255 0 150 255 0 161 200 0 247 0 0 148 0 0 162 0 0 69 0 0 25 0 35 0 0 89 0 58 112 0 212 165 0 225 178 0 104 178 0 102 255 0 214 255 0 255 255 0 255 249 0 172 255 19 182 255 101 253 255 92 233 255 0 255 255 0 255 255 0 190 255 0 164 178 0 60 178 0 15 178 0 0 106 0 0 211 61 0 255 68 0 255 208 28 255 229 28 255 255 28 196 145 24 187 164 206 142 202 255 104 255 255 75 255 255 0 135 139 0 85 31 0 84 37 0 58 38 0 38 31 0 27 0 0 0 24 49 0 108 68 0 173 104 0 218 148 150 247 72 215 87 145 229 104 113 74 0 23 31 0 28 29 0 54 64 0 215 221 0 255 226 81 255 123 133 220 0 93 178 0 194 178 0 225 178 0 225 182 0 229 229 0 255 246 0 255 137 34 249 89 116 209 165 166 196 255 218 255 255 195 255 255 159 255 255 140 255 255 57 255 255 53 255 255 14 255 255 93 255 196 36 234 143 0 113 144 0 129 168 0 143 241 0 156 255 0 119 255 75 172 255 0 52 255 156 226 255 166 244 255 175 198 255 144 205 208 0 122 5 0 196 0 0 225 0 0 225 0 0 225 0 0 203 39 0 207 150 0 255 229 20 255 165 0 255 78 0 132 44 0 83 8 0 136 0 89 232 0 228 255 25 255 150 15 255 0 0 255 0 0 255 0 50 255 3 49 255 12 0 255 34 0 240 89 11 255 128 75 255 191 75 255 255 217 243 255 218 255 255 146 181 103 102 65 0 131 0 0 178 0 0 178 0 77 16 72 11 0 174 36 0 101 11 65 7 0 42 0 0 39 0 38 58 0 0 151 13 0 255 130 91 255 178 184 255 182 255 255 43 243 255 24 164 255 141 185 255 139 243 164 121 255 6 69 255 0 14 207 0 98 112 0 201 177 0 212 207 0 150 162 0 83 40 0 93 0 0 87 21 0 54 191 0 107 255 0 109 255 0 66 244 0 0 225 54 0 225 178 0 225 201 0 248 255 0 255 255 0 255 178 0 225 181 0 0 255 104 0 255 208 28 255 216 28 255 126 0 232 120 0 174 118 143 245 138 206 255 82 197 248 0 114 178 0 155 178 0 225 178 0 225 178 0 210 178 0 125 178 0 109 255 31 175 255 125 146 255 208 28 255 208 28 255 111 0 255 140 0 249 9 0 255 15 0 207 0 21 144 0 7 178 0 3 178 0 1 177 0 11 255 46 124 255 47 222 255 94 255 255 32 255 255 28 255 160 0 255 58 0 225 30 19 255 87 14 255 174 35 255 255 109 204 173 65 0 255 72 0 229 4 0 178 0 0 251 0 0 216 55 255 228 142 255 183 172 255 19 177 255 75 255 255 75 255 255 75 255 255 75 255 255 31 255 255 75 255 255 75 255 255 132 255 255 138 69 255 124 61 200 169 133 231 120 139 217 23 75 232 78 0 177 110 0 34 0 21 0 0 57 0 0 64 0 0 169 67 194 255 205 254 186 231 171 181 246 163 125 255 143 183 255 194 255 255 212 156 205 235 132 176 70 120 0 19 204 0 0 255 0 8 255 46 107 255 255 75 255 255 75 255 255 1 250 255 0 197 255 0 0 225 32 0 225 56 0 225 81 0 225 100 0 225 49 0 225 0 0 225 0 19 225 0 36 248 106 0 255 101 0 255 105 0 225 178 0 101 194 0 46 255 20 0 207 0 0 178 0 0 178 0 0 178 0 23 162 0 157 119 0 175 74 0 225 36 62 255 173 231 255 232 230 255 255 145 255 255 54 0 172 62 0 98 30 0 84 1 0 91 0 0 64 11 0 0 131 0 0 255 0 70 255 23 75 255 162 75 255 255 141 255 255 122 201 255 37 0 222 178 0 118 178 0 0 151 0 0 107 0 0 64 11 0 105 103 0 62 170 0 0 255 0 0 212 0 0 135 0 0 121 0 0 156 54 66 255 228 75 255 246 204 255 245 255 138 103 237 92 0 
178 0 225 124 0 225 58 0 51 62 130 5 165 251 156 215 255 210 159 255 166 182 255 86 247 255 28 255 255 70 255 203 255 255 136 255 236 38 255 169 45 255 237 7 255 179 0 255 223 41 255 94 0 255 95 64 255 154 178 255 168 217 255 75 255 255 22 255 255 75 255 28 75 255 28 75 255 83 89 255 145 0 48 3 35 0 0 181 34 150 255 85 255 255 69 255 255 72 255 255 106 255 255 139 255 255 126 255 255 129 255 255 78 255 178 0 60 178 0 51 192 0 56 255 0 255 255 5 255 211 0 146 178 0 85 178 0 60 178 0 15 178 0 0 106 0 0 255 113 0 255 212 28 255 208 28 255 191 0 222 179 0 127 76 0 80 57 99 0 10 118 0 121 193 0 84 126 0 75 79 0 85 31 0 84 37 0 58 38 2 127 120 101 171 113 222 234 255 255 209 255 255 129 255 243 125 255 151 153 250 94 237 109 80 164 39 44 5 0 23 31 0 28 29 0 43 53 0 88 94 0 192 42 0 255 77 87 255 76 228 255 126 255 255 120 255 255 120 255 255 120 255 255 77 255 255 107 255 255 199 255 225 252 255 250 251 255 255 218 255 255 195 255 255 159 255 255 111 255 255 93 255 253 0 255 255 0 255 215 12 255 147 0 185 202 0 172 255 16 244 255 61 255 255 102 255 255 64 183 213 0 40 178 0 0 178 0 0 178 0 0 178 0 0 255 71 132 255 59 255 219 172 255 218 229 255 225 200 255 228 224 255 204 241 255 255 194 255 255 176 255 255 155 255 255 157 255 255 189 255 221 137 255 234 195 255 0 128 255 0 117 156 0 102 0 0 131 0 0 135 0 0 173 0 2 255 0 53 255 16 23 255 68 0 255 128 0 220 54 0 175 8 0 97 90 0 0 160 47 88 156 137 172 94 237 200 38 255 157 28 255 124 123 255 103 255 173 229 168 22 212 74 117 242 152 196 138 87 120 68 17 50 0 49 58 0 0 109 0 0 212 0 0 255 79 85 255 86 174 255 39 239 240 3 143 134 0 0 126 0 95 95 52 254 58 121 255 111 232 255 75 255 255 75 255 255 66 255 255 37 255 255 75 255 255 75 255 244 75 255 255 75 255 255 75 255 255 75 255 255 74 255 255 144 223 255 235 109 255 255 56 255 255 81 255 255 42 255 241 0 255 178 0 225 220 0 3 255 127 0 255 196 16 255 198 10 255 110 0 232 120 0 198 142 167 255 192 255 255 170 255 255 155 255 255 134 255 255 120 255 255 120 255 255 123 255 255 39 255 255 13 235 255 92 236 255 136 157 255 119 0 255 65 0 223 0 0 236 11 0 255 138 49 255 156 133 255 166 209 255 38 120 248 0 73 241 0 64 255 116 152 255 156 234 255 35 210 240 0 200 178 0 225 150 0 225 95 0 225 58 0 225 3 0 250 39 0 245 140 1 230 230 73 168 255 239 93 255 208 28 255 208 28 255 200 70 255 179 178 253 92 255 169 83 255 191 180 255 121 255 255 0 213 255 0 191 255 15 242 255 75 255 255 75 255 255 75 255 255 15 255 255 0 123 255 87 18 255 186 123 255 255 223 255 232 251 255 200 252 255 255 156 255 255 160 241 242 255 175 225 255 157 165 255 210 130 255 205 197 255 208 255 229 255 240 250 255 255 222 255 214 254 255 210 255 255 255 232 255 255 219 255 247 255 54 135 255 2 0 255 0 0 174 0 0 174 125 63 255 255 50 255 255 0 233 255 0 109 247 0 19 255 172 79 255 234 105 255 255 141 255 183 0 255 69 0 245 94 86 255 0 104 255 0 99 255 50 0 225 53 0 225 105 0 225 178 0 101 178 0 30 178 0 0 178 0 0 178 0 0 178 0 0 178 0 23 252 0 247 255 85 255 238 82 255 108 134 255 4 62 255 0 0 184 100 0 49 155 0 0 100 0 0 238 170 0 255 183 0 220 126 0 64 11 0 0 86 0 0 135 0 0 135 0 0 109 0 0 252 255 119 255 255 163 242 255 108 41 255 178 0 118 222 0 0 255 124 8 255 218 2 255 255 28 245 243 0 212 255 28 75 255 28 75 255 28 75 255 28 1 255 65 24 255 195 0 254 142 45 255 216 199 255 240 255 217 182 255 229 76 
255 150 255 255 136 255 255 120 255 255 120 255 255 150 255 255 108 178 255 173 176 255 251 175 201 255 224 75 255 251 75 255 255 0 211 255 0 129 255 0 47 225 0 74 252 0 178 255 0 138 255 111 174 255 0 9 245 0 0 138 165 0 46 178 0 0 178 0 0 178 0 0 169 21 0 255 40 0 255 84 45 255 179 212 255 136 255 255 54 255 255 0 255 244 0 255 255 63 255 255 139 255 255 207 255 255 79 208 168 0 0 150 0 0 141 0 0 191 0 9 255 0 255 255 88 255 255 21 255 209 0 255 120 0 225 110 0 225 145 0 255 228 32 255 225 0 255 203 0 255 176 0 99 178 0 138 178 0 42 178 0 0 255 0 118 239 86 129 191 135 48 251 5 0 178 0 0 236 11 0 184 0 0 180 0 0 178 0 0 210 0 102 255 40 255 255 118 255 194 243 255 146 206 255 210 243 255 201 225 211 230 255 112 193 255 97 163 255 0 255 228 0 235 120 0 214 170 0 237 255 9 142 255 0 175 255 28 127 255 0 74 255 37 71 255 68 25 255 22 75 255 35 51 255 4 51 255 4 21 255 0 0 255 0 70 255 13 132 255 4 165 255 0 162 255 13 154 247 0 206 234 37 195 246 189 71 203 255 0 112 255 23 0 225 37 0 225 104 18 255 255 172 255 255 195 255 255 183 255 255 70 99 191 86 105 207 103 126 255 73 203 255 70 255 255 48 255 255 116 255 255 123 255 255 166 236 255 187 223 119 174 164 255 188 193 255 212 111 255 239 77 255 178 98 105 61 134 75 66 207 121 71 242 255 194 255 252 132 254 185 58 255 173 138 255 119 154 255 228 243 255 140 153 217 15 206 158 49 197 209 36 231 236 170 255 255 255 229 255 255 199 210 255 177 186 255 55 131 255 0 57 255 82 37 255 188 42 255 199 76 255 166 242 255 148 255 255 152 255 255 157 255 255 164 253 255 121 255 255 130 255 255 153 255 255 162 255 255 165 247 255 173 207 241 154 210 44 38 100 0 103 0 0 107 0 0 105 12 201 217 244 255 147 255 255 54 255 151 0 225 68 0 225 0 0 225 0 24 220 0 214 255 75 255 255 75 255 72 75 255 28 75 255 28 74 255 27 75 255 28 13 255 0 6 255 0 16 147 0 7 37 0 88 0 0 150 0 72 242 0 196 255 33 255 255 140 255 255 157 255 255 177 189 255 197 84 255 208 28 255 208 28 255 208 28 255 208 28 255 246 28 255 255 28 255 255 28 220 116 0 89 0 200 46 0 255 125 115 255 216 183 255 193 94 255 159 45 255 161 71 255 131 105 255 131 115 137 255 115 224 255 151 255 255 164 255 255 199 255 217 230 255 173 252 255 104 255 255 9 236 255 11 238 255 11 238 255 75 255 255 75 255 255 75 255 255 75 255 255 181 255 222 240 231 210 185 96 174 148 44 177 121 105 192 61 160 214 93 235 255 75 255 255 75 255 255 75 255 255 75 255 255 64 255 219 65 255 112 23 255 52 0 255 212 0 130 252 82 17 255 65 0 244 83 0 255 106 0 254 255 71 255 255 171 255 163 255 255 75 255 255 68 255 255 0 213 255 0 176 251 0 167 255 75 255 255 75 255 255 75 255 255 75 255 255 75 255 255 0 106 255 0 47 225 0 74 252 0 195 255 72 255 255 140 255 255 255 217 255 255 175 255 255 157 255 255 131 255 255 95 255 255 102 255 255 70 255 255 73 255 255 97 255 255 104 213 255 97 67 255 51 0 255 63 0 255 129 61 255 216 152 255 126 14 255 118 40 255 128 58 255 220 60 255 210 47 255 205 54 255 208 28 255 208 28 255 178 93 255 0 159 185 0 112 61 0 79 29 42 24 119 140 25 214 255 148 148 255 113 75 255 28 75 255 28 0 255 0 0 185 0 0 135 0 0 135 0 0 135 0 0 171 0 0 194 175 6 255 255 12 255 255 0 197 186 0 254 252 2 255 255 0 186 160 0 227 192 0 219 255 75 255 255 75 255 255 75 255 255 90 255 255 131 255 255 166 255 255 169 255 107 186 255 28 255 255 28 255 255 28 255 255 28 255 255 28 255 255 28 255 235 28 255 179 178 255 163 255 255 139 255 255 72 255 255 29 255 255 0 255 
255 81 255 255 136 255 255 120 255 255 120 255 255 118 255 255 167 237 255 198 201 255 251 175 201 255 224 0 229 133 0 224 211 0 212 255 15 242 255 75 255 255 75 255 255 0 217 255 0 92 255 0 14 247 0 43 255 144 139 255 255 34 174 255 128 138 255 149 0 255 85 0 255 230 24 255 172 0 255 185 146 255 179 212 255 170 255 255 120 255 255 120 255 255 36 255 255 12 255 255 87 255 190 88 183 255 118 247 255 162 129 255 162 0 255 152 0 252 0 70 200 0 172 178 0 219 178 0 225 255 2 255 255 149 255 255 154 255 240 66 255 113 0 238 130 0 225 166 0 225 255 40 249 255 118 255 255 156 255 255 164 255 255 39 160 179 26 69 49 0 0 178 0 0 255 108 0 255 135 0 255 180 25 255 168 60 255 176 191 255 150 255 255 130 255 255 145 255 194 243 255 197 255 255 222 255 255 98 122 108 25 60 0 20 144 0 41 149 0 134 75 0 125 10 0 60 16 0 1 43 0 0 104 0 44 208 0 91 255 0 75 255 38 75 255 72 75 255 72 0 255 0 0 194 0 0 182 0 0 255 0 36 255 0 44 255 0 97 255 0 94 231 0 43 204 0 0 86 0 2 30 0 0 21 0 0 26 138 0 45 249 223 144 255 255 162 255 161 75 255 48 0 247 30 0 225 145 0 127 255 169 198 255 221 240 255 221 244 255 160 255 255 96 255 195 0 255 237 49 255 223 84 255 180 62 132 126 38 74 0 17 7 144 70 75 255 166 65 255 239 77 255 241 161 255 233 255 245 236 255 255 220 255 255 194 255 255 186 255 255 150 255 204 169 255 197 232 255 228 243 255 238 251 255 126 255 255 149 255 255 117 255 255 170 255 255 255 229 255 255 199 210 255 178 187 255 32 108 255 116 179 255 71 26 255 129 0 255 177 54 255 58 134 255 122 255 255 143 255 255 139 255 255 164 253 255 152 255 255 130 255 255 153 255 255 138 238 255 112 194 255 144 178 255 169 225 180 174 236 73 255 53 54 255 119 48 255 164 93 109 136 175 20 255 243 0 255 255 0 255 149 2 255 0 0 225 0 60 255 0 203 255 0 226 156 0 255 0 0 177 0 0 135 0 0 143 0 0 255 0 38 255 0 48 255 1 197 255 28 123 153 0 255 165 94 255 72 235 253 0 207 255 0 252 183 0 125 181 0 40 255 29 41 255 62 0 255 54 0 255 93 0 225 0 0 231 6 0 249 138 0 181 149 0 208 142 0 255 223 101 255 97 255 200 131 255 197 187 255 98 65 255 191 92 255 255 187 255 255 195 255 255 229 255 255 247 255 255 142 251 207 0 92 211 0 223 155 77 255 158 171 255 141 220 255 0 170 255 0 152 255 0 95 255 0 163 255 0 149 255 5 246 255 45 255 233 9 255 196 205 255 246 255 254 233 255 167 245 135 31 164 68 52 139 0 78 132 113 255 255 34 255 255 0 221 214 0 251 255 0 234 245 0 255 137 0 201 0 0 120 0 0 84 35 0 26 148 18 0 193 63 0 242 138 24 255 213 53 255 255 53 255 227 65 255 82 176 255 0 135 255 0 95 255 0 164 255 0 135 210 0 225 255 28 255 255 73 255 255 66 255 255 11 238 255 0 185 255 0 195 255 51 255 255 75 255 255 59 255 255 104 255 255 119 248 255 198 155 255 255 120 255 255 53 255 255 70 255 255 109 255 255 127 255 255 73 255 255 41 255 255 45 255 239 34 143 255 51 21 255 69 0 255 49 0 255 33 0 139 0 0 136 0 0 212 0 0 255 116 46 255 144 0 255 106 0 255 89 0 255 58 0 255 95 0 255 177 92 255 89 252 255 88 255 167 59 185 105 118 100 138 159 44 119 170 53 94 255 59 0 255 0 0 255 0 0 255 0 0 246 0 0 240 0 0 211 0 0 213 0 0 188 4 50 255 255 75 255 255 75 255 255 75 255 255 0 204 202 0 236 250 0 176 150 0 201 166 0 238 255 0 182 255 0 217 255 49 255 255 80 255 255 113 255 255 94 223 206 71 229 9 106 254 0 210 246 0 255 255 28 255 214 0 213 172 0 203 166 0 216 72 0 255 39 38 255 155 252 255 139 255 255 125 255 255 127 255 255 79 255 
75 255 255 75 255 242 0 186 200 0 0 226 60 29 255 255 204 255 255 186 255 255 191 255 255 188 255 249 131 255 87 150 255 150 213 255 135 165 255 158 218 255 109 199 255 90 175 255 162 255 255 221 175 255 255 205 255 219 244 255 210 255 255 255 255 228 255 213 255 241 180 223 192 226 161 255 255 182 255 224 237 255 212 239 255 225 205 255 255 123 76 146 0 153 168 0 154 107 0 196 153 0 220 67 0 158 0 0 179 0 0 255 121 0 255 206 0 255 255 28 245 255 185 168 198 255 128 102 255 113 97 255 152 168 255 208 78 255 191 0 255 244 86 255 241 159 255 238 219 255 236 220 255 88 2 255 40 0 225 0 0 225 0 0 225 0 0 225 0 0 225 0 0 225 0 0 85 0 1 19 146 60 85 255 207 207 255 182 255 255 174 255 255 223 198 192 185 178 98 211 231 0 135 153 0 102 53 0 100 0 0 90 0 42 200 0 255 255 28 255 255 28 255 255 28 255 255 28 170 255 161 75 255 177 75 255 116 75 255 86 75 255 68 75 255 68 75 255 28 75 255 28 0 255 0 0 186 0 0 148 0 0 116 0 0 99 0 0 154 18 0 208 80 0 222 230 58 255 255 120 182 255 255 211 255 255 194 255 255 144 255 255 123 255 255 140 255 255 157 255 255 152 255 255 97 255 255 110 255 255 71 255 255 153 187 255 162 255 255 166 255 255 145 255 163 145 219 0 100 85 29 136 194 184 206 255 228 224 255 243 217 255 255 200 255 159 111 255 95 66 255 255 84 255 255 95 255 255 120 255 255 120 255 255 70 255 255 66 255 200 0 131 255 14 100 255 182 170 163 255 224 104 255 255 75 255 255 0 242 254 35 255 255 68 255 255 75 255 255 162 255 255 255 187 255 255 124 255 255 120 255 255 120 255 255 111 255 255 0 255 234 0 255 178 0 225 178 0 225 231 0 255 255 70 255 255 207 228 252 215 0 255 255 36 221 249 55 255 238 255 255 240 255 229 254 255 221 228 255 198 161 255 147 152 255 142 94 255 191 208 167 194 255 65 163 255 0 181 242 0 78 249 0 0 255 0 0 255 69 0 255 83 0 255 75 13 255 191 0 246 233 0 157 163 0 208 140 0 222 39 0 248 11 128 255 49 162 255 192 197 255 255 232 255 253 123 173 126 0 169 19 0 124 0 0 171 0 0 255 26 28 255 0 49 255 68 75 255 109 152 255 104 140 188 236 95 21 255 91 0 225 50 0 225 51 0 251 255 22 255 255 161 255 255 187 255 176 113 254 105 102 183 113 31 65 255 100 103 255 221 138 255 255 129 228 255 187 224 255 255 255 211 255 255 153 255 242 251 255 204 255 148 221 255 115 232 255 102 255 255 90 255 255 91 255 255 226 255 244 255 255 219 255 255 190 255 255 170 255 255 184 255 233 225 255 130 255 255 173 255 221 255 255 194 255 249 152 255 255 93 213 255 10 217 255 21 78 93 0 28 29 0 0 91 0 0 132 0 0 168 0 43 255 144 166 255 255 255 198 255 255 205 255 255 199 255 255 158 255 255 194 255 255 186 255 255 122 255 255 142 255 255 159 255 255 171 217 255 175 198 255 174 201 255 179 178 255 169 230 255 189 205 255 240 118 255 193 60 255 107 79 255 241 255 217 233 255 179 255 255 191 255 255 255 209 255 255 203 255 255 157 255 255 153 255 255 184 255 255 28 255 226 0 255 178 0 225 178 0 225 255 28 255 255 120 255 255 120 255 255 119 255 255 57 255 255 101 255 255 179 255 255 226 255 225 237 255 145 231 255 0 103 174 35 134 180 133 255 255 131 255 255 75 255 255 75 255 255 75 255 255 3 255 241 0 160 191 0 209 255 17 234 195 180 255 242 255 247 255 255 237 255 239 230 255 228 243 255 239 247 255 231 254 255 94 178 236 0 42 221 0 31 240 0 67 75 0 95 0 0 98 0 0 97 0 0 101 0 0 94 0 130 117 0 255 255 27 255 233 28 255 208 28 255 192 12 255 159 4 255 153 255 255 79 255 255 126 255 255 118 255 255 27 168 169 0 0 98 0 0 0 58 0 0 252 0 0 255 0 27 255 0 75 255 28 60 255 0 0 255 0 0 144 0 0 111 0 0 148 0 
36 255 246 0 255 166 0 159 173 114 157 255 226 195 255 255 204 255 255 186 255 255 130 255 156 0 146 64 0 106 0 60 255 129 192 255 207 237 255 186 246 255 146 236 255 116 201 255 122 218 255 186 140 255 131 70 240 29 54 212 0 33 140 97 96 66 221 115 203 255 217 255 220 254 189 255 255 182 255 219 232 255 212 239 255 182 162 206 228 72 199 255 60 176 191 0 89 42 0 137 94 0 213 60 0 255 130 0 255 209 23 255 105 0 210 83 0 102 55 0 58 86 0 62 92 174 142 116 255 140 124 255 131 147 255 182 52 255 185 0 255 127 0 255 90 8 255 96 77 255 214 198 255 255 197 255 255 179 255 149 160 255 13 20 255 8 36 255 104 115 255 43 35 255 0 0 85 0 1 19 82 0 21 247 87 87 255 160 243 255 174 255 255 174 149 180 173 166 76 189 209 0 188 206 0 159 110 0 113 0 0 95 0 0 135 0 54 96 0 196 158 0 164 170 0 144 171 0 131 255 122 0 253 69 0 207 0 0 178 0 0 127 0 0 127 0 0 169 0 0 255 0 0 227 0 0 176 0 0 128 0 0 164 0 0 244 102 75 255 217 66 255 215 0 230 238 0 112 197 0 22 173 86 0 142 253 82 164 255 77 255 255 82 255 255 117 255 255 6 137 253 0 137 241 0 167 255 0 233 255 10 228 205 0 0 178 0 7 138 0 92 109 0 79 157 139 213 142 255 255 118 225 255 7 29 255 0 0 225 84 58 255 132 76 255 157 109 255 136 107 255 255 20 255 255 120 255 255 120 255 255 120 255 255 103 255 255 0 255 178 0 109 178 0 0 134 0 0 36 180 97 103 255 255 47 255 255 0 252 255 0 236 255 0 152 255 0 150 255 0 3 225 46 0 225 233 0 255 255 34 255 255 81 255 255 0 255 251 0 255 178 0 225 178 0 225 178 0 225 178 0 225 181 0 255 255 158 179 192 155 0 186 169 0 132 160 0 163 125 170 243 209 247 218 243 255 221 228 255 250 213 255 226 231 255 185 137 255 57 74 33 0 67 0 0 90 0 151 212 0 138 255 0 79 255 28 75 255 157 71 255 157 72 255 175 9 255 187 0 156 143 0 157 163 0 208 140 0 215 32 5 255 43 37 229 0 58 210 88 168 247 255 168 202 189 204 254 207 72 244 94 27 209 0 41 255 76 31 255 74 63 255 0 19 255 38 0 144 0 0 77 0 125 173 221 189 115 255 218 36 255 100 0 255 25 0 225 134 0 225 105 0 232 74 0 252 140 77 218 196 193 255 255 226 255 255 181 184 255 221 138 227 216 78 79 132 38 0 16 49 63 0 60 186 20 160 108 117 170 128 225 72 141 219 35 180 244 50 237 255 65 142 152 0 33 38 4 4 0 42 35 0 90 189 53 255 255 170 255 255 184 255 168 160 255 0 104 110 0 47 0 18 2 0 71 16 0 130 147 0 119 199 0 135 225 0 209 224 0 255 255 6 161 255 28 19 255 0 0 226 0 0 93 0 0 32 63 214 115 255 255 205 255 255 199 255 255 158 255 255 121 220 214 35 166 255 80 255 255 75 255 255 58 187 255 140 186 255 175 198 255 174 201 255 179 178 255 116 177 248 35 51 148 54 0 92 0 0 126 0 0 18 0 21 0 0 209 0 3 178 0 15 85 42 0 255 37 0 247 226 22 255 255 167 255 255 184 255 255 129 255 255 120 255 255 78 255 255 22 255 255 57 255 255 0 255 255 0 255 255 0 255 255 0 255 255 21 255 182 0 165 89 51 198 95 107 255 129 215 255 169 255 255 180 255 255 149 255 255 131 255 255 75 255 255 75 255 255 29 255 255 36 255 255 75 255 255 81 255 255 8 225 186 2 78 64 9 0 12 90 58 130 149 140 255 132 147 255 71 79 164 9 32 96 50 134 192 73 166 255 24 158 255 0 73 81 0 95 0 0 98 0 0 113 0 0 255 128 138 255 74 255 255 28 255 255 28 255 233 28 255 172 0 255 122 0 229 0 0 178 0 31 178 0 154 178 0 194 178 0 166 255 0 119 255 65 103 255 165 147 158 245 0 0 240 0 0 203 0 0 162 0 0 150 0 0 203 0 0 255 0 15 255 0 83 255 129 75 255 171 
121 0 0 195 146 0 244 231 0 255 255 38 255 176 194 255 109 242 255 0 189 178 0 129 240 0 255 255 71 255 255 140 255 255 154 255 228 245 255 126 255 255 93 173 134 82 48 7 227 221 123 162 254 45 135 240 0 92 83 0 105 0 0 136 21 0 52 43 0 60 52 51 221 74 166 255 71 255 255 151 255 255 189 255 255 117 255 203 14 255 255 47 255 255 15 255 255 0 255 255 0 255 255 0 255 255 28 255 255 105 255 255 115 255 255 115 255 215 42 255 32 0 228 75 2 255 175 82 255 255 180 255 255 151 255 149 4 255 103 0 255 115 0 144 255 0 189 255 113 255 255 100 255 255 154 221 255 168 235 255 148 255 255 156 255 255 206 255 124 170 146 0 11 111 0 0 225 0 0 225 91 0 225 178 0 225 178 0 225 255 0 255 255 79 255 255 104 255 255 0 255 215 0 138 187 51 83 191 121 197 184 147 239 0 193 81 0 112 0 0 204 67 0 161 68 184 157 246 122 112 255 33 76 255 113 102 255 154 4 255 223 35 255 222 117 255 40 94 255 55 41 255 75 5 30 111 0 0 255 140 99 255 205 212 255 234 255 236 255 255 250 255 224 255 255 240 245 227 255 229 224 255 180 192 255 132 123 254 71 109 124 156 213 255 127 224 255 34 171 251 0 140 104 0 73 98 37 116 255 155 198 255 197 149 255 220 173 255 206 127 255 187 114 255 200 158 255 195 200 255 246 255 239 255 245 221 255 227 255 255 229 255 106 123 165 28 104 10 21 50 0 42 0 0 19 0 42 0 11 0 0 26 76 0 45 79 0 49 161 0 100 255 0 192 255 0 238 255 19 255 255 0 240 255 60 255 255 75 255 255 0 255 197 0 176 76 0 46 0 39 0 0 40 0 0 58 8 0 50 0 0 43 0 98 0 0 212 0 8 225 0 87 255 0 190 255 16 243 255 65 191 255 74 200 255 95 255 255 169 254 255 166 255 255 72 170 255 79 3 255 74 0 255 134 59 252 255 200 255 255 230 231 255 242 255 255 255 171 189 255 255 83 255 255 107 255 255 80 199 255 148 196 255 156 167 255 81 186 255 152 255 255 116 160 209 78 125 133 68 192 120 36 196 138 83 255 198 69 197 214 18 25 190 0 0 225 0 0 225 0 62 234 38 93 232 35 59 255 192 32 255 255 40 255 255 181 255 255 72 255 255 43 255 255 0 255 252 0 255 255 23 255 255 0 255 255 0 255 255 27 255 201 0 255 162 0 255 137 0 255 2 0 225 0 0 225 54 80 255 235 19 255 245 18 255 133 0 183 158 0 109 246 0 101 255 48 173 255 36 164 255 20 123 255 34 33 255 89 0 255 166 108 255 172 133 255 88 20 255 26 0 255 23 0 211 0 0 255 88 255 255 80 255 255 140 255 255 160 255 255 171 217 255 156 255 255 13 255 199 0 246 23 0 115 146 65 255 255 47 255 255 42 255 255 39 255 255 96 255 255 120 255 255 111 255 255 81 255 255 7 255 247 55 255 255 153 255 255 106 255 255 147 231 255 168 255 201 98 255 200 65 255 179 5 255 234 36 255 255 76 255 255 71 255 255 0 255 255 28 255 255 72 169 255 158 255 255 166 242 255 181 166 255 187 134 249 0 205 229 0 249 219 0 255 194 0 138 220 0 27 105 0 0 91 0 0 141 0 0 193 21 0 255 205 0 223 239 0 43 147 0 0 127 0 0 117 4 0 224 255 75 255 255 76 255 255 140 255 255 117 229 255 0 30 26 0 1 31 15 0 26 0 85 40 34 223 142 0 255 139 0 218 114 0 177 192 70 98 193 49 103 101 11 0 23 135 50 139 216 55 180 255 28 255 255 113 255 170 197 254 217 248 255 246 229 255 241 197 255 146 206 255 27 214 255 155 213 255 255 95 255 255 101 255 255 155 255 255 200 255 215 160 255 201 66 255 135 130 255 0 215 255 55 255 255 0 223 255 0 173 255 0 165 255 24 124 255 100 84 255 157 14 154 194 48 99 255 127 61 255 208 28 255 208 28 255 181 1 255 67 0 255 64 0 255 58 98 255 143 246 226 118 218 63 142 247 14 100 249 0 53 97 0 117 91 0 195 19 0 220 0 0 255 22 0 214 0 0 76 0 
203 82 0 225 176 0 240 227 0 255 255 37 255 120 138 255 26 159 246 0 156 204 0 155 225 0 240 178 0 225 245 0 189 243 0 190 53 70 196 109 255 243 203 255 244 255 249 208 255 255 166 214 255 97 214 255 28 255 255 28 255 222 145 243 128 85 224 215 144 229 221 220 255 200 255 255 56 255 255 49 255 169 66 183 141 2 179 100 0 189 144 0 209 178 0 225 178 0 225 252 0 255 255 12 255 255 95 255 255 43 255 255 0 255 255 0 255 145 0 255 100 12 255 99 26 255 150 57 255 183 48 255 177 9 255 156 11 255 111 0 255 128 0 157 213 0 134 178 0 104 227 0 125 255 82 149 255 89 156 255 44 230 255 63 255 168 48 157 142 188 164 161 238 255 137 171 255 104 78 255 124 0 255 204 0 251 255 0 255 255 0 255 218 0 255 178 0 225 178 0 225 178 0 101 91 0 0 145 75 151 67 30 122 0 164 52 0 255 108 0 201 64 0 89 0 11 0 73 0 0 225 15 58 255 218 207 255 255 175 255 255 162 255 255 190 255 77 131 255 191 177 255 255 221 246 254 117 49 174 30 0 81 0 0 11 0 76 0 7 8 4 16 0 54 50 35 113 95 255 106 101 255 123 135 255 244 235 255 226 255 255 197 254 255 163 255 255 149 255 255 155 255 255 107 221 246 47 126 255 0 0 225 2 0 225 44 0 151 124 45 236 182 109 255 173 131 255 196 201 255 246 255 239 255 245 221 255 227 255 255 229 255 214 231 255 88 164 70 132 161 57 163 107 78 194 156 217 175 208 193 163 255 255 135 255 255 96 255 255 0 164 255 0 95 236 0 62 148 0 147 177 0 240 255 64 255 255 75 255 255 33 255 236 0 212 112 0 121 64 59 2 7 63 18 0 71 21 0 52 0 0 37 0 92 28 37 255 140 251 255 75 255 255 75 255 255 75 255 255 142 255 255 142 255 255 117 255 255 169 254 255 166 255 255 109 207 255 255 200 255 255 188 255 255 192 255 255 200 255 255 186 187 227 205 255 255 255 171 79 177 150 81 255 255 107 255 255 147 255 255 194 242 255 218 229 255 106 211 255 125 228 255 218 255 255 221 255 255 176 255 228 104 255 206 47 220 162 70 198 215 158 165 255 174 152 255 33 96 255 0 15 187 0 0 139 0 0 225 155 0 255 255 36 255 253 153 255 255 105 255 255 6 255 255 34 255 255 7 255 255 120 255 255 120 255 255 120 255 255 120 255 233 24 255 167 0 255 171 0 255 30 0 253 0 28 254 0 0 232 114 0 223 134 0 158 84 0 134 158 0 109 178 0 33 178 0 28 178 0 31 178 0 10 178 0 0 178 0 0 178 0 0 168 0 0 196 0 0 255 87 6 255 168 102 255 118 144 255 120 255 255 29 255 255 101 255 255 147 255 255 77 123 255 129 255 255 48 255 255 47 255 184 126 255 190 109 255 255 85 255 255 120 255 255 120 255 255 120 255 255 120 255 255 120 255 255 120 255 255 80 255 209 17 255 190 45 255 127 0 255 191 30 114 154 43 172 129 26 255 197 62 255 255 90 255 255 130 255 255 70 255 255 13 255 255 16 255 255 1 255 255 18 115 255 0 109 244 0 53 255 63 48 255 75 22 255 115 255 255 125 255 255 123 255 255 140 255 255 108 181 254 110 72 180 72 0 248 78 0 255 131 0 186 65 0 124 140 0 88 192 0 58 218 0 75 255 162 0 188 219 0 220 255 0 175 247 0 111 213 0 88 126 0 41 37 99 116 146 255 241 255 200 255 240 131 255 239 75 255 231 75 255 244 81 255 255 105 133 228 148 202 200 208 196 220 255 219 255 255 192 255 255 130 255 240 29 184 125 152 209 144 175 255 148 131 255 61 17 225 0 0 227 0 142 255 106 164 255 255 125 255 255 72 255 255 99 255 229 153 255 177 122 255 255 124 255 215 210 255 75 255 255 65 255 255 0 137 255 0 47 225 0 34 225 0 4 225 0 0 159 153 10 150 255 113 164 255 219 153 255 208 28 255 208 28 255 208 28 255 208 28 255 208 28 255 172 212 255 161 255 255 211 255 159 238 255 147 233 255 85 255 255 40 255 255 4 255 113 19 255 82 0 222 0 0 183 0 1 137 0 
255 102 255 255 20 255 255 36 255 255 110 255 255 154 255 255 182 255 255 223 255 255 252 162 87 150 0 0 95 0 0 98 0 0 0 46 61 0 225 84 0 225 154 0 255 255 73 255 255 126 255 255 120 255 255 120 255 255 120 255 255 120 255 255 120 255 255 158 255 255 154 255 255 120 255 255 120 255 255 81 255 171 0 255 0 55 249 0 80 255 0 91 255 0 165 255 0 103 255 0 118 255 46 130 255 49 38 255 89 44 255 189 150 255 255 222 255 255 227 255 228 255 255 242 238 255 255 209 255 255 199 255 255 194 255 255 231 255 208 255 255 177 255 255 169 196 255 47 114 119 206 194 140 255 208 92 223 255 86 163 158 0 54 16 0 136 84 0 216 217 0 255 255 17 255 255 28 255 255 28 255 255 28 255 255 28 204 255 28 214 255 28 150 210 28 98 219 213 110 213 255 197 199 255 255 179 255 255 117 221 230 115 82 226 143 19 255 240 0 245 255 28 191 255 28 76 240 0 0 61 0 50 18 0 84 0 0 91 0 0 208 57 0 182 0 99 49 0 150 0 15 132 0 54 131 0 64 139 0 28 180 0 63 255 70 175 255 137 168 226 204 97 197 157 0 103 226 0 216 240 0 255 189 0 135 255 62 166 255 159 255 249 233 255 207 194 255 174 155 248 167 219 146 133 183 168 236 245 255 202 86 241 211 0 34 255 42 118 255 44 181 255 125 255 255 205 233 132 19 49 18 0 116 0 0 221 0 46 217 0 81 193 13 240 255 75 255 255 75 255 255 0 231 255 0 88 212 0 51 207 0 48 223 0 91 188 129 188 138 228 214 131 255 228 153 255 117 199 255 35 94 231 0 0 98 0 0 25 0 28 91 113 255 104 194 255 153 248 255 138 223 170 157 182 152 178 145 255 186 157 255 255 224 255 255 164 129 228 156 84 170 196 31 123 255 30 113 255 0 138 255 5 174 255 6 172 255 0 231 255 28 255 188 0 255 93 135 255 184 185 255 179 175 255 173 205 255 169 228 255 184 148 255 231 102 205 255 0 155 231 0 47 187 0 12 129 0 132 80 0 87 29 0 105 76 66 54 99 82 88 115 118 175 195 138 198 237 96 93 255 238 80 242 255 118 87 194 195 94 238 246 154 225 255 106 255 255 120 255 255 14 255 255 32 72 255 55 76 255 104 182 255 143 255 255 143 255 255 154 250 255 194 198 255 200 255 255 209 255 255 193 255 193 131 255 0 23 135 0 11 116 0 8 159 0 91 230 0 108 177 0 168 184 0 169 114 0 207 92 67 255 206 75 255 180 110 255 88 181 255 26 224 255 40 255 255 65 255 229 230 255 214 255 255 220 243 211 167 214 122 109 149 164 139 71 131 121 0 192 217 0 240 255 35 221 255 189 255 190 217 255 170 224 255 162 255 255 131 255 255 132 172 255 65 107 255 87 243 243 38 207 91 17 100 139 216 194 44 171 174 84 79 211 243 88 255 255 51 80 255 147 24 255 168 4 255 160 118 255 198 239 255 189 255 255 217 255 255 225 255 255 216 255 250 194 255 255 228 255 255 156 255 255 150 255 255 158 255 255 167 255 255 142 255 255 122 255 255 110 255 255 11 255 194 83 174 106 82 56 137 71 0 100 121 0 81 136 0 75 200 0 70 195 0 103 190 0 190 198 0 239 171 34 255 223 235 255 222 255 231 255 255 187 255 210 79 118 37 150 129 34 138 190 0 219 255 0 249 255 28 255 255 28 255 255 67 255 255 70 236 252 10 47 158 0 57 146 0 169 128 0 132 79 0 109 66 0 128 108 0 52 145 0 40 139 0 141 177 0 55 154 0 162 147 0 255 196 0 255 208 28 255 208 28 255 208 28 255 208 28 255 208 28 255 255 88 211 255 164 42 255 201 75 255 255 75 255 255 75 255 255 145 255 255 184 255 205 255 255 233 245 255 233 212 255 70 255 254 28 197 23 0 42 82 0 96 0 0 178 0 0 178 0 0 178 0 0 222 0 56 255 72 154 255 148 169 255 196 88 255 204 47 243 255 79 96 255 0 0 138 0 0 135 0 0 144 0 0 254 0 31 255 0 23 255 0 0 255 0 0 135 0 0 99 0 0 46 0 93 0 0 159 0 0 229 4 0 236 11 0 
178 0 225 229 0 255 205 0 252 178 0 225 178 0 53 215 4 84 156 68 114 151 109 19 0 58 0 0 83 0 0 138 0 39 58 104 165 28 255 184 13 255 233 69 255 255 133 255 255 126 255 255 120 255 255 66 255 255 0 255 255 0 255 255 0 255 255 148 255 255 154 255 255 120 255 255 96 255 255 0 255 108 0 234 0 31 225 0 47 225 75 255 255 75 255 255 93 255 255 107 255 255 0 40 255 0 0 225 5 0 189 9 0 127 44 0 49 36 0 46 0 2 54 0 0 120 2 0 225 23 0 225 42 0 200 11 0 92 0 16 35 0 73 152 93 120 255 207 255 255 255 255 203 255 250 134 175 216 38 116 111 0 81 43 0 96 44 0 109 110 0 119 89 0 53 38 0 67 9 0 39 24 0 14 36 0 0 69 0 1 106 0 119 179 0 107 228 222 93 196 255 144 146 255 213 114 253 156 13 117 88 0 0 72 0 0 43 21 0 3 62 0 0 102 0 0 143 0 0 70 0 85 53 0 184 90 0 184 73 0 255 155 88 255 181 255 255 200 255 173 255 255 97 255 255 0 236 255 0 99 251 0 40 255 47 152 255 69 100 158 129 22 122 107 0 53 157 0 147 157 0 216 151 0 97 219 22 126 186 73 191 63 47 194 0 0 178 2 0 76 0 23 0 0 23 8 80 89 196 252 136 255 255 83 176 255 36 112 178 0 38 162 0 72 105 0 0 75 0 0 18 0 116 3 47 255 55 255 255 0 218 255 0 184 255 0 198 255 0 183 255 8 251 255 0 220 255 0 152 255 0 59 234 0 28 125 0 23 0 19 5 0 89 0 0 164 0 0 191 0 0 201 0 0 229 99 33 180 136 183 175 197 255 139 229 255 0 89 183 0 82 29 33 58 28 66 33 232 193 164 255 225 141 191 255 194 159 255 241 169 235 255 96 183 255 90 119 255 0 161 255 28 196 255 28 207 255 28 231 255 28 255 205 6 255 133 175 255 160 161 255 179 175 255 101 133 255 114 173 255 70 34 193 64 0 205 255 0 140 216 0 142 255 0 185 255 85 220 168 37 241 183 124 222 193 183 164 209 192 160 187 190 247 255 210 243 255 141 99 255 244 135 255 255 186 155 255 191 90 234 253 161 232 255 64 255 255 4 255 255 90 255 255 162 202 255 175 196 255 166 244 255 101 253 255 12 230 253 0 89 248 47 51 255 108 191 255 209 255 255 193 255 255 216 255 187 255 255 158 237 255 175 255 255 69 204 255 0 106 175 120 255 255 75 255 255 75 255 235 75 255 214 75 255 180 110 255 88 207 255 52 192 255 8 153 175 0 255 185 186 234 119 174 255 176 199 208 164 211 66 53 93 189 164 96 179 169 0 255 255 28 240 255 35 221 255 189 255 174 201 255 0 46 178 0 10 178 0 42 255 25 65 255 97 139 255 153 255 255 136 255 242 168 251 122 199 177 147 255 255 135 130 255 255 141 255 255 84 113 255 138 15 255 229 65 255 231 189 255 198 239 255 189 255 255 217 255 255 182 226 254 194 242 209 153 228 192 143 249 251 139 255 255 64 241 255 37 162 255 42 137 255 3 243 255 0 255 255 64 255 255 50 255 255 211 255 255 250 224 255 246 150 255 255 28 247 255 28 97 222 0 52 177 0 85 172 0 153 161 0 196 128 0 255 156 168 203 117 176 132 168 156 107 217 130 156 195 114 168 147 52 192 244 0 153 208 0 80 132 0 132 163 0 211 161 0 255 231 33 255 255 45 206 255 24 191 255 0 181 140 0 175 122 0 203 160 0 249 229 0 200 255 6 184 255 0 125 161 0 55 154 0 40 25 0 81 2 0 255 50 0 255 56 0 255 139 0 255 121 0 250 25 0 156 103 0 83 166 36 1 235 160 0 181 217 0 125 255 0 50 209 0 39 83 0 45 0 5 1 0 60 79 48 60 160 0 255 254 28 255 195 0 196 236 0 197 94 0 238 12 0 255 38 0 255 31 79 255 86 192 255 0 75 255 121 142 255 106 0 255 111 0 132 183 0 0 159 0 38 255 0 75 255 28 75 255 28 75 255 28 75 255 28 75 255 28 75 255 28 75 255 28 147 255 28 245 255 23 255 239 16 255 187 0 255 208 28 255 208 28 
0 135 0 0 135 0 0 123 0 0 65 0 79 0 0 216 42 0 255 3 89 255 0 182 113 0 154 23 0 210 0 0 225 0 93 255 0 86 204 0 231 255 0 248 232 0 179 128 0 123 78 0 121 0 0 106 0 108 93 0 255 204 237 255 154 255 255 125 255 255 120 255 255 145 255 255 189 255 255 185 215 205 8 4 205 37 0 190 16 0 178 0 0 178 0 0 255 5 9 255 3 41 255 104 146 255 125 146 255 110 136 255 181 168 239 124 0 158 252 0 55 177 46 43 114 84 0 62 129 62 0 159 161 0 159 206 0 255 233 15 255 255 125 255 255 213 201 255 123 19 191 27 39 139 3 117 149 24 96 185 85 172 223 110 255 247 97 255 255 166 255 255 178 255 255 199 255 255 90 255 126 0 72 145 0 17 113 0 0 98 0 0 164 0 0 230 0 0 255 150 179 255 202 255 255 152 255 160 0 159 164 0 0 173 0 0 138 0 0 178 0 0 225 0 0 255 32 0 255 102 0 255 180 0 255 198 4 255 208 0 27 159 0 0 226 0 0 203 0 0 211 0 0 102 0 25 31 0 90 28 0 118 16 0 255 91 0 255 164 79 255 108 63 255 84 110 124 0 158 116 0 225 126 0 225 107 0 111 102 0 10 98 0 47 89 0 157 84 0 225 121 0 225 135 0 234 177 0 246 127 0 252 75 14 255 145 184 255 199 192 255 155 124 190 0 0 47 0 0 74 88 173 250 212 254 255 255 226 255 197 91 139 48 124 48 15 188 0 136 227 0 255 238 0 255 201 130 255 220 255 242 217 255 247 255 255 231 255 194 201 255 233 196 255 251 255 255 141 211 255 27 83 208 0 18 31 0 112 0 0 255 45 0 255 41 0 226 0 0 178 0 0 218 0 9 255 78 57 255 182 162 255 165 251 237 176 255 110 181 255 47 93 242 70 85 138 174 0 104 139 0 144 82 0 97 22 0 0 15 6 0 0 36 0 0 49 0 0 111 0 0 172 0 0 255 89 0 214 57 0 84 0 0 36 0 18 15 0 88 0 0 133 42 0 203 166 0 214 114 0 221 51 0 111 25 0 84 83 255 60 120 255 46 125 255 0 23 152 0 73 90 0 77 72 0 100 0 0 224 0 0 255 0 36 255 0 0 255 0 8 255 0 21 255 0 0 255 0 7 255 22 41 227 0 153 168 199 219 137 255 210 78 255 207 57 255 144 0 255 237 24 255 240 132 255 200 239 255 210 234 255 159 149 255 211 163 255 255 171 255 255 120 255 255 122 255 255 142 255 255 135 255 255 204 255 255 200 255 179 255 143 4 255 0 0 138 0 2 42 0 106 0 0 178 0 0 178 0 0 178 0 0 229 4 0 255 98 0 255 125 0 161 80 0 0 54 0 0 50 0 0 68 106 0 138 255 0 218 255 39 255 255 0 140 255 46 255 255 89 255 255 82 176 255 174 190 255 111 0 255 255 34 169 255 72 207 255 50 113 108 82 73 67 0 14 140 0 102 178 0 225 109 0 225 4 0 225 0 0 225 0 0 225 0 0 225 0 47 225 0 47 225 0 47 225 0 68 246 0 93 255 0 56 234 0 51 203 0 92 0 0 112 0 0 116 0 0 135 0 0 176 0 0 173 0 0 170 0 0 114 0 0 60 17 0 43 0 185 153 164 255 217 255 245 228 255 22 86 255 0 42 159 0 67 122 0 53 194 0 119 255 8 235 255 0 193 255 10 201 255 0 8 135 60 0 0 209 35 0 255 198 18 255 208 28 255 255 28 169 255 28 0 255 0 0 148 0 0 135 0 0 123 0 0 97 0 0 179 143 0 168 255 0 159 255 137 174 255 226 140 255 250 160 255 159 88 255 51 0 225 202 0 255 255 87 255 255 156 255 255 138 255 255 120 255 255 120 255 255 120 255 255 120 255 255 120 255 255 120 255 255 120 255 255 0 255 212 0 255 215 0 255 255 0 255 255 39 255 255 137 255 191 219 255 165 255 255 27 212 255 0 85 255 0 47 225 0 92 0 0 135 0 0 217 0 0 190 0 0 208 0 0 151 0 0 159 0 0 185 0 0 156 0 101 149 0 255 255 27 172 255 138 0 229 218 0 180 255 0 78 255 0 100 255 41 255 255 0 196 255 
34 255 0 47 255 0 75 255 6 178 255 0 255 200 10 255 212 127 255 28 114 184 0 110 98 0 139 23 0 210 0 0 225 0 47 225 0 57 175 0 67 124 0 79 63 0 131 80 0 208 163 0 194 0 0 122 0 22 7 0 105 0 0 178 0 53 178 0 200 178 0 225 175 0 102 123 0 44 75 0 0 203 6 2 246 78 0 255 193 7 255 208 28 255 192 107 255 178 182 255 172 210 255 172 214 255 175 196 255 174 200 255 5 0 103 0 0 0 57 0 0 51 0 0 24 0 1 68 135 132 13 229 255 0 255 255 0 255 243 25 255 255 79 221 248 104 92 255 145 41 255 156 168 255 190 255 192 67 139 192 92 179 251 138 255 167 17 255 209 32 255 118 0 255 111 15 249 255 141 255 255 117 255 255 148 243 255 207 193 255 133 145 255 81 54 178 0 0 107 0 0 79 0 58 78 0 95 103 0 102 164 0 0 173 0 0 138 0 0 178 0 0 178 0 0 178 0 0 255 56 0 255 126 0 255 128 0 116 52 0 0 82 0 0 169 0 0 244 0 0 235 0 115 255 0 255 255 26 224 162 0 195 93 0 148 0 0 178 0 0 184 0 0 185 0 0 121 0 155 255 117 255 255 147 255 255 178 255 255 200 255 255 195 255 255 117 255 247 76 255 255 74 255 255 160 255 255 153 255 255 167 255 255 205 255 200 239 255 245 238 255 219 188 254 35 55 102 94 122 197 186 255 255 221 255 255 255 226 255 255 190 238 149 225 149 126 255 73 222 255 37 255 255 28 255 230 159 255 220 255 255 239 255 247 255 255 233 255 196 3 88 35 0 30 0 19 12 0 0 63 0 15 140 0 184 197 0 255 142 4 255 65 0 255 31 0 219 0 0 178 0 0 178 0 0 178 0 0 178 0 0 198 0 16 129 68 186 85 156 255 40 86 235 63 78 131 208 0 138 200 0 205 200 104 215 247 214 221 255 255 178 242 255 102 210 255 95 0 191 21 0 165 0 0 207 14 66 255 191 147 255 228 207 255 191 255 255 129 255 254 28 255 253 28 255 255 28 255 250 28 255 195 0 255 195 146 235 234 255 136 196 255 175 254 255 52 179 255 0 140 157 0 77 72 0 134 0 0 253 0 0 255 0 75 255 28 75 255 28 75 255 28 35 255 0 0 129 0 0 123 0 0 82 0 0 0 31 94 12 255 188 56 255 255 129 255 255 133 255 248 35 255 164 56 255 58 97 255 38 62 255 110 100 255 77 29 255 78 0 225 178 0 225 175 0 225 135 0 225 255 42 252 231 87 152 199 133 193 0 71 0 0 119 0 0 109 0 39 79 0 143 26 0 178 0 0 178 0 0 178 0 0 255 121 0 255 143 0 255 126 0 109 28 0 0 54 0 0 50 0 0 48 86 0 47 178 0 147 255 50 255 255 67 255 255 49 255 255 0 67 255 0 2 225 0 0 225 56 0 230 253 0 112 255 119 254 255 183 246 255 248 239 255 231 249 255 92 255 199 0 246 109 0 225 4 0 225 0 0 225 0 0 225 140 192 255 70 255 255 54 255 255 0 187 255 0 47 225 0 47 225 0 47 225 0 51 203 0 92 0 0 112 0 0 140 0 0 213 0 0 255 0 0 255 0 0 255 0 0 255 53 12 197 154 17 146 101 40 8 19 36 0 95 147 130 255 57 121 255 0 124 241 0 67 122 0 53 194 0 84 255 0 191 255 75 255 255 99 255 255 189 255 255 255 225 249 255 173 54 255 119 0 210 0 0 92 30 0 0 150 0 0 140 0 0 177 0 0 167 0 0 232 0 13 255 159 36 255 255 72 255 255 0 212 255 7 44 255 28 0 225 30 0 225 18 0 225 51 0 225 158 0 255 255 0 255 143 0 255 151 0 233 178 0 225 178 0 225 255 19 255 255 37 255 255 30 255 255 76 255 255 0 255 219 0 255 180 0 227 178 0 225 218 0 255 252 0 255 116 0 255 6 34 255 0 82 255 48 233 255 28 255 255 0 149 255 0 154 56 0 135 0 0 225 0 0 255 0 21 255 0 9 255 0 27 255 0 0 227 0 0 107 0 164 212 0 255 255 28 172 255 138 75 255 255 75 255 255 75 255 255 20 247 255 0 92 255 0 47 225 
75 255 255 140 255 255 243 255 255 175 161 255 152 183 255 10 0 233 62 0 254 46 0 232 0 0 225 0 37 225 0 47 225 0 84 33 0 70 106 0 72 215 20 255 255 75 255 255 79 255 255 27 155 182 0 0 115 15 0 88 0 30 0 0 85 0 7 255 0 75 255 28 75 255 29 75 255 28 75 255 28 75 255 28 75 255 127 0 255 156 0 201 175 0 131 154 0 152 213 0 18 225 0 0 225 99 0 225 252 0 255 255 97 255 255 141 255 255 165 255 255 194 255 255 232 255 165 255 255 0 255 194 0 236 206 29 255 255 198 255 255 255 230 255 255 155 255 255 65 234 255 8 255 255 159 255 255 155 255 255 187 255 228 224 255 75 255 255 13 240 255 0 83 255 43 0 225 93 0 225 158 0 255 255 101 255 255 173 255 255 160 255 0 65 0 0 102 0 0 111 28 0 169 188 56 255 255 75 255 255 75 255 255 12 239 255 0 0 225 183 0 230 219 0 255 255 0 255 255 88 255 255 23 255 255 0 214 178 0 0 178 0 33 97 75 125 180 255 221 187 255 255 110 255 255 0 168 255 0 178 255 0 210 255 95 255 199 146 216 70 55 42 0 0 12 0 0 41 0 0 73 0 103 63 13 235 15 150 220 24 255 45 0 242 0 0 225 0 2 225 0 0 225 49 122 255 32 255 255 0 215 255 55 255 255 75 255 255 214 255 239 255 255 56 255 240 131 255 135 150 246 11 128 161 0 93 186 6 179 194 221 242 180 255 255 184 255 255 164 198 162 49 12 42 0 11 26 0 30 38 47 76 192 255 98 255 255 165 255 255 159 255 255 208 255 255 161 255 255 116 255 255 159 255 255 193 245 255 233 210 197 225 0 5 76 0 0 47 51 0 44 125 0 47 225 0 47 225 0 47 225 0 15 202 57 0 0 183 151 0 255 244 0 255 255 28 170 185 0 0 99 0 0 84 0 0 135 0 0 97 0 56 15 0 128 0 0 166 0 0 178 0 0 178 0 0 191 0 76 255 9 252 255 58 255 255 120 255 143 110 255 0 216 255 0 187 255 24 251 255 75 255 255 79 255 255 196 250 255 217 152 230 255 170 208 255 194 236 255 207 145 255 190 0 255 144 118 255 166 227 255 183 255 255 189 255 252 92 255 179 0 255 158 0 236 154 0 225 0 0 225 0 15 225 0 65 255 103 206 255 121 210 255 0 192 255 0 213 255 52 255 255 75 255 255 75 255 255 75 255 255 0 253 39 0 255 0 85 255 0 205 255 28 134 233 0 50 51 0 145 0 0 190 0 0 217 33 45 217 135 255 182 240 255 184 247 255 255 132 255 193 105 255 41 0 255 0 0 232 0 36 197 64 177 243 116 149 192 56 143 174 0 54 0 0 41 0 0 58 0 0 46 0 151 141 156 199 101 255 139 122 212 0 57 25 0 158 0 68 255 43 201 255 54 219 255 28 194 210 1 255 99 95 255 48 91 255 28 54 233 0 56 255 0 201 255 0 255 255 3 255 255 0 217 255 0 255 255 94 255 255 120 255 255 125 255 255 120 255 255 120 255 255 104 255 255 18 255 177 0 255 68 0 225 54 0 225 0 0 216 0 138 255 55 255 255 97 255 255 215 112 255 255 140 255 255 161 255 255 209 255 255 204 255 201 79 103 88 0 0 0 46 0 0 28 58 88 0 95 124 0 54 158 0 85 168 0 191 178 0 225 178 0 216 255 136 197 255 192 111 255 216 203 104 84 121 0 7 10 0 22 0 0 69 0 0 183 0 0 243 0 75 255 231 39 255 174 0 144 59 0 90 7 0 82 44 0 63 130 100 230 255 211 255 221 208 255 132 193 255 129 255 213 255 255 92 255 255 11 212 213 0 47 99 0 14 0 20 0 0 52 0 0 135 0 0 234 0 0 216 0 0 172 0 0 115 0 0 188 2 0 184 23 0 234 68 16 255 174 0 179 79 75 255 185 10 255 151 0 159 151 0 144 196 0 72 99 0 92 0 0 70 0 65 78 72 238 22 45 255 120 0 255 122 0 235 10 0 254 89 0 163 255 0 47 255 0 74 255 27 75 255 28 61 255 24 75 255 185 75 255 255 75 255 255 7 234 255 0 96 255 0 47 225 0 108 255 165 249 255 
75 255 255 140 255 255 243 255 255 183 169 255 166 197 255 255 209 255 255 194 255 255 191 255 224 227 255 43 240 255 0 90 255 0 84 33 0 70 106 0 53 196 0 63 141 0 76 76 0 83 30 0 35 62 0 0 115 15 0 88 0 30 0 0 85 0 0 132 0 0 135 0 0 135 0 0 135 0 0 135 0 0 197 0 0 217 0 25 255 181 43 255 255 75 255 255 59 255 255 21 161 255 120 95 255 255 88 255 255 46 255 255 0 255 178 0 115 159 0 80 255 102 210 255 232 255 89 219 205 0 145 72 0 81 51 0 69 115 0 3 129 19 0 76 178 0 44 178 0 65 178 0 139 124 0 161 145 0 129 152 17 255 204 200 255 75 255 255 75 255 255 161 255 255 255 189 255 255 122 255 255 91 255 255 164 255 255 173 255 255 196 255 219 255 187 75 255 196 47 255 234 0 146 165 0 73 170 0 47 225 0 47 225 0 217 255 212 213 255 255 120 255 255 120 255 255 120 255 255 120 255 255 120 255 255 140 255 255 164 253 255 157 255 194 172 222 0 66 27 0 75 45 0 140 125 38 219 255 75 255 255 43 255 255 135 255 239 222 255 146 255 255 123 252 255 200 185 255 199 0 160 16 33 0 0 145 0 60 245 49 255 255 197 255 205 236 255 165 255 255 228 224 255 177 250 255 75 255 255 0 225 255 0 137 173 0 72 99 88 152 113 145 166 0 255 196 87 255 129 144 220 0 102 251 0 183 230 50 223 150 177 198 160 255 255 184 255 255 235 255 233 255 240 255 221 255 255 179 255 255 221 250 255 255 138 255 190 2 255 53 0 225 5 0 225 120 12 255 255 50 255 255 0 138 95 0 5 58 0 0 8 36 0 0 31 0 0 31 35 0 44 125 0 182 255 65 255 255 0 198 255 0 107 255 57 0 0 50 18 0 69 37 0 158 132 0 255 255 28 200 255 28 175 255 28 75 255 28 149 255 28 224 183 0 177 27 0 255 62 0 255 104 0 255 50 35 255 25 192 255 0 235 255 129 255 255 179 255 163 130 255 0 135 255 0 47 225 0 115 255 0 179 255 0 141 255 50 104 255 255 199 255 255 208 246 255 205 247 255 207 145 255 220 28 255 201 175 255 178 239 255 196 255 255 189 255 255 172 255 255 158 255 255 136 255 255 132 255 196 195 255 0 83 255 0 20 225 0 17 132 0 4 196 0 61 244 0 115 255 0 160 255 75 255 255 75 255 255 75 255 255 75 255 152 75 255 28 155 255 28 205 255 28 218 255 28 255 255 28 255 224 28 255 215 33 255 198 210 255 210 255 190 248 255 189 252 255 255 161 255 255 176 255 189 137 255 70 69 255 0 96 255 50 163 229 93 126 169 160 247 255 188 255 133 233 255 97 203 255 90 197 255 164 255 250 255 255 206 255 161 144 234 0 86 54 0 205 29 17 239 0 198 255 51 219 255 28 238 254 45 255 102 98 255 38 81 207 0 0 230 0 53 205 0 129 255 7 255 255 137 255 255 146 255 255 129 255 255 120 255 255 6 255 232 0 255 255 0 255 255 120 255 255 120 255 255 120 255 255 149 255 255 176 255 255 183 255 255 213 255 46 222 255 1 228 255 62 255 255 255 154 255 255 185 255 255 138 255 137 41 191 146 18 127 225 103 127 255 213 137 232 255 72 176 255 255 255 191 255 255 180 255 255 157 255 255 132 255 255 120 255 255 122 255 255 132 193 255 126 45 255 145 132 230 210 247 236 255 255 217 255 237 155 255 159 75 255 93 75 255 127 75 255 231 75 255 210 90 255 253 75 255 255 56 255 255 1 200 255 115 245 255 162 234 172 118 212 42 69 186 5 67 0 37 255 0 218 255 59 255 255 161 255 255 187 255 100 157 126 107 255 199 74 255 129 75 255 28 75 255 28 75 255 40 38 255 92 0 209 23 0 127 0 0 190 24 9 255 167 75 255 247 12 255 122 0 210 73 0 142 134 0 121 173 34 255 255 75 255 247 97 255 173 146 159 153 148 0 0 178 0 0 178 0 0 178 0 0 138 0 0 86 181 0 109 255 28 75 255 28 31 255 0 46 255 9 68 255 178 75 255 255 32 255 255 0 205 255 0 70 248 0 146 255 0 155 255 170 254 255 
255 220 239 255 226 117 248 120 0 242 15 0 178 0 0 255 27 0 255 64 53 255 99 125 255 67 112 202 0 0 178 0 7 178 0 8 255 25 8 255 43 30 255 134 255 255 160 255 83 38 241 84 181 255 0 229 177 110 255 239 145 255 255 210 255 255 236 216 255 224 95 255 251 122 255 235 187 255 165 255 255 75 255 255 45 255 255 0 192 255 0 64 146 0 69 113 0 76 67 106 157 156 255 194 255 255 129 255 255 120 255 255 120 255 255 127 255 255 97 255 253 0 255 202 0 249 178 0 225 255 0 255 255 120 255 255 120 255 255 67 255 255 135 255 203 159 255 219 229 255 107 255 255 0 192 255 0 110 255 0 150 255 0 209 255 52 255 255 120 255 255 125 219 255 217 171 255 255 157 255 255 169 255 255 184 255 238 219 255 99 255 255 26 253 255 0 169 255 0 66 255 0 0 225 0 0 231 94 25 216 255 144 255 255 151 255 255 152 255 255 149 255 216 0 7 178 0 0 178 0 0 178 0 0 54 14 13 48 150 200 23 255 255 75 255 255 145 255 255 166 255 255 182 248 255 180 250 255 115 96 234 255 140 219 255 126 175 255 208 255 233 244 255 162 255 255 97 235 255 0 108 255 0 47 225 0 65 255 123 145 255 255 193 255 255 180 255 255 203 255 255 244 255 255 223 255 225 234 255 0 15 232 86 0 225 102 0 225 128 0 225 208 0 255 255 170 255 255 196 255 255 104 255 158 33 76 44 0 0 116 48 0 190 114 0 177 109 0 235 114 0 158 8 0 131 78 0 249 168 163 178 74 147 213 49 186 178 0 97 178 0 115 178 0 109 243 24 115 251 80 4 255 164 82 255 36 95 240 0 152 213 0 132 178 0 155 178 0 225 255 0 255 255 100 255 255 120 255 255 136 255 255 80 255 255 120 255 255 130 255 255 133 255 255 120 255 255 120 255 255 149 255 255 162 255 255 186 255 255 188 255 255 127 255 87 0 0 145 36 0 255 156 0 255 208 28 255 201 63 255 202 159 255 146 199 169 63 151 170 86 194 204 120 230 255 222 255 255 232 255 237 203 255 221 244 255 226 254 255 171 213 255 100 175 255 19 237 255 74 229 255 255 194 255 255 134 255 255 120 255 255 120 255 255 132 255 255 136 255 255 75 255 197 15 255 177 116 255 255 163 255 255 131 255 255 124 255 255 120 255 255 67 255 152 76 255 44 70 255 0 31 236 0 47 225 0 47 225 0 47 225 0 98 255 0 135 255 35 255 255 14 252 255 75 255 255 120 255 255 166 255 255 83 122 0 59 37 0 191 157 0 255 255 28 243 255 28 253 255 143 255 201 173 255 173 207 255 156 255 255 123 255 255 115 255 255 147 255 255 169 226 255 136 163 180 141 194 164 121 197 159 140 217 222 224 255 64 49 154 37 4 229 37 0 233 51 0 246 38 0 237 36 0 225 131 0 239 255 0 255 255 0 255 255 97 255 255 140 255 255 149 255 255 131 255 255 122 255 255 142 255 255 120 255 255 138 255 255 117 255 199 73 255 204 12 255 255 0 255 255 0 255 255 0 255 255 0 255 255 59 255 255 91 255 255 132 255 255 108 255 255 0 234 201 0 74 176 0 69 178 0 113 178 0 170 208 0 255 255 0 255 255 3 255 255 33 255 255 18 255 255 50 255 255 120 255 255 120 255 255 120 255 255 120 255 255 0 255 255 0 255 255 28 255 255 129 255 255 120 255 255 120 255 255 75 255 138 1 255 118 0 255 255 4 224 255 74 255 255 101 255 255 59 161 255 44 42 255 137 62 255 185 145 255 171 216 255 161 255 255 112 228 255 125 207 255 147 146 255 166 246 255 147 255 255 157 255 255 220 255 183 255 255 109 255 255 75 255 255 0 104 255 0 47 225 0 47 225 0 0 225 19 0 225 149 2 255 255 92 255 255 94 255 255 9 255 255 0 255 255 25 255 255 95 255 255 42 255 255 0 255 255 80 255 255 60 255 255 95 255 255 0 255 219 0 255 203 0 227 194 0 143 200 0 60 249 0 47 255 0 240 200 0 241 184 0 184 178 0 225 178 0 225 255 108 255 255 184 255 184 247 255 75 255 255 75 255 255 75 255 255 85 255 255 156 255 255 255 209 255 
255 220 239 255 238 129 255 237 54 255 206 35 255 198 77 255 185 146 255 164 153 255 47 73 255 10 55 255 71 125 255 17 117 252 0 82 207 0 0 191 0 0 255 0 137 255 203 255 255 218 255 175 255 255 85 255 255 45 255 174 145 255 255 210 255 255 255 237 255 255 189 255 255 182 255 255 209 255 165 255 255 75 255 255 75 255 255 75 255 255 75 255 255 75 255 255 142 255 255 219 255 255 255 194 255 255 129 255 255 120 255 255 120 255 255 130 255 255 130 255 255 120 255 255 72 255 255 57 255 255 0 255 236 0 255 240 0 255 255 0 255 255 131 255 255 211 255 219 229 255 126 255 255 75 255 255 75 255 255 48 255 255 52 255 255 75 255 255 120 255 255 163 255 255 255 210 255 255 174 255 255 169 255 224 100 255 106 87 255 0 169 255 0 156 255 0 201 255 91 206 255 199 233 255 229 224 255 255 212 255 255 144 255 255 151 255 255 152 255 255 149 255 255 160 214 255 179 90 255 178 142 255 154 192 255 224 223 151 253 255 63 255 255 45 255 255 145 255 255 89 179 255 67 133 255 42 112 255 138 119 255 255 141 220 255 69 118 201 65 113 0 0 111 0 9 191 0 17 225 0 38 225 0 191 255 122 255 255 211 233 255 255 193 255 255 180 255 255 203 255 255 244 255 255 223 255 225 234 255 189 247 255 255 155 255 255 152 255 255 142 255 255 141 255 255 141 255 185 97 255 229 1 214 148 23 66 102 58 0 71 3 0 79 3 0 74 6 0 197 76 0 255 194 0 255 255 88 255 231 226 255 215 255 255 190 255 255 145 255 255 0 202 178 0 109 143 0 15 128 0 0 255 73 0 255 64 123 255 0 198 178 0 97 178 0 155 178 0 225 178 0 225 178 0 225 255 0 255 255 110 255 255 103 255 255 0 255 210 0 207 233 0 214 255 1 255 255 0 255 255 135 255 255 116 255 255 127 255 190 65 255 71 0 132 193 93 81 254 145 4 255 109 0 255 56 0 178 0 0 240 49 6 237 108 161 255 180 255 255 217 255 255 217 255 255 222 255 255 232 255 255 222 255 70 93 112 27 55 133 64 106 232 31 106 255 0 202 255 82 237 255 255 194 255 255 134 255 255 54 255 255 3 255 255 15 255 255 103 255 255 158 255 255 164 255 255 205 255 255 163 255 255 105 255 255 124 255 255 120 255 255 132 255 255 200 255 208 234 255 128 255 255 75 255 255 75 255 255 75 255 255 75 255 255 0 215 255 0 47 225 0 58 168 0 63 145 0 53 79 0 38 31 0 38 0 191 169 0 251 217 0 255 255 25 123 184 0 46 70 0 159 0 0 245 0 19 255 136 255 255 151 255 255 148 255 255 86 255 178 0 0 140 0 0 136 97 150 255 233 255 255 240 255 201 203 255 97 82 187 89 56 255 205 117 255 255 195 255 255 197 255 255 192 255 255 119 255 231 0 255 178 0 159 225 0 167 255 145 255 255 149 255 255 42 255 183 0 219 135 0 225 190 0 237 196 0 255 255 88 255 214 88 255 255 107 255 255 9 255 187 0 234 178 0 225 178 0 225 117 0 225 112 0 232 192 0 255 255 0 255 209 0 155 181 0 54 176 0 69 178 0 113 178 0 170 203 0 250 255 53 255 255 98 255 255 113 255 255 47 255 227 0 183 178 0 225 178 0 225 178 0 225 255 0 255 255 120 255 255 120 255 255 121 255 255 52 255 255 0 255 255 39 255 255 142 255 255 179 255 255 167 255 255 114 255 253 0 255 158 0 200 205 0 84 255 104 102 255 190 115 255 185 145 255 171 216 255 161 255 255 160 255 255 135 217 255 139 138 255 166 246 255 147 255 255 162 255 255 207 255 105 193 255 11 187 255 0 174 255 0 173 255 29 255 255 0 212 255 89 155 255 238 165 255 255 121 255 255 91 255 235 11 217 173 0 197 255 0 255 255 99 255 255 135 255 255 17 255 255 0 255 255 68 255 255 23 255 255 0 255 233 0 255 255 0 255 255 38 255 255 93 255 255 152 255 255 138 201 255 131 255 255 121 255 255 129 255 255 120 255 255 120 255 255 103 255 89 0 255 0 0 225 0 97 255 0 174 255 42 255 255 81 255 255 151 255 255 255 209 255 
255 142 0 255 164 7 117 52 36 56 0 23 0 26 0 0 5 0 24 0 197 170 0 255 210 0 255 255 2 255 255 120 255 255 120 255 255 120 255 255 120 255 255 120 255 255 120 255 255 47 255 255 0 255 255 59 255 255 193 255 217 255 255 149 255 255 114 255 255 81 255 255 9 185 255 0 164 255 113 255 255 183 221 209 255 253 146 255 246 145 255 216 216 226 255 192 148 255 169 85 255 118 0 157 60 0 0 209 43 68 244 81 173 162 117 255 255 97 255 187 71 255 255 75 255 255 75 255 255 75 255 228 36 255 166 0 161 0 0 80 49 142 147 255 255 234 251 255 206 255 255 197 255 255 157 255 255 135 255 255 84 255 255 0 240 255 0 233 255 8 255 255 121 255 255 175 219 219 220 255 255 63 255 193 46 255 70 60 255 112 73 246 97 92 170 62 174 198 51 195 94 0 76 63 13 101 255 119 100 255 226 118 255 255 147 255 255 117 255 255 120 255 255 120 255 255 86 255 255 18 223 198 0 80 178 0 86 255 28 255 255 120 255 255 144 255 255 197 255 255 228 255 164 223 233 137 255 237 75 255 223 154 255 111 238 255 178 219 255 242 105 205 253 97 230 255 82 255 255 76 255 255 75 255 230 75 255 255 40 255 255 9 255 255 17 255 255 63 255 255 75 255 255 17 244 255 39 244 255 0 157 134 0 81 199 21 46 223 29 0 54 186 50 146 226 2 226 255 0 255 255 51 255 255 68 255 255 148 255 255 142 255 255 144 255 255 148 243 255 41 11 208 0 0 221 76 0 124 255 93 149 255 61 100 255 28 97 255 28 82 255 100 155 255 230 255 195 255 255 92 255 255 126 255 255 181 255 253 212 255 255 200 255 255 187 255 255 172 255 251 168 210 164 92 187 255 131 254 255 142 255 255 199 180 255 240 60 255 255 28 140 230 0 151 184 0 158 221 0 205 255 28 255 252 28 255 253 28 239 255 173 191 255 239 128 255 255 106 255 255 23 255 247 50 255 255 0 243 255 0 219 134 0 162 0 0 155 0 0 243 5 0 255 198 0 242 255 68 181 255 134 61 255 250 0 225 255 95 255 255 120 255 255 196 255 255 224 255 255 220 255 222 247 255 145 255 255 149 255 255 113 207 255 76 195 255 0 177 255 0 227 255 16 255 255 0 255 205 63 255 83 73 255 26 75 255 0 133 211 0 134 107 42 147 60 101 255 20 161 255 1 255 230 0 255 237 0 255 255 54 255 255 135 255 255 140 255 255 129 255 255 136 255 255 113 255 255 38 255 255 0 227 255 0 255 237 0 214 167 0 101 212 32 171 249 135 149 255 232 207 224 255 246 242 255 255 237 176 197 255 62 152 255 26 255 255 22 255 255 74 255 255 85 255 255 93 255 255 124 255 242 82 255 255 94 255 255 46 255 255 12 255 255 86 255 255 43 255 255 111 255 255 130 255 255 103 255 201 86 168 255 37 236 255 51 133 255 165 133 255 171 154 255 156 172 255 149 255 255 123 214 255 106 0 174 150 0 255 205 8 255 223 97 255 195 150 255 219 45 255 160 0 255 156 0 255 145 41 255 143 159 255 138 195 255 171 100 255 81 76 255 57 163 226 90 248 114 75 255 175 140 255 255 165 255 255 161 255 255 171 255 226 225 255 198 232 255 101 53 223 11 0 18 0 43 0 0 221 0 67 255 115 75 255 129 75 255 216 75 255 255 75 255 255 75 255 255 75 255 255 75 255 255 64 255 255 158 225 255 255 228 191 255 255 76 255 255 28 255 255 28 255 125 30 255 53 75 255 25 59 255 54 115 255 37 181 255 1 151 196 0 37 200 0 50 255 113 167 255 173 207 255 171 217 255 177 185 255 172 212 255 160 255 255 165 249 255 48 121 178 0 0 178 0 0 178 0 51 255 0 200 255 36 245 255 18 247 197 0 206 178 0 210 255 25 255 255 126 255 255 182 255 255 183 255 255 20 255 197 5 255 133 0 255 255 0 255 255 120 255 255 120 255 255 137 255 255 145 255 255 166 255 255 168 255 255 178 255 255 210 255 255 213 255 242 217 255 240 205 255 107 4 255 32 0 225 8 0 225 61 0 246 113 0 246 240 22 105 255 84 0 255 222 42 255 241 246 222 245 255 
252 90 0 164 56 0 47 0 0 92 2 59 112 183 135 250 255 239 255 211 255 255 152 255 255 120 255 255 110 255 255 65 255 255 77 255 255 0 255 178 0 225 178 0 225 178 0 225 178 0 225 178 0 207 178 0 150 87 0 170 0 27 107 0 69 137 0 38 168 0 59 150 17 193 255 0 192 255 145 255 255 213 251 239 255 253 146 255 246 145 255 216 216 226 255 192 148 255 169 117 255 150 131 255 226 201 209 255 215 240 255 118 210 199 0 172 104 0 111 0 0 97 156 0 177 255 67 255 255 75 255 228 75 255 205 75 255 162 161 255 255 232 237 255 255 234 251 255 206 255 255 190 255 255 142 255 255 135 255 255 139 255 255 134 255 255 140 255 255 120 255 255 154 255 255 200 244 245 246 255 255 158 255 255 147 255 232 222 255 255 223 255 167 162 240 0 103 127 0 66 0 21 111 98 109 197 255 222 203 255 223 115 255 164 0 255 175 0 225 234 0 255 255 15 255 255 59 255 255 29 234 178 0 60 178 0 86 185 0 232 255 0 255 194 0 255 142 34 255 148 99 205 123 182 192 54 214 154 0 141 12 0 79 0 0 23 0 85 141 108 174 255 255 152 255 255 103 255 255 6 255 245 0 96 0 0 69 111 0 60 161 0 75 83 0 129 135 0 201 255 75 255 255 75 255 255 93 255 255 106 255 255 141 255 255 157 182 255 154 99 179 131 0 91 207 0 207 255 70 255 255 120 255 255 139 255 255 148 255 255 142 255 255 133 255 255 70 165 221 0 0 180 0 0 110 0 0 0 69 0 0 91 0 0 122 0 0 123 0 0 175 0 30 185 105 184 94 255 255 153 255 255 87 255 191 59 255 0 0 225 21 0 225 134 20 255 223 88 255 255 217 255 107 35 130 157 17 140 255 36 177 210 17 0 225 107 0 89 67 0 0 59 0 58 91 0 92 155 0 153 255 0 255 248 24 255 189 0 80 119 14 0 37 0 0 159 169 0 113 132 0 145 112 0 76 76 0 72 97 0 91 6 0 229 24 75 255 99 75 255 132 46 255 252 38 255 255 60 173 255 229 156 255 255 97 255 255 108 255 255 136 255 255 192 255 255 224 255 248 202 255 222 247 255 130 252 255 133 248 255 163 255 255 147 255 255 100 255 255 75 255 255 37 255 255 0 226 175 0 122 0 0 135 0 0 178 0 150 228 0 255 254 189 255 224 255 255 106 247 255 59 255 255 79 255 255 132 255 255 123 255 255 138 255 255 140 255 255 45 255 255 0 237 255 0 226 250 0 235 255 0 243 255 0 255 253 0 230 252 0 186 255 176 255 255 219 233 255 232 207 224 255 246 243 255 255 255 209 230 255 173 255 255 69 255 255 44 255 255 0 255 232 0 255 255 0 255 255 96 255 255 96 255 255 35 255 255 28 255 248 0 255 255 0 255 255 0 255 185 0 232 178 0 173 178 0 76 116 1 83 255 0 189 255 0 81 178 0 0 178 0 0 178 0 0 255 12 128 255 10 101 161 0 0 40 16 0 140 82 0 255 223 97 255 195 150 255 219 45 255 208 28 255 208 28 255 195 91 255 58 74 189 0 0 130 0 0 172 0 0 255 21 127 246 110 255 240 201 255 255 222 255 255 189 255 255 161 255 255 171 255 201 200 255 108 142 255 183 135 255 255 248 255 186 255 228 75 255 146 75 255 123 75 255 129 75 255 216 7 255 254 12 252 255 0 197 255 0 196 255 11 238 255 0 130 255 0 56 97 77 0 0 151 95 0 216 222 0 255 255 28 255 211 116 255 176 198 255 173 207 255 169 230 255 155 255 255 154 255 255 153 255 255 76 201 224 0 15 178 0 0 178 0 0 255 53 61 255 131 171 255 160 255 255 142 226 255 91 164 255 29 118 195 0 0 178 0 51 178 0 115 186 0 107 255 14 243 255 92 255 255 108 255 233 0 255 115 0 255 175 46 255 193 67 255 255 61 255 255 87 255 255 118 255 255 123 255 255 120 255 255 116 255 255 0 215 178 0 97 144 0 77 151 0 49 143 0 17 67 0 54 14 0 175 69 44 255 192 157 255 255 153 255 206 113 255 171 115 255 101 0 255 196 13 255 247 29 112 242 70 0 111 40 0 30 0 0 0 0 132 
255 131 255 255 142 255 255 179 255 170 255 255 75 255 255 75 255 255 75 255 136 69 255 32 75 255 28 78 255 28 107 255 136 92 209 116 67 150 118 93 143 244 3 54 217 163 78 255 238 97 188 219 141 57 255 216 102 255 80 160 255 139 251 255 1 255 219 0 255 176 0 255 205 0 252 255 0 255 255 117 255 255 1 255 244 0 255 178 0 225 178 0 171 178 0 70 178 0 0 178 0 0 178 0 0 161 0 0 133 0 0 107 0 0 50 18 0 159 169 0 155 197 0 255 255 28 255 202 41 213 159 119 255 206 172 255 129 118 255 151 216 255 186 255 255 135 255 211 62 255 255 117 178 255 67 0 255 220 107 255 255 125 218 177 21 181 145 0 62 95 0 107 176 0 109 131 0 122 67 94 108 0 213 106 0 253 239 112 255 178 78 255 111 84 213 30 139 106 0 205 0 63 255 10 110 255 28 191 255 28 255 237 5 255 180 0 255 144 0 250 0 0 215 0 0 178 0 0 178 0 0 178 0 0 161 0 0 67 9 0 0 66 0 0 138 0 0 249 0 0 237 0 0 186 0 0 135 0 0 140 0 0 172 109 0 200 255 133 255 255 233 224 255 255 164 255 255 120 255 255 139 255 255 157 255 255 108 255 154 0 232 58 0 152 0 0 141 46 169 255 189 255 255 255 231 255 255 233 255 255 234 255 51 91 227 0 45 128 0 76 99 0 85 31 0 92 0 0 67 133 0 204 237 2 255 199 43 240 174 143 191 104 121 172 57 149 200 85 227 241 0 255 255 28 255 193 0 255 255 28 133 255 28 124 255 10 159 255 12 179 255 25 106 255 10 0 255 0 0 255 0 0 132 113 0 146 138 0 119 255 0 100 255 0 109 255 0 159 255 0 147 186 0 185 0 18 255 255 75 255 255 75 255 255 75 255 255 75 255 255 75 255 255 189 244 255 255 206 255 255 142 255 220 0 255 149 0 198 255 123 121 147 132 0 0 144 0 0 84 0 0 128 0 0 135 0 24 255 0 75 255 28 75 255 45 75 255 90 63 255 16 0 255 0 26 255 0 35 255 0 75 255 28 75 255 28 75 255 28 16 255 0 30 255 0 75 255 28 75 255 28 186 255 28 255 234 28 255 197 84 255 33 43 205 0 0 181 0 0 178 0 0 178 0 0 178 0 0 178 0 0 178 0 0 178 0 0 178 0 0 255 21 10 255 47 96 255 0 89 255 31 153 203 115 201 234 218 215 255 255 106 249 168 0 223 169 108 38 0 135 0 0 161 0 0 209 89 3 255 255 188 255 255 154 255 255 128 255 255 206 185 189 122 0 188 70 0 255 119 0 255 94 36 255 107 136 0 22 50 64 0 101 223 0 255 247 0 255 255 210 255 245 216 255 247 227 255 255 203 255 255 165 255 189 244 255 136 175 255 255 141 255 255 120 255 255 131 255 255 120 255 255 74 255 255 0 255 181 0 228 182 0 255 46 123 255 11 194 255 0 135 255 0 47 225 0 75 79 0 185 147 0 182 133 1 255 246 125 234 255 241 192 255 255 200 255 165 97 255 255 82 255 255 0 255 39 63 255 0 111 255 9 156 255 110 255 255 130 255 255 102 255 255 10 159 255 48 59 255 208 129 255 255 197 255 255 189 255 255 184 255 255 164 255 248 33 255 230 0 255 255 81 255 255 99 255 243 129 255 0 0 225 0 0 225 0 12 225 0 47 225 0 47 225 0 47 225 0 49 217 0 49 217 0 34 92 18 0 26 91 0 86 123 0 122 203 0 234 255 6 255 255 12 255 255 171 255 215 203 117 111 255 50 93 255 28 120 255 28 255 255 28 255 255 28 126 214 0 183 25 51 255 45 180 255 63 194 255 149 255 242 253 255 140 255 255 142 255 246 17 255 170 0 200 22 0 215 199 0 188 205 0 175 212 29 211 255 0 149 255 87 146 255 255 132 255 252 78 255 255 153 255 255 159 255 255 146 255 255 151 255 255 98 255 255 156 255 200 68 255 202 0 255 223 0 255 43 0 225 0 0 225 0 0 225 0 0 225 0 0 225 0 17 226 0 157 255 28 255 255 75 255 255 98 255 176 62 102 0 35 14 0 102 0 0 208 0 0 255 0 72 253 0 239 255 40 255 255 110 255 
136 0 244 135 0 225 61 0 225 0 1 210 0 54 187 0 81 51 0 114 0 0 255 0 0 255 0 0 255 0 0 161 0 0 117 24 101 184 152 98 148 249 0 36 199 39 0 131 88 0 38 64 0 0 84 0 0 143 0 10 255 62 174 255 36 255 255 0 255 255 5 255 190 0 237 178 0 225 202 0 249 255 0 255 255 120 255 255 120 255 255 130 255 255 127 255 228 0 32 178 0 0 178 0 0 161 0 0 133 0 0 107 0 0 108 76 0 63 73 0 47 89 0 23 31 0 63 0 0 42 0 0 89 34 0 185 0 0 243 22 87 141 0 109 221 73 241 255 136 255 255 88 149 237 0 0 123 0 0 42 3 0 182 141 0 255 236 64 255 255 28 236 255 44 188 210 71 146 91 118 65 0 170 53 0 200 68 0 216 111 11 237 111 84 213 0 85 52 0 153 0 0 255 0 58 255 0 181 255 18 255 238 6 255 105 0 255 55 0 178 0 0 178 0 0 178 0 0 255 73 0 255 154 0 255 154 0 164 106 0 0 66 0 0 109 0 0 133 0 0 135 0 0 135 0 0 135 0 0 143 0 0 205 142 0 162 229 0 58 228 67 58 255 230 48 255 255 120 255 255 139 255 255 157 255 255 142 255 255 137 255 193 106 255 218 246 255 117 240 255 109 181 255 221 197 255 139 94 165 255 234 255 211 251 255 131 255 255 83 255 255 75 255 255 0 254 154 0 100 166 0 71 104 0 87 17 0 66 0 154 202 115 232 255 168 232 255 168 255 255 29 255 204 0 208 55 0 9 39 0 0 106 0 0 101 0 0 84 0 0 105 0 33 255 0 0 255 0 0 228 0 0 79 60 0 77 69 0 54 191 0 47 225 0 47 225 0 57 173 0 171 210 62 255 139 52 255 255 0 228 255 0 70 108 0 52 202 0 127 255 0 191 255 93 148 255 255 203 255 255 86 255 255 125 255 255 147 255 255 214 212 255 249 94 0 144 0 0 84 0 0 128 0 0 135 0 0 141 0 0 135 0 0 203 0 0 240 0 0 253 0 33 255 0 75 255 28 75 255 28 75 255 28 75 255 28 0 219 0 0 135 0 0 135 0 0 135 0 0 135 0 0 148 0 132 0 0 178 0 0 178 0 0 178 0 0 225 0 0 255 108 17 255 110 42 255 65 29 219 0 0 178 0 0 255 28 0 255 145 96 255 29 18 255 135 184 255 115 218 255 96 218 255 176 255 29 13 10 43 6 0 77 0 0 44 0 0 14 0 111 0 0 161 0 0 209 28 0 225 85 3 255 255 119 255 255 128 255 255 206 185 255 255 65 255 180 0 255 112 0 255 169 111 255 104 133 93 129 157 138 21 175 249 0 255 255 16 255 116 70 255 138 109 255 128 108 255 199 115 255 255 147 255 189 244 255 200 239 255 255 161 255 255 99 255 255 90 255 255 89 255 255 53 255 255 120 255 255 120 255 255 164 255 175 252 255 104 255 255 72 255 255 0 153 255 0 232 236 0 255 221 0 246 197 51 255 255 113 222 255 255 209 255 217 152 255 66 0 167 103 0 171 172 0 225 0 0 225 0 9 225 0 20 225 0 109 255 54 198 255 119 255 255 127 255 255 218 229 255 255 199 255 255 197 255 255 189 255 255 184 255 255 174 255 255 133 255 255 122 255 255 43 255 255 142 255 255 187 255 227 216 255 184 247 255 144 255 255 75 255 255 75 255 255 75 255 255 75 255 255 75 255 255 152 255 255 255 227 255 255 191 255 255 125 255 255 95 255 255 0 255 178 0 164 145 0 46 18 6 0 0 185 0 89 255 24 120 255 28 255 255 28 255 255 28 218 255 83 255 180 206 255 143 255 255 157 255 255 162 255 242 253 255 140 255 255 104 255 208 38 255 191 75 255 182 75 255 255 75 255 255 93 255 255 13 195 255 37 218 255 151 210 255 255 178 255 255 150 255 255 155 255 255 184 255 255 146 255 255 151 255 255 135 255 255 179 255 255 191 255 255 160 255 255 139 255 255 189 255 238 216 255 160 146 255 107 78 255 190 201 255 0 117 255 0 148 255 0 190 220 3 255 211 141 255 219 239 255 169 255 255 90 255 225 7 255 184 150 255 166 246 255 132 255 255 120 255 255 120 255 
152 0 0 164 74 131 126 126 146 149 236 213 21 109 158 0 20 69 0 57 0 0 88 0 0 52 0 157 46 0 255 108 0 255 199 19 255 208 28 255 208 28 255 208 28 255 208 28 255 115 0 255 64 0 255 174 0 217 229 0 243 249 0 247 172 0 145 18 0 49 74 66 139 183 255 223 201 255 255 184 255 255 167 255 255 189 255 201 238 255 141 255 255 79 255 255 53 255 255 75 255 255 75 255 255 38 255 255 75 255 255 69 255 255 75 255 255 75 255 255 0 209 255 0 136 255 0 51 229 0 47 225 0 206 184 0 255 100 75 255 49 0 255 0 0 254 0 83 223 0 138 76 0 229 4 0 210 0 0 247 22 0 255 166 0 255 171 0 255 136 39 255 70 73 255 48 180 255 122 255 243 128 255 255 141 255 255 7 255 255 120 255 255 120 255 255 120 255 255 120 255 255 122 255 250 94 255 0 51 242 0 91 0 0 89 8 0 97 0 0 192 0 0 255 0 54 255 1 180 255 162 255 176 255 255 175 255 212 160 255 45 93 207 0 0 129 0 19 102 0 77 21 0 237 158 58 255 255 69 255 255 0 211 255 0 48 223 0 26 225 45 108 255 151 182 255 233 222 255 255 204 255 71 122 255 0 125 255 0 81 255 0 47 225 0 70 109 0 65 21 5 0 53 120 0 147 178 0 225 255 0 255 255 179 255 255 232 255 255 228 255 161 255 255 41 255 255 49 255 255 29 255 175 0 147 45 69 139 213 225 226 255 255 173 255 255 140 255 255 125 255 255 120 255 255 120 255 255 78 255 135 34 92 209 0 9 96 0 10 63 0 3 114 0 0 169 0 154 175 0 225 203 0 250 206 0 255 45 40 198 0 17 7 0 48 0 0 139 0 13 255 0 72 255 17 61 255 14 43 255 0 0 246 0 0 113 0 0 103 0 0 156 0 61 255 63 140 255 152 119 255 253 25 255 160 68 0 0 215 0 0 253 1 0 255 33 0 255 133 0 255 74 0 255 61 0 255 119 0 190 146 69 111 125 122 83 102 193 68 92 255 114 219 255 86 255 255 75 255 255 75 255 255 81 255 255 69 233 255 134 255 255 210 234 255 255 182 255 242 60 255 160 115 255 204 254 255 252 239 255 255 175 255 255 165 249 255 140 178 255 43 233 255 0 194 178 0 85 178 0 76 178 0 76 178 0 0 178 0 0 178 0 0 178 0 0 178 0 0 213 107 0 255 255 12 97 255 0 0 241 0 0 117 0 0 83 42 0 19 187 0 0 225 14 0 225 36 0 225 7 0 225 42 23 255 64 0 255 240 44 252 255 125 192 245 179 107 253 255 84 188 207 5 231 173 113 255 140 144 163 164 147 23 219 203 42 219 255 158 242 255 200 255 255 155 255 125 75 255 44 65 255 18 0 255 0 0 255 0 75 255 28 75 255 28 54 255 7 0 147 0 0 80 56 0 70 248 0 86 255 1 228 255 47 179 255 172 37 255 165 0 255 61 0 225 0 0 225 8 0 219 232 111 255 255 145 255 255 196 255 249 217 255 229 236 255 255 240 200 255 214 105 255 59 0 173 0 0 93 0 49 92 0 0 92 0 0 21 13 0 0 29 15 0 40 122 0 71 187 0 149 218 23 250 255 130 171 255 255 148 255 235 52 255 255 94 255 255 70 255 255 24 255 255 33 255 255 74 255 255 195 255 255 197 255 255 192 255 233 187 255 45 140 255 0 99 165 0 51 70 0 37 92 0 8 111 98 107 14 161 108 78 255 89 152 162 36 147 144 118 255 190 244 255 200 239 255 246 195 255 218 125 230 199 173 186 247 227 255 255 234 255 255 193 255 255 138 255 255 68 255 255 0 255 255 0 255 255 23 255 255 120 255 255 120 255 255 126 255 255 97 233 92 64 39 180 124 97 181 30 37 255 208 164 188 194 120 255 144 78 255 101 16 178 0 0 178 0 0 178 0 0 205 0 0 218 0 0 255 103 255 255 43 255 255 38 255 255 83 255 255 0 255 255 78 255 255 106 255 255 132 255 255 97 255 255 57 255 209 3 255 212 192 255 145 255 255 137 255 255 116 255 255 92 255 255 190 203 255 238 219 255 106 80 255 0 0 225 40 0 225 95 0 225 152 0 84 9 0 63 
175 0 0 185 95 152 135 135 155 75 162 139 73 161 210 0 71 120 0 77 0 0 88 0 0 52 0 199 88 0 255 138 0 255 175 0 255 124 0 178 0 0 178 0 0 178 0 0 178 0 0 255 104 0 255 207 16 245 255 0 150 156 0 84 9 0 93 0 0 17 42 34 0 23 106 122 100 255 255 145 255 255 167 255 255 189 255 201 238 255 113 241 255 32 253 255 0 104 255 0 140 255 0 208 255 0 111 255 0 156 255 0 141 255 0 190 255 33 255 255 15 242 255 58 255 255 0 202 255 55 255 255 8 255 246 25 255 151 24 255 0 75 255 38 75 255 28 191 255 28 255 255 28 255 208 28 255 208 28 255 208 28 255 208 28 255 139 0 220 0 0 255 48 51 255 122 254 255 187 255 255 168 255 255 169 255 255 70 255 255 60 255 255 0 255 255 0 255 255 0 255 255 104 255 255 173 255 153 244 255 68 255 248 3 255 191 34 255 182 75 255 122 75 255 28 81 255 28 180 255 162 255 198 255 255 175 255 255 226 255 173 221 255 177 222 255 120 217 255 95 255 255 0 251 172 0 244 222 0 198 234 0 102 207 0 115 255 0 99 255 25 88 255 93 124 255 181 170 255 254 189 255 194 245 255 85 255 255 75 255 255 75 255 255 29 255 255 73 255 232 184 165 232 255 165 255 255 0 255 235 0 255 252 43 159 176 114 147 203 154 255 22 134 255 0 47 225 0 62 147 0 97 0 0 93 0 0 12 86 0 0 234 159 3 255 255 82 255 255 4 255 253 0 255 178 0 225 105 0 198 64 0 21 207 0 7 202 54 116 255 222 255 255 205 210 255 138 255 255 96 255 255 0 255 170 0 255 68 63 221 98 153 143 33 154 45 0 128 0 0 213 0 0 247 0 33 255 0 75 255 28 100 255 47 95 255 161 75 255 192 88 255 118 93 255 95 140 255 152 119 255 253 100 255 235 244 155 101 255 31 0 216 0 0 255 53 14 255 183 44 255 190 0 255 96 0 192 0 0 39 0 0 0 6 3 11 30 121 21 45 253 0 6 225 0 41 225 0 47 225 0 162 255 28 219 255 32 196 255 27 174 255 0 24 255 141 12 255 255 133 255 182 137 255 136 186 255 77 64 166 200 0 100 255 99 183 255 145 183 255 137 255 255 147 255 255 147 255 255 149 255 255 149 255 255 74 120 255 28 0 255 101 0 255 201 21 255 183 3 255 248 28 255 255 28 86 244 0 8 255 0 0 255 7 48 255 255 141 255 255 170 204 255 141 76 255 110 11 255 113 58 255 138 119 255 131 47 255 245 49 255 217 48 115 230 164 92 231 255 62 201 220 18 255 237 177 255 169 173 255 255 240 119 255 255 110 255 255 187 255 255 46 126 113 0 164 0 0 247 0 0 237 0 75 255 28 0 255 0 0 255 0 36 255 0 0 255 0 27 255 130 0 228 204 0 175 255 0 191 255 0 167 255 0 83 255 129 0 255 255 93 255 255 179 255 255 211 255 215 160 255 211 90 255 255 16 247 244 129 255 249 217 255 229 236 255 250 186 146 201 67 0 200 0 0 173 0 0 100 0 56 241 118 63 255 204 16 206 198 59 68 162 148 0 131 213 22 255 255 75 255 255 9 236 255 8 49 255 47 0 225 92 0 225 214 0 255 255 106 255 255 120 255 255 120 255 255 83 255 206 96 255 100 16 255 198 98 255 193 147 255 38 133 255 0 59 125 0 51 70 0 37 92 0 8 111 9 18 0 49 0 0 119 0 1 120 0 105 212 186 255 190 244 255 200 239 255 255 219 255 255 196 255 249 223 236 165 145 255 255 234 255 255 145 255 255 138 255 255 69 255 252 0 255 220 0 255 218 0 255 255 44 255 255 80 255 255 0 255 123 0 87 22 0 0 42 0 0 175 24 31 155 102 58 234 240 166 255 196 130 255 121 36 255 61 0 186 0 0 255 151 0 255 208 28 255 187 136 255 154 255 255 133 255 255 120 255 255 98 255 255 0 255 178 0 225 178 0 225 154 0 225 178 0 225 255 24 255 255 156 255 239 219 255 145 255 255 117 255 255 0 130 255 0 196 255 145 158 255 133 114 255 188 162 255 162 133 255 251 146 255 255 127 255 255 165 255 255 237 255 
255 138 255 255 120 255 255 120 255 255 120 255 255 115 255 246 0 255 178 0 225 178 0 225 247 0 255 255 0 255 255 0 255 255 49 72 255 76 0 255 172 0 255 216 15 255 220 79 255 105 231 180 129 160 0 91 24 129 255 255 60 179 255 0 145 255 0 206 255 0 210 255 75 255 255 92 255 255 142 181 255 186 75 255 161 0 255 92 0 255 64 80 255 151 217 255 126 137 255 142 181 255 137 102 255 229 143 255 255 198 255 255 184 255 255 123 255 203 0 255 47 0 225 25 74 255 0 171 255 75 255 255 75 255 255 75 255 255 75 255 255 29 255 255 0 97 201 0 77 143 0 214 225 119 255 244 100 255 203 65 255 215 38 255 0 49 255 0 75 255 28 75 255 77 75 255 180 43 255 250 135 220 253 231 213 255 255 214 255 255 180 255 255 157 255 255 156 255 237 69 255 100 35 227 3 84 241 0 0 191 16 0 173 0 0 85 53 0 0 255 158 70 255 152 112 255 209 42 255 170 0 102 26 0 120 68 0 142 169 0 103 222 0 11 246 0 0 93 0 115 1 0 255 89 182 255 121 255 255 175 255 255 203 255 123 188 220 99 255 71 0 235 0 0 160 140 52 177 131 15 89 65 118 170 196 136 148 255 205 68 255 255 12 255 141 0 74 74 23 0 24 8 0 28 0 33 95 57 216 74 122 242 75 255 255 75 255 255 75 255 255 152 255 255 145 255 255 111 255 255 97 255 255 91 255 255 75 255 228 19 255 96 12 255 0 75 255 28 75 255 116 75 255 228 75 255 242 122 255 248 75 227 255 130 255 255 182 255 255 102 143 185 121 255 171 112 255 196 131 255 255 134 255 255 180 209 255 255 172 255 255 148 255 255 33 219 198 0 174 192 0 239 255 19 255 255 122 255 255 135 255 255 120 255 255 54 255 255 63 255 255 130 255 255 147 255 255 152 255 255 60 255 214 30 255 57 16 255 45 56 255 58 107 255 116 124 255 181 142 255 240 45 255 255 26 255 255 33 255 255 0 150 178 0 70 178 0 203 178 0 225 233 0 255 255 0 255 255 71 255 255 59 255 255 124 255 255 170 221 255 191 113 255 148 0 255 94 0 208 0 0 201 0 0 255 24 78 255 0 252 193 0 240 178 0 225 178 0 225 158 0 225 255 56 255 255 124 255 255 122 255 255 144 255 255 137 255 255 120 255 255 86 255 255 120 255 255 137 255 255 102 169 255 98 0 255 39 0 255 70 220 255 70 255 255 120 255 255 137 255 255 168 255 226 225 255 60 255 255 0 177 255 22 245 255 89 196 255 105 154 255 154 255 255 134 255 255 30 205 255 0 118 116 0 77 69 0 81 51 0 104 0 0 114 0 0 109 0 0 151 39 0 188 205 54 184 255 0 3 236 88 0 255 167 0 255 219 101 255 255 113 255 255 114 255 255 120 255 255 61 255 227 80 255 255 71 255 255 120 255 255 134 255 255 199 255 255 194 255 224 227 255 226 225 255 236 220 255 95 255 255 0 202 164 0 147 0 0 100 0 0 187 0 41 205 0 53 231 0 140 255 67 169 125 102 198 0 236 178 0 225 178 0 225 178 0 225 255 0 255 255 122 255 255 147 255 255 161 255 255 80 110 135 178 196 58 149 252 246 236 255 255 192 255 255 103 220 220 55 255 101 0 158 120 0 136 157 0 139 254 0 255 178 69 255 152 0 255 183 0 226 178 0 145 178 0 106 164 0 91 255 141 255 253 228 255 169 255 255 75 255 255 49 255 250 37 244 186 75 213 255 191 243 255 255 197 255 255 199 255 255 221 255 249 249 255 170 233 255 100 170 171 87 255 42 86 255 28 75 255 113 75 255 192 75 255 201 122 255 159 152 255 255 56 167 255 24 128 255 0 7 109 0 0 70 0 0 70 0 10 85 47 19 118 209 44 184 255 171 255 224 99 203 93 16 120 0 41 102 0 34 90 0 63 116 0 137 37 0 198 79 0 187 170 75 255 255 75 255 244 75 255 217 75 255 192 75 255 201 0 192 126 0 88 0 0 24 38 14 0 90 51 0 70 77 3 100 121 0 86 209 0 15 185 0 0 255 161 0 255 208 28 255 208 28 255 157 0 255 208 28 255 243 28 228 255 28 1 255 0 
255 142 255 255 0 255 255 13 255 255 67 255 255 29 255 242 0 255 178 0 225 178 0 225 182 0 229 255 0 255 255 17 255 255 121 144 255 183 3 255 208 28 255 229 28 255 220 79 255 187 255 255 236 255 112 221 154 96 224 239 136 255 255 123 255 255 75 255 255 75 255 255 10 237 255 0 92 255 0 34 255 255 188 255 255 168 255 255 185 255 215 231 255 182 248 255 218 229 255 200 239 255 249 214 255 100 14 255 71 0 196 211 69 255 255 86 255 255 52 255 80 0 255 50 99 255 63 255 255 75 255 255 75 255 255 75 255 255 75 255 255 75 255 255 75 255 255 75 255 255 81 255 255 119 255 244 59 255 162 7 255 157 23 255 0 96 255 28 75 255 28 75 255 77 75 255 180 51 255 255 156 241 255 253 235 255 198 150 255 255 119 255 255 94 255 255 128 255 208 40 255 50 0 177 0 6 163 0 0 191 16 0 173 0 0 85 53 0 0 238 89 1 255 152 112 255 149 0 255 167 0 184 108 0 239 187 0 162 189 0 86 205 0 0 156 0 89 238 0 255 229 152 255 154 247 255 176 255 255 190 255 255 215 255 205 255 255 137 255 109 6 255 57 0 123 103 0 42 0 0 24 0 0 12 38 0 0 147 120 0 255 244 0 255 245 65 178 148 97 40 132 116 91 80 51 85 102 64 223 131 179 255 75 255 255 75 255 255 75 255 255 51 162 255 67 189 255 34 207 255 80 255 255 97 255 255 75 255 228 75 255 152 75 255 28 0 255 0 0 154 0 0 96 0 0 93 0 0 63 1 0 37 109 0 36 141 0 50 189 221 255 255 128 255 178 128 255 212 131 255 255 134 255 255 219 248 255 255 187 255 255 186 255 255 154 255 255 134 255 255 120 255 255 120 255 255 122 255 255 135 255 255 93 255 255 0 255 178 0 196 178 0 63 178 0 85 255 71 255 255 142 255 255 170 255 253 212 255 218 229 255 193 242 255 232 240 255 255 225 255 255 167 255 255 104 255 255 109 255 255 151 255 255 150 255 255 124 255 255 0 255 255 15 255 255 0 255 255 0 228 255 121 255 255 146 255 255 170 221 255 191 113 255 112 0 193 0 0 255 31 0 255 86 0 255 170 224 255 36 255 248 0 255 195 0 242 178 0 225 255 20 255 255 139 255 255 124 255 255 118 255 255 91 255 211 0 255 178 0 225 178 0 225 199 0 246 226 0 184 255 37 104 255 97 0 255 74 6 255 0 140 207 0 213 178 0 225 255 30 255 236 65 255 226 225 255 49 255 255 0 210 255 86 255 255 129 236 255 174 223 255 154 255 255 137 255 255 124 255 255 75 255 255 75 255 255 62 255 255 75 255 244 75 255 136 75 255 159 75 255 237 102 255 255 80 210 255 106 169 255 250 120 255 255 141 255 255 153 255 181 0 255 255 0 255 255 0 255 255 26 255 255 154 255 255 124 255 255 120 255 255 134 255 239 160 255 255 176 255 181 184 255 226 225 255 227 211 255 83 255 255 75 255 255 75 255 198 75 255 208 117 255 118 175 255 28 166 255 28 161 255 88 192 148 125 255 97 255 255 0 255 255 0 255 255 24 255 255 0 255 255 17 255 212 0 122 245 0 81 255 96 126 182 225 243 178 255 255 63 53 188 99 0 62 119 0 47 89 0 155 100 0 157 129 0 145 157 0 139 164 0 183 89 0 255 245 71 255 255 112 255 255 63 255 255 1 219 152 0 79 79 0 129 90 65 231 39 141 255 38 255 255 64 255 255 116 255 255 152 255 255 191 243 255 255 197 255 255 199 255 247 150 189 97 97 147 0 12 65 0 20 21 0 80 0 0 216 0 32 255 70 74 255 191 75 255 201 92 255 129 152 255 255 165 255 255 105 209 255 97 162 255 61 86 157 107 115 192 155 219 255 188 160 255 255 189 255 255 206 255 236 111 215 139 62 166 0 9 70 0 61 117 0 166 219 0 255 162 0 210 91 0 165 148 0 140 74 0 228 124 40 255 182 75 255 192 75 255 201 75 255 255 99 255 205 107 195 209 206 167 255 255 214 255 255 221 255 255 188 255 255 168 237 255 186 139 255 208 28 255 208 28 255 208 28 255 208 28 255 190 10 255 230 15 228 255 28 92 255 28 
255 174 219 255 199 212 255 90 114 237 0 33 230 0 40 236 12 73 157 167 172 163 255 255 28 229 227 141 255 255 168 255 255 208 234 255 255 177 255 255 120 255 255 71 255 255 46 255 255 52 255 255 74 255 255 102 255 248 77 255 0 0 238 0 47 225 0 52 202 0 80 179 0 108 215 0 47 225 0 22 225 0 0 212 0 0 225 0 0 225 94 15 255 148 0 255 198 14 248 95 50 183 118 30 255 255 113 255 255 159 255 255 148 255 255 142 255 255 130 255 255 38 255 255 2 255 255 115 255 255 100 255 255 136 245 255 151 255 255 130 255 255 125 255 255 127 186 255 101 50 255 25 95 236 0 173 178 0 88 178 0 40 178 0 0 178 0 0 72 0 0 114 207 0 255 255 28 255 208 28 255 204 45 255 184 150 255 212 144 255 252 226 255 151 255 255 120 255 255 167 255 185 166 255 157 170 255 176 105 255 255 28 255 255 0 255 251 0 255 255 43 255 255 30 255 255 21 255 255 112 255 255 70 255 255 21 198 206 0 180 218 0 255 255 0 255 255 123 255 255 155 255 255 173 207 255 209 155 255 153 138 255 189 123 255 175 198 255 161 255 255 156 255 255 120 255 255 9 255 255 42 255 255 114 255 255 76 255 255 116 255 255 33 255 199 0 145 145 0 5 167 0 17 255 92 75 255 219 63 255 224 28 255 249 28 255 255 19 255 255 28 95 206 0 101 255 0 91 255 0 16 200 0 27 247 75 9 255 236 0 236 182 0 253 180 45 255 228 75 255 210 44 255 108 5 255 0 0 177 0 0 135 0 0 53 0 178 0 0 178 0 0 233 0 19 230 114 211 255 197 255 255 191 255 195 163 255 0 178 118 0 80 0 0 16 0 121 0 0 178 0 7 255 0 255 255 31 255 255 16 255 255 0 255 178 0 225 255 0 255 255 89 255 205 236 255 104 255 255 97 255 255 75 255 255 22 198 255 0 59 168 0 118 66 180 10 61 222 0 235 255 48 255 255 156 255 255 172 214 255 183 157 255 159 255 255 120 255 157 81 175 137 35 73 139 0 24 128 0 74 218 150 255 95 197 255 143 179 255 255 115 255 255 38 255 229 123 255 204 253 255 186 255 255 175 255 255 203 252 255 197 255 255 105 255 255 164 233 255 255 145 192 255 92 69 255 53 0 255 146 0 255 153 0 255 187 7 255 136 0 183 71 0 183 77 0 255 50 0 255 132 0 255 186 6 255 202 22 255 121 0 252 0 0 209 0 36 255 55 194 255 141 255 255 120 255 255 120 255 255 114 255 255 0 255 178 0 180 178 0 90 255 31 111 255 94 85 255 134 0 255 155 0 255 150 0 255 255 28 255 255 28 255 204 20 255 165 12 255 239 28 226 255 37 166 255 100 253 255 136 255 233 184 255 198 226 255 241 255 144 242 255 79 228 255 159 255 255 155 228 255 173 252 255 74 244 255 95 202 255 23 26 255 22 0 225 190 13 116 253 0 43 255 0 22 255 23 0 181 84 0 255 183 84 255 97 244 255 69 255 255 3 255 255 4 255 255 140 255 255 155 255 255 188 103 255 139 0 255 124 0 251 175 0 255 255 28 255 208 28 255 208 28 255 149 255 255 124 255 255 151 255 199 77 255 77 0 225 61 0 225 95 0 225 178 0 225 217 0 226 255 0 255 254 0 217 252 0 59 241 0 0 255 5 20 224 0 28 178 0 147 178 0 225 178 0 225 107 0 216 36 0 149 33 74 78 0 80 137 0 121 129 0 133 0 0 232 62 35 255 255 174 196 255 16 29 231 0 0 152 0 0 99 43 0 189 0 0 217 0 20 116 0 104 0 0 253 106 108 142 168 60 49 114 73 178 27 102 149 0 229 136 0 255 224 100 255 236 56 235 243 0 87 192 0 21 33 0 126 82 0 191 133 0 255 255 16 253 255 8 170 250 0 94 168 0 18 90 0 55 218 0 44 255 14 124 255 146 170 255 140 215 165 100 255 163 216 255 122 252 255 117 255 255 17 142 255 35 154 255 135 196 255 220 136 255 231 116 255 225 148 255 227 169 237 37 59 227 0 169 198 0 245 255 0 255 171 0 249 109 0 249 32 0 225 0 0 225 0 126 255 0 198 204 3 222 255 198 238 255 
192 0 0 255 98 111 255 139 163 255 135 178 255 168 240 255 128 189 229 239 244 0 117 139 0 60 58 0 31 134 0 0 223 0 0 225 65 0 225 178 0 225 178 0 225 178 0 225 214 0 255 255 0 255 255 0 255 184 13 255 16 65 255 0 178 255 15 247 255 51 255 255 0 223 255 0 59 237 0 22 225 33 15 255 31 0 255 0 0 242 23 0 225 82 0 225 102 0 152 16 0 104 33 0 193 255 101 255 255 159 255 255 148 255 255 82 255 204 0 199 192 0 223 255 0 255 255 55 255 255 54 228 255 14 123 255 118 255 255 140 255 255 136 255 255 169 228 255 187 136 255 167 237 255 141 255 255 147 255 255 149 255 255 77 128 255 110 46 255 253 71 166 255 0 122 130 0 178 0 0 240 11 0 255 102 68 255 236 168 255 252 226 255 151 255 255 120 255 255 172 255 168 149 255 57 70 255 18 0 225 255 0 255 255 0 255 255 53 255 255 140 255 255 94 255 255 18 255 255 106 255 255 95 255 255 122 255 255 134 255 255 116 255 255 123 255 255 144 255 255 112 255 255 173 207 255 172 118 255 181 166 255 189 123 255 175 198 255 161 255 255 156 255 255 79 255 255 119 255 255 118 255 255 138 255 255 127 255 255 120 255 255 38 255 248 0 194 249 28 109 230 6 80 222 23 6 205 26 0 170 0 0 104 2 0 64 11 0 12 37 0 0 66 0 0 83 0 0 96 0 0 106 0 0 127 0 0 242 207 26 255 237 75 255 255 53 255 236 0 152 8 0 223 0 0 255 0 6 255 0 75 255 28 207 255 0 255 112 0 255 51 0 178 0 0 126 10 107 255 134 255 255 191 255 255 231 255 75 255 255 123 255 187 245 255 198 255 198 224 255 162 255 255 124 255 255 59 255 255 120 255 255 120 255 255 120 255 255 125 255 234 4 255 0 0 225 0 37 202 0 102 255 22 249 255 76 252 255 10 154 255 79 238 186 252 82 133 255 44 255 255 131 255 255 30 169 255 18 60 255 85 59 255 159 255 255 120 255 255 221 255 255 220 255 255 158 243 255 78 202 161 93 255 152 254 255 124 160 255 255 97 255 255 77 255 192 86 255 109 158 255 81 153 255 87 170 255 177 226 255 197 255 255 137 255 255 203 255 255 255 206 253 255 192 169 255 203 52 255 208 28 255 127 0 178 0 0 176 0 0 103 0 0 99 0 0 178 0 0 255 122 0 255 208 28 255 208 28 255 208 28 255 63 59 198 0 25 178 0 40 178 0 118 178 0 225 178 0 225 255 0 255 255 29 255 255 129 255 255 146 255 255 166 246 255 97 88 179 0 0 178 0 0 255 116 0 255 241 8 255 255 28 255 240 56 255 204 51 255 239 28 226 255 37 166 255 100 253 255 136 73 0 0 121 0 0 7 0 51 0 41 255 0 96 255 157 255 255 141 214 255 147 226 255 113 255 255 155 255 255 224 227 255 255 199 255 255 190 255 255 170 223 255 174 200 255 184 152 255 251 28 255 209 110 255 142 255 255 86 255 255 99 255 255 132 255 255 140 255 255 155 255 255 192 107 255 208 28 255 208 28 255 255 28 255 255 28 255 84 0 255 75 0 255 70 253 255 29 255 255 91 255 200 78 255 255 118 255 255 140 255 241 53 255 255 72 255 255 80 255 255 107 255 255 51 255 220 0 27 178 0 0 178 0 0 178 0 0 255 0 245 255 120 255 255 120 255 255 158 255 255 223 255 225 255 255 166 255 255 75 255 255 75 255 203 75 255 189 75 255 255 226 248 255 99 112 255 0 38 192 73 71 184 131 29 255 38 7 255 0 8 104 0 101 0 0 134 0 116 150 176 214 203 255 198 255 152 214 255 35 255 197 0 255 140 16 191 78 0 214 222 0 186 255 0 171 183 0 107 63 0 67 9 0 54 16 0 18 34 0 67 147 0 117 191 0 168 240 0 0 84 0 0 93 0 0 100 0 0 130 0 130 80 15 147 26 79 107 0 62 164 0 69 255 0 112 255 90 209 242 0 39 211 64 0 178 56 0 114 0 0 88 0 0 137 0 0 178 0 120 178 0 225 205 0 252 252 0 255 255 105 255 233 140 255 114 147 255 0 73 251 0 75 81 0 56 136 0 20 122 
255 205 44 255 182 161 255 153 180 255 163 255 255 147 247 255 133 175 255 146 255 255 120 255 255 120 255 255 33 255 127 0 233 130 0 255 255 30 255 255 129 255 255 148 255 255 126 255 255 169 226 255 172 34 211 0 0 220 0 0 220 0 0 223 0 76 179 0 0 179 0 0 209 0 233 212 0 255 176 0 255 142 22 255 91 63 247 160 199 255 255 217 255 255 183 192 163 147 0 83 159 0 154 173 0 255 222 29 255 167 247 255 150 255 226 128 251 92 4 130 103 0 69 178 0 127 178 0 225 198 0 222 178 0 93 204 0 114 190 0 68 222 0 141 255 0 255 255 102 255 255 111 255 160 23 255 21 0 225 28 0 225 112 0 225 255 0 255 251 0 255 255 158 255 255 136 255 255 135 150 255 185 162 255 128 111 229 255 201 170 255 255 176 255 255 173 184 255 185 3 255 97 0 255 0 0 225 0 4 225 0 45 219 112 255 255 75 255 152 75 255 28 75 255 28 75 255 28 239 255 47 255 233 125 255 228 173 255 215 235 255 174 255 255 160 255 255 200 255 198 255 255 75 255 255 75 255 255 75 255 255 131 255 255 140 255 255 255 229 192 255 147 255 255 145 255 255 161 255 255 160 255 255 161 255 255 122 255 255 76 255 255 80 255 255 129 255 255 110 255 255 89 255 255 55 255 255 101 255 255 120 255 255 120 255 255 120 255 255 89 231 104 0 0 99 0 0 5 27 0 0 93 0 164 231 0 255 252 28 237 184 0 124 124 0 0 44 0 15 74 0 124 45 0 255 72 0 255 177 0 255 135 0 255 165 0 255 152 0 255 91 0 255 170 28 255 145 24 255 100 0 255 105 59 255 88 174 255 39 237 255 96 255 255 132 255 255 120 255 255 120 255 255 120 255 255 129 255 255 80 255 98 0 255 23 0 225 24 0 237 91 39 214 193 0 181 240 0 153 149 0 113 93 0 156 26 0 155 75 0 255 172 0 255 136 0 255 255 149 255 255 171 255 255 158 255 255 132 255 255 47 255 170 0 255 196 0 243 255 0 255 255 5 255 255 72 255 255 169 226 255 135 255 255 85 255 205 0 16 178 0 0 169 0 125 128 0 225 103 0 255 165 15 255 255 41 255 223 14 255 251 68 255 255 57 255 231 0 255 178 0 225 140 0 225 0 0 225 18 149 255 2 255 232 3 255 172 0 247 107 0 233 19 0 255 0 0 146 0 50 147 0 195 195 0 255 204 0 255 200 0 255 134 0 255 215 13 255 151 21 255 102 216 202 0 168 102 0 63 229 0 111 255 0 206 255 0 214 190 0 121 178 0 79 178 0 0 224 0 0 255 86 0 255 111 0 255 197 57 255 138 91 255 117 0 178 130 0 41 73 144 0 39 255 41 90 255 98 114 255 68 71 255 0 21 255 0 6 225 0 0 225 112 34 255 228 122 255 134 255 255 81 255 255 99 207 255 219 116 255 219 10 255 228 32 255 255 150 255 255 151 255 255 126 255 255 156 255 255 209 255 191 223 232 138 255 233 0 92 42 0 10 0 0 61 0 0 63 0 118 196 0 221 255 2 255 218 201 255 136 255 255 93 255 157 11 134 226 3 131 227 59 212 217 101 255 255 156 255 209 130 255 255 106 216 255 72 233 247 38 205 226 0 160 242 0 219 255 0 255 255 29 162 255 51 244 242 0 182 202 0 199 242 0 255 237 0 229 255 9 255 135 125 251 117 114 255 195 124 255 182 141 255 137 203 255 198 226 255 216 54 255 255 8 255 191 0 255 49 62 255 71 215 255 102 214 255 104 223 255 0 220 255 0 226 255 23 250 255 40 255 255 0 180 255 0 53 231 39 255 255 75 255 255 203 237 255 239 219 255 239 170 255 238 154 236 240 163 135 173 132 0 141 16 0 58 30 0 0 22 14 0 5 171 49 113 255 158 255 255 141 255 255 149 255 212 107 255 164 162 255 115 204 255 28 205 255 28 184 255 95 113 237 103 0 68 113 0 21 223 0 44 225 0 192 255 75 255 255 75 255 255 83 255 255 0 157 255 0 7 212 23 0 225 65 0 225 28 0 225 0 31 125 22 106 86 64 179 50 0 160 0 0 241 0 19 255 0 75 255 28 90 255 28 145 255 70 158 255 67 
255 84 0 207 0 0 191 0 0 190 0 15 189 0 18 237 0 18 255 0 174 255 0 255 255 51 255 255 0 255 200 0 255 244 73 255 211 0 255 161 0 225 148 0 157 178 0 194 178 0 0 213 0 0 255 99 0 255 77 0 255 146 142 255 42 170 255 43 89 255 124 169 242 27 255 242 0 255 198 0 255 127 7 255 141 113 255 202 241 255 255 206 255 214 92 101 62 46 0 0 54 0 16 35 0 86 0 0 250 0 69 255 20 238 142 44 167 47 0 85 153 0 119 255 0 238 255 120 255 255 125 255 255 144 255 255 147 255 255 153 255 255 145 255 255 120 255 255 120 255 255 105 255 230 93 255 189 113 255 255 180 255 246 33 255 255 0 255 255 69 255 192 10 255 133 13 236 171 37 52 255 71 48 255 173 156 200 249 172 128 249 246 47 134 255 71 82 255 215 33 255 104 0 255 90 106 255 90 190 255 24 126 255 0 130 106 0 111 0 0 135 0 0 183 0 0 255 0 89 153 0 224 111 3 192 83 28 187 62 82 238 37 215 232 13 255 219 101 255 171 246 255 75 255 255 75 255 255 75 255 255 0 124 205 0 130 89 74 0 0 255 0 178 255 145 255 255 161 255 255 160 255 255 83 192 255 0 191 255 0 255 255 1 255 255 129 255 255 120 255 255 120 255 255 120 255 255 79 255 255 120 255 255 120 255 255 120 255 255 157 255 255 119 80 172 45 0 222 244 62 150 255 0 226 255 15 255 232 8 224 171 0 226 226 0 195 239 0 167 226 0 199 120 0 249 58 0 190 29 0 255 108 0 255 208 28 255 208 28 255 208 28 255 202 60 255 198 77 255 150 46 255 114 68 255 110 196 255 54 252 255 134 255 255 132 255 255 120 255 255 120 255 255 0 255 255 0 255 255 51 255 255 174 255 255 199 255 212 149 255 132 80 255 178 0 166 175 0 88 151 0 115 198 88 255 255 221 255 255 199 255 255 168 255 255 178 255 255 136 255 106 0 253 103 0 225 155 0 225 145 0 225 148 0 252 255 33 255 255 55 255 255 83 255 255 80 255 255 69 126 255 129 255 255 69 255 255 27 105 178 0 0 169 0 125 128 0 225 39 0 225 70 0 225 145 0 225 109 0 225 107 0 240 151 0 238 178 0 225 219 0 255 255 95 255 171 231 255 145 255 255 0 249 223 0 116 12 0 184 44 0 181 0 0 255 0 81 255 0 200 255 9 255 255 28 255 213 0 230 69 0 209 82 0 255 100 0 255 51 0 221 0 62 147 0 113 174 7 135 255 45 208 255 88 255 255 86 255 255 80 254 255 108 255 255 108 88 255 127 63 255 193 82 255 201 63 255 201 61 255 186 139 255 208 28 255 230 58 171 203 255 133 193 255 100 149 255 195 211 255 224 227 255 197 240 255 156 255 255 118 144 255 46 0 249 42 0 217 0 17 225 0 44 225 70 178 255 255 169 255 255 155 255 255 159 255 255 171 255 255 151 255 255 118 255 232 0 200 92 0 96 122 154 163 70 216 165 152 255 255 242 255 235 137 255 96 147 255 27 174 252 0 49 87 0 91 0 0 144 0 109 184 0 160 255 135 255 255 173 255 255 146 255 245 129 255 255 170 255 255 216 255 255 192 255 255 129 255 255 142 255 255 87 255 255 71 255 255 125 255 255 34 167 255 77 255 255 137 255 255 130 255 255 125 255 255 105 255 255 66 255 35 25 151 170 167 255 210 139 255 253 212 255 182 248 255 207 235 255 255 162 255 255 135 255 255 156 255 217 230 255 130 255 255 155 255 255 155 255 255 47 255 255 74 255 255 51 255 255 75 255 255 75 255 255 75 255 255 75 255 255 75 255 255 129 163 255 137 117 255 152 83 240 162 78 160 191 114 86 164 123 0 148 23 0 30 2 0 0 49 41 110 191 255 183 247 255 158 255 255 141 255 255 149 255 212 22 255 79 34 201 0 114 234 0 134 253 0 156 255 67 183 255 173 145 244 255 127 255 255 73 255 255 0 148 255 0 134 255 0 202 255 83 255 255 78 255 255 159 255 255 255 199 255 255 132 255 154 68 255 73 120 214 81 165 145 156 255 142 98 255 15 68 255 21 40 255 0 0 255 0 0 254 0 0 153 0 11 193 0 
255 141 255 255 35 34 190 0 0 178 0 0 178 0 0 178 0 0 203 0 0 232 0 0 137 67 0 0 123 0 0 87 99 0 70 116 0 136 71 29 189 211 57 202 255 18 155 255 0 17 230 0 14 225 0 55 234 0 159 255 0 208 255 0 190 255 0 143 255 0 176 195 0 158 123 0 177 71 0 83 0 0 38 0 102 80 117 149 136 211 85 109 149 126 158 133 211 183 160 239 250 232 159 255 255 3 240 184 0 116 119 0 115 81 57 255 121 133 214 151 65 185 102 70 192 0 184 206 0 255 201 10 255 208 28 255 208 28 255 202 0 255 255 28 255 246 28 255 189 255 225 226 255 75 255 255 0 192 255 0 85 255 0 178 255 0 227 255 75 255 255 75 255 255 75 255 255 83 255 255 255 198 255 255 184 203 255 181 164 255 148 255 255 92 255 255 0 199 182 0 46 178 0 0 178 0 0 255 0 127 255 20 71 255 74 0 212 0 0 246 21 0 255 182 2 255 189 127 255 221 100 255 255 35 255 255 54 255 246 168 255 193 255 255 173 255 145 116 184 2 88 153 0 55 206 3 0 245 78 0 225 21 0 125 0 21 15 21 0 0 83 0 0 89 0 14 42 0 62 0 39 3 0 91 0 0 57 92 0 215 255 0 202 255 0 152 255 0 52 208 1 0 186 121 0 173 157 0 127 134 0 56 137 0 0 162 0 0 226 0 0 185 82 0 198 255 62 35 202 40 0 135 14 0 45 19 0 55 186 0 47 225 0 66 244 0 96 255 0 211 255 0 139 255 5 232 255 24 224 255 7 92 197 10 0 237 60 0 152 184 0 173 255 55 255 255 148 255 255 77 255 255 0 151 255 56 0 224 0 0 234 9 0 255 59 0 255 99 0 255 208 28 255 201 21 255 75 0 112 0 0 56 0 0 0 0 175 0 0 225 0 24 255 48 102 255 0 151 255 0 100 188 28 53 27 218 145 0 255 192 0 255 225 28 255 193 102 255 168 235 255 131 255 255 95 255 167 82 251 56 65 172 98 142 119 106 255 112 75 255 68 75 255 28 75 255 28 75 255 28 75 255 28 194 255 28 255 211 20 230 18 28 198 0 16 255 78 180 255 93 255 255 136 255 249 215 255 44 176 255 0 113 117 0 18 53 53 0 101 153 0 169 113 0 161 94 0 183 147 0 196 198 0 201 190 0 199 148 0 198 130 0 196 133 0 170 255 53 232 255 94 185 168 71 188 35 0 115 23 0 116 0 0 225 0 58 255 0 29 228 18 0 225 161 0 255 93 0 255 23 96 255 0 0 225 53 0 225 148 0 225 85 0 225 206 118 255 255 50 255 255 50 255 245 0 255 208 0 255 255 49 255 255 75 255 255 105 222 150 38 90 41 6 0 56 39 0 18 34 0 0 31 0 98 0 0 116 0 0 100 0 0 149 90 0 255 232 21 255 195 91 255 175 0 255 187 0 255 125 0 255 110 0 255 183 3 255 140 0 255 206 26 255 208 28 255 197 17 255 169 18 255 95 0 109 139 65 156 169 153 187 239 255 210 234 255 255 206 255 255 175 255 255 150 255 255 116 255 221 156 255 251 193 255 136 69 255 158 79 255 10 0 240 0 2 225 0 22 225 0 16 225 0 81 67 76 204 37 255 239 23 255 200 0 255 127 0 255 103 0 255 208 28 255 172 212 255 144 255 255 141 255 255 180 255 255 175 255 255 192 255 207 225 255 117 234 255 135 255 255 178 233 255 255 166 255 205 7 255 93 0 225 60 0 225 114 0 225 183 0 230 255 0 255 255 89 255 255 184 255 255 202 255 255 253 28 255 255 28 149 224 13 0 77 86 0 12 168 0 25 131 0 52 68 55 39 113 168 107 255 255 189 255 255 142 255 255 117 255 255 75 255 255 0 255 232 0 255 255 100 255 255 127 255 255 188 255 208 217 255 0 116 255 0 121 255 0 151 255 0 145 255 0 97 255 0 47 225 0 0 225 187 116 255 255 183 255 255 182 255 255 167 255 255 130 255 255 171 255 207 235 255 165 255 255 163 255 255 130 255 240 33 255 167 33 245 147 144 255 226 203 255 230 242 246 255 200 245 255 212 196 255 255 101 255 183 0 239 178 0 125 186 0 61 210 0 0 246 0 0 
255 123 255 255 179 178 255 198 81 255 89 0 238 11 0 202 0 0 255 23 12 255 30 0 237 167 0 88 255 208 20 255 255 50 255 255 0 123 58 0 45 67 0 61 192 0 66 255 86 208 255 34 163 255 0 188 255 49 255 255 57 255 255 35 255 255 0 222 255 0 232 251 0 167 132 0 243 137 0 117 25 97 169 97 207 185 222 170 157 232 123 147 187 128 160 135 148 120 97 189 200 182 101 238 232 0 174 118 0 147 150 0 103 69 0 140 0 34 115 52 53 173 90 93 215 0 232 254 0 255 219 28 255 208 28 255 208 28 255 245 28 255 255 26 255 196 0 255 106 255 166 167 255 67 255 255 86 255 255 124 255 255 92 255 255 75 255 255 22 249 255 0 188 208 0 238 255 0 162 255 35 0 200 158 0 0 200 0 0 255 0 182 255 59 255 255 26 244 233 0 97 226 0 0 255 81 91 255 139 255 255 170 221 255 204 45 255 103 0 227 2 0 255 59 0 255 51 0 255 165 44 255 255 35 255 255 54 255 246 168 255 133 237 182 0 163 12 0 51 0 18 83 0 3 154 0 0 225 78 0 225 113 56 217 187 255 252 255 252 212 255 227 178 255 206 255 255 221 255 176 255 255 82 255 237 107 255 255 75 255 255 33 255 255 0 211 255 107 238 255 255 218 255 255 111 255 255 57 255 174 0 96 137 0 0 162 0 0 185 0 0 234 131 0 157 236 21 107 255 112 146 255 165 162 255 255 75 255 255 75 255 255 75 255 255 75 255 255 0 170 255 0 107 255 0 71 249 0 89 255 35 120 225 114 98 255 234 113 255 255 88 255 255 141 255 255 153 255 255 140 255 255 153 255 255 198 77 255 208 28 255 208 28 255 208 28 255 208 28 255 206 26 255 148 0 255 67 0 255 240 35 255 232 223 218 201 255 65 87 255 0 0 225 0 0 225 0 50 171 0 23 111 0 10 0 89 16 0 167 29 0 255 94 0 255 61 0 255 28 95 255 0 196 255 53 230 135 50 219 3 12 119 0 15 0 0 71 0 0 192 0 0 197 0 0 239 0 0 229 0 0 246 0 121 255 0 190 145 0 255 64 74 255 0 80 158 0 17 151 0 145 147 0 225 0 0 216 0 29 118 0 43 47 64 139 174 138 38 186 171 0 187 255 150 255 195 66 255 255 59 255 255 46 255 208 0 217 255 15 255 255 57 255 255 124 255 255 157 255 255 192 255 255 212 255 222 146 255 58 0 151 100 131 255 52 190 255 4 168 255 255 201 255 255 153 255 255 194 255 177 250 255 158 228 255 250 126 255 255 110 255 202 29 255 95 7 255 159 0 225 185 0 232 255 77 255 255 120 255 255 130 255 255 134 255 255 128 245 255 215 255 165 130 96 57 40 0 18 34 0 31 75 0 255 177 78 255 209 10 242 134 0 189 130 0 149 73 0 255 131 27 255 160 0 255 126 0 255 123 0 255 81 0 255 124 0 255 202 22 255 208 28 255 208 28 255 208 28 255 161 10 255 116 8 82 112 38 105 118 102 98 150 255 153 177 255 255 197 255 255 158 255 227 3 255 114 0 225 14 0 225 9 0 225 42 0 252 69 0 255 15 0 245 0 2 225 0 22 225 0 16 225 0 98 84 32 160 0 130 113 0 255 218 0 222 52 0 255 43 0 178 0 0 178 0 0 178 0 101 178 0 115 106 0 102 242 80 255 255 192 255 214 232 255 162 255 255 144 255 255 191 246 255 255 172 255 255 102 255 238 53 255 95 0 255 150 0 255 203 0 250 178 0 225 135 0 225 92 0 118 225 76 143 255 228 3 255 243 5 146 221 10 25 127 136 16 117 255 65 191 255 145 226 242 229 213 255 157 96 255 125 17 255 123 0 255 207 4 255 255 32 255 255 23 255 255 21 255 255 147 255 255 161 255 255 188 255 221 230 255 106 255 255 75 255 255 75 255 255 75 255 255 0 210 255 0 185 255 59 129 255 217 146 255 240 114 255 217 76 255 255 86 255 255 125 255 255 171 255 207 235 255 165 255 255 120 249 255 65 255 175 36 255 170 48 255 162 0 164 74 97 180 124 99 103 189 0 43 247 45 29 255 91 0 235 255 63 255 255 84 255 255 125 255 255 22 62 178 0 0 
